; generated by Slic3r 1.2.9 on 2016-08-02 at 10:21:40

; external perimeters extrusion width = 0.40mm
; perimeters extrusion width = 0.48mm
; infill extrusion width = 0.48mm
; solid infill extrusion width = 0.48mm
; top infill extrusion width = 0.48mm

M107
M190 S70 ; set bed temperature
M104 S210 ; set temperature
G28 ; home all axes
G1 Z5 F5000 ; lift nozzle

M109 S210 ; wait for temperature to be reached
G21 ; set units to millimeters
G90 ; use absolute coordinates
M82 ; use absolute distances for extrusion
G92 E0
G1 Z0.350 F7800.000
G1 E-2.00000 F2400.00000
G92 E0
G1 X-29.625 Y0.000 F7800.000
G1 E2.00000 F2400.00000
G1 X-29.625 Y-27.672 E2.94870 F2340.000
G1 X-29.228 Y-29.931 E3.02733
G1 X-28.085 Y-31.919 E3.10596
G1 X-26.332 Y-33.398 E3.18459
G1 X-24.180 Y-34.191 E3.26322
G1 X-23.000 Y-34.297 E3.30383
G1 X3.000 Y-34.297 E4.19521
G1 X3.715 Y-34.258 E4.21977
G1 X23.715 Y-32.086 E4.90948 F2340.000
G1 X25.918 Y-31.448 E4.98811
G1 X27.771 Y-30.096 E5.06674
G1 X29.052 Y-28.194 E5.14537
G1 X29.625 Y-25.500 E5.23980
G1 X29.625 Y25.500 E6.98828
G1 X29.228 Y27.759 E7.06691
G1 X28.085 Y29.747 E7.14554
G1 X26.332 Y31.226 E7.22417
G1 X23.715 Y32.086 E7.31860
G1 X3.715 Y34.258 E8.00831
G1 X3.000 Y34.297 E8.03286
G1 X-23.000 Y34.297 E8.92425
G1 X-25.259 Y33.900 E9.00288
G1 X-27.247 Y32.756 E9.08151
G1 X-28.726 Y31.004 E9.16013
G1 X-29.519 Y28.852 E9.23876
G1 X-29.625 Y27.672 E9.27937
G1 X-29.625 Y0.060 E10.22602
G1 E8.22602 F2400.00000
G92 E0
G1 X-1.208 Y28.569 F7800.000
G1 E2.00000 F2400.00000
G1 X-1.576 Y28.937 E2.01784 F2340.000
G1 X-15.254 Y28.937 E2.48677
G1 X-18.276 Y29.332 E2.59125
G1 X-20.904 Y30.409 E2.68861
G1 X-22.603 Y31.700 E2.76178
G1 X-26.437 Y29.809 E2.90832
G1 X-26.437 Y-29.809 E4.95226
G1 X-22.604 Y-31.700 E5.09878
G1 X-20.904 Y-30.409 E5.17197
G1 X-18.276 Y-29.332 E5.26934
G1 X-15.254 Y-28.937 E5.37381
G1 X-1.576 Y-28.937 E5.84274
G1 X-1.208 Y-28.569 E5.86059
G1 X-0.437 Y-28.888 E5.88922
G1 X-0.437 Y-29.809 E5.92077
G1 X3.396 Y-31.700 E6.06729
G1 X5.096 Y-30.409 E6.14048
G1 X7.645 Y-29.353 E6.23505
G1 X10.705 Y-28.940 E6.34092
G1 X24.424 Y-28.937 E6.81125
G1 X26.437 Y-26.924 E6.90886
G1 X26.437 Y26.924 E8.75496
G1 X24.424 Y28.937 E8.85257
G1 X10.705 Y28.940 E9.32290
G1 X7.645 Y29.353 E9.42877
G1 X5.096 Y30.409 E9.52334
G1 X3.397 Y31.700 E9.59651
G1 X-0.437 Y29.809 E9.74305
G1 X-0.437 Y28.888 E9.77462
G1 X-1.153 Y28.592 E9.80119
G1 X-0.584 Y27.060 F7800.000
G1 X-1.835 Y28.312 E9.86188 F2340.000
G1 X-15.295 Y28.312 E10.32334
G1 X-18.439 Y28.723 E10.43204
G1 X-21.219 Y29.863 E10.53504
G1 X-22.675 Y30.967 E10.59771
G1 X-25.812 Y29.421 E10.71761
G1 X-25.812 Y-29.420 E12.73491
G1 X-22.676 Y-30.967 E12.85479
G1 X-21.219 Y-29.863 E12.91748
G1 X-18.439 Y-28.723 E13.02048
G1 X-15.295 Y-28.312 E13.12918
G1 X-1.835 Y-28.312 E13.59064
G1 X-0.584 Y-27.060 E13.65133
G1 X0.188 Y-27.380 E13.67996
G1 X0.188 Y-29.420 E13.74991
G1 X3.324 Y-30.967 E13.86979
G1 X4.781 Y-29.863 E13.93248
G1 X7.561 Y-28.723 E14.03548
G1 X10.705 Y-28.312 E14.14418
G1 X24.165 Y-28.312 E14.60564
G1 X25.812 Y-26.665 E14.68551
G1 X25.812 Y26.665 E16.51386
G1 X24.165 Y28.312 E16.59372
G1 X10.705 Y28.312 E17.05519
G1 X7.561 Y28.723 E17.16389
G1 X4.781 Y29.863 E17.26689
G1 X3.325 Y30.967 E17.32956
G1 X0.188 Y29.421 E17.44946
G1 X0.188 Y27.380 E17.51942
G1 X-0.528 Y27.083 E17.54599
G1 E15.54599 F2400.00000
G92 E0
G1 X-0.563 Y28.118 F7800.000
G1 X-0.572 Y28.142 F7800.000
G1 X1.006 Y29.226 F7800.000
G1 X0.813 Y29.032 F7800.000
G1 E2.00000 F2400.00000
G1 X0.813 Y-29.032 E3.99066 F2340.000
G1 X3.252 Y-30.235 E4.08389
G1 X4.466 Y-29.317 E4.13608
G1 X7.319 Y-28.136 E4.24193
G1 X10.623 Y-27.690 E4.35625
G1 X23.906 Y-27.687 E4.81164
G1 X25.187 Y-26.406 E4.87375
G1 X25.187 Y26.406 E6.68436
G1 X23.906 Y27.687 E6.74647
G1 X10.664 Y27.687 E7.20047
G1 X7.398 Y28.114 E7.31339
G1 X4.466 Y29.317 E7.42203
G1 X3.252 Y30.235 E7.47420
G1 X0.867 Y29.058 E7.56540
G1 X1.438 Y28.643 F7800.000
G1 X1.438 Y-28.643 E9.52941 F2340.000
G1 X3.180 Y-29.503 E9.59601
G1 X4.151 Y-28.771 E9.63769
G1 X7.156 Y-27.527 E9.74919
G1 X10.582 Y-27.065 E9.86772
G1 X23.647 Y-27.062 E10.31564
G1 X24.562 Y-26.147 E10.36001
G1 X24.562 Y26.147 E12.15287
G1 X23.647 Y27.062 E12.19724
G1 X10.623 Y27.062 E12.64376
G1 X7.235 Y27.506 E12.76091
G1 X4.151 Y28.771 E12.87519
G1 X3.180 Y29.503 E12.91686
G1 X1.492 Y28.670 E12.98141
G1 X2.063 Y28.255 F7800.000
G1 X2.063 Y-28.255 E14.91878 F2340.000
G1 X3.108 Y-28.770 E14.95874
G1 X3.836 Y-28.225 E14.98992
G1 X6.992 Y-26.918 E15.10705
G1 X10.541 Y-26.440 E15.22981
G1 X23.388 Y-26.437 E15.67027
G1 X23.937 Y-25.888 E15.69689
G1 X23.937 Y25.888 E17.47199
G1 X23.388 Y26.437 E17.49862
G1 X10.541 Y26.440 E17.93907
G1 X6.992 Y26.918 E18.06183
G1 X3.836 Y28.225 E18.17897
G1 X3.108 Y28.770 E18.21013
G1 X2.116 Y28.281 E18.24804
G1 X2.688 Y27.866 F7800.000
G1 X2.688 Y-27.866 E20.15877 F2340.000
G1 X3.036 Y-28.038 E20.17209
G1 X3.521 Y-27.680 E20.19276
G1 X6.908 Y-26.288 E20.31832
G1 X10.500 Y-25.815 E20.44252
G1 X23.129 Y-25.812 E20.87551
G1 X23.312 Y-25.629 E20.88438
G1 X23.312 Y25.629 E22.64174
G1 X23.129 Y25.812 E22.65061
G1 X10.500 Y25.815 E23.08359
G1 X6.908 Y26.288 E23.20779
G1 X3.521 Y27.680 E23.33336
G1 X3.036 Y28.038 E23.35402
G1 X2.741 Y27.893 E23.36529
G1 E21.36529 F2400.00000
G92 E0
G1 X2.000 Y28.118 F7800.000
G1 X-0.572 Y28.142 F7800.000
G1 X-2.281 Y28.577 F7800.000
G1 X-23.227 Y29.711 F7800.000
G1 X-22.748 Y30.235 F7800.000
G1 E2.00000 F2400.00000
G1 X-25.187 Y29.032 E2.09325 F2340.000
G1 X-25.187 Y-29.032 E4.08391
G1 X-22.748 Y-30.235 E4.17715
G1 X-21.534 Y-29.317 E4.22933
G1 X-18.681 Y-28.136 E4.33519
G1 X-15.377 Y-27.690 E4.44950
G1 X-2.094 Y-27.687 E4.90489
G1 X-0.813 Y-26.406 E4.96701
G1 X-0.813 Y26.406 E6.77761
G1 X-2.094 Y27.687 E6.83973
G1 X-15.336 Y27.687 E7.29372
G1 X-18.602 Y28.114 E7.40665
G1 X-21.534 Y29.317 E7.51529
G1 X-22.700 Y30.198 E7.56540
G1 X-22.820 Y29.503 F7800.000
G1 X-24.562 Y28.643 E7.63201 F2340.000
G1 X-24.562 Y-28.643 E9.59602
G1 X-22.820 Y-29.503 E9.66262
G1 X-21.849 Y-28.771 E9.70430
G1 X-18.844 Y-27.527 E9.81580
G1 X-15.418 Y-27.065 E9.93433
G1 X-2.353 Y-27.062 E10.38225
G1 X-1.438 Y-26.147 E10.42662
G1 X-1.438 Y26.147 E12.21948
G1 X-2.353 Y27.062 E12.26385
G1 X-15.377 Y27.062 E12.71037
G1 X-18.765 Y27.506 E12.82752
G1 X-21.849 Y28.771 E12.94180
G1 X-22.772 Y29.466 E12.98141
G1 X-23.937 Y28.255 F7800.000
G1 X-23.937 Y-28.255 E14.91878 F2340.000
G1 X-22.892 Y-28.770 E14.95874
G1 X-22.164 Y-28.225 E14.98992
G1 X-19.008 Y-26.918 E15.10706
G1 X-15.459 Y-26.440 E15.22981
G1 X-2.612 Y-26.437 E15.67027
G1 X-2.063 Y-25.888 E15.69689
G1 X-2.063 Y25.888 E17.47199
G1 X-2.612 Y26.437 E17.49862
G1 X-15.459 Y26.440 E17.93907
G1 X-19.008 Y26.918 E18.06183
G1 X-22.164 Y28.225 E18.17897
G1 X-22.892 Y28.770 E18.21013
G1 X-23.884 Y28.281 E18.24804
G1 X-23.312 Y27.866 F7800.000
G1 X-23.312 Y-27.866 E20.15877 F2340.000
G1 X-22.964 Y-28.038 E20.17209
G1 X-22.479 Y-27.680 E20.19276
G1 X-19.092 Y-26.288 E20.31832
G1 X-15.500 Y-25.815 E20.44252
G1 X-2.871 Y-25.812 E20.87551
G1 X-2.688 Y-25.629 E20.88438
G1 X-2.688 Y25.629 E22.64174
G1 X-2.871 Y25.812 E22.65061
G1 X-15.500 Y25.815 E23.08359
G1 X-19.092 Y26.288 E23.20779
G1 X-22.479 Y27.680 E23.33336
G1 X-22.964 Y28.038 E23.35402
G1 X-23.259 Y27.893 E23.36529
G1 E21.36529 F2400.00000
G92 E0
G1 X3.350 Y27.033 F7800.000
G1 E2.00000 F2400.00000
G1 X3.351 Y-27.033 E3.85360 F1170.000
G1 X6.695 Y-25.648 E3.97767
G1 X10.477 Y-25.150 E4.10847
G1 X22.650 Y-25.150 E4.52580
G1 X22.650 Y25.150 E6.25029
G1 X10.477 Y25.150 E6.66763
G1 X6.695 Y25.648 E6.79843
G1 X3.405 Y27.010 E6.92048
G1 X3.503 Y26.664 F7800.000
G1 X3.975 Y26.098 F7800.000
G1 X3.976 Y-26.098 E8.70996 F2340.000
G1 X6.531 Y-25.039 E8.80478
G1 X10.436 Y-24.525 E8.93981
G1 X22.025 Y-24.525 E9.33712
G1 X22.025 Y24.525 E11.01876
G1 X10.436 Y24.525 E11.41608
G1 X6.531 Y25.039 E11.55110
G1 X4.030 Y26.075 E11.64391
G1 X4.600 Y25.163 F7800.000
G1 X4.601 Y-25.162 E13.36927 F2340.000
G1 X6.368 Y-24.430 E13.43485
G1 X8.683 Y-24.126 E13.51491
G1 X6.753 Y-22.723 E13.59673
G1 X5.868 Y-20.000 E13.69488
G1 X6.753 Y-17.277 E13.79303
G1 X9.069 Y-15.595 E13.89118
G1 X11.931 Y-15.595 E13.98933
G1 X14.247 Y-17.277 E14.08747
G1 X15.132 Y-20.000 E14.18562
G1 X14.247 Y-22.723 E14.28377
G1 X12.983 Y-23.641 E14.33734
G1 X13.067 Y-23.900 E14.34668
G1 X21.400 Y-23.900 E14.63236
G1 X21.400 Y23.900 E16.27115
G1 X13.067 Y23.900 E16.55683
G1 X12.983 Y23.641 E16.56617
G1 X14.247 Y22.723 E16.61974
G1 X15.132 Y20.000 E16.71789
G1 X14.247 Y17.277 E16.81604
G1 X11.931 Y15.595 E16.91419
G1 X9.069 Y15.595 E17.01234
G1 X6.753 Y17.277 E17.11048
G1 X5.868 Y20.000 E17.20863
G1 X6.753 Y22.723 E17.30678
G1 X8.683 Y24.126 E17.38861
G1 X6.368 Y24.430 E17.46866
G1 X4.655 Y25.140 E17.53223
G1 X9.475 Y3.156 F7800.000
G1 X7.816 Y1.950 E17.60254 F585.000
G1 X7.182 Y-0.000 E17.67284
G1 X7.816 Y-1.950 E17.74315
G1 X9.475 Y-3.156 E17.81345
G1 X11.525 Y-3.156 E17.88375 F585.000
G1 X13.184 Y-1.950 E17.95406
G1 X13.818 Y-0.000 E18.02436
G1 X13.184 Y1.950 E18.09467
G1 X11.525 Y3.156 E18.16497
G1 X9.535 Y3.156 E18.23322
G1 X9.151 Y3.391 F7800.000
G1 X9.475 Y3.781 F7800.000
G1 X9.272 Y3.781 E18.24018 F585.000
G1 X7.284 Y2.336 E18.32441
G1 X6.525 Y-0.000 E18.40863
G1 X7.284 Y-2.336 E18.49286
G1 X9.272 Y-3.781 E18.57709
G1 X11.728 Y-3.781 E18.66131 F585.000
G1 X13.716 Y-2.336 E18.74554
G1 X14.475 Y-0.000 E18.82976
G1 X13.716 Y2.336 E18.91399
G1 X11.728 Y3.781 E18.99822
G1 X9.535 Y3.781 E19.07342
G1 X9.475 Y4.405 F7800.000
G1 X9.069 Y4.405 E19.08735 F585.000
G1 X6.753 Y2.723 E19.18549
G1 X5.868 Y-0.000 E19.28364
G1 X6.753 Y-2.723 E19.38179
G1 X9.069 Y-4.405 E19.47994
G1 X11.931 Y-4.405 E19.57809 F585.000
G1 X14.247 Y-2.723 E19.67624
G1 X15.132 Y-0.000 E19.77438
G1 X14.247 Y2.723 E19.87253
G1 X11.931 Y4.405 E19.97068
G1 X9.535 Y4.405 E20.05285
G1 X6.055 Y4.014 F7800.000
G1 X5.672 Y-2.869 F7800.000
G1 X9.263 Y-9.069 F7800.000
G1 X9.263 Y-10.931 F7800.000
G1 X9.263 Y-16.194 F7800.000
G1 X9.475 Y-16.844 F7800.000
G1 X7.816 Y-18.050 E20.12315 F585.000
G1 X7.182 Y-20.000 E20.19346
G1 X7.816 Y-21.950 E20.26376
G1 X9.475 Y-23.156 E20.33407
G1 X11.525 Y-23.156 E20.40437 F585.000
G1 X13.184 Y-21.950 E20.47468
G1 X13.818 Y-20.000 E20.54498
G1 X13.184 Y-18.050 E20.61528
G1 X11.525 Y-16.844 E20.68559
G1 X9.535 Y-16.844 E20.75384
G1 X9.151 Y-16.609 F7800.000
G1 X9.475 Y-16.219 F7800.000
G1 X9.272 Y-16.219 E20.76080 F585.000
G1 X7.284 Y-17.664 E20.84502
G1 X6.525 Y-20.000 E20.92925
G1 X7.284 Y-22.336 E21.01348
G1 X9.272 Y-23.781 E21.09770
G1 X11.728 Y-23.781 E21.18193 F585.000
G1 X13.716 Y-22.336 E21.26615
G1 X14.475 Y-20.000 E21.35038
G1 X13.716 Y-17.664 E21.43461
G1 X11.728 Y-16.219 E21.51883
G1 X9.535 Y-16.219 E21.59404
G1 X9.263 Y-16.194 F7800.000
G1 X5.281 Y0.396 F7800.000
G1 X7.315 Y6.487 F7800.000
G1 X10.194 Y10.000 F7800.000
G1 X9.263 Y10.931 F7800.000
G1 X9.263 Y16.194 F7800.000
G1 X9.475 Y16.844 F7800.000
G1 X11.525 Y16.844 E21.66435 F585.000
G1 X13.184 Y18.050 E21.73465
G1 X13.818 Y20.000 E21.80495
G1 X13.184 Y21.950 E21.87526
G1 X11.525 Y23.156 E21.94556
G1 X9.475 Y23.156 E22.01587
G1 X7.816 Y21.950 E22.08617
G1 X7.182 Y20.000 E22.15648
G1 X7.816 Y18.050 E22.22678
G1 X9.426 Y16.880 E22.29503
G1 X9.598 Y16.464 F7800.000
G1 X9.475 Y16.219 F7800.000
G1 X11.728 Y16.219 E22.37229 F585.000
G1 X13.716 Y17.664 E22.45652
G1 X14.475 Y20.000 E22.54074
G1 X13.716 Y22.336 E22.62497
G1 X11.728 Y23.781 E22.70920
G1 X9.272 Y23.781 E22.79342
G1 X7.284 Y22.336 E22.87765
G1 X7.167 Y21.975 E22.89070
G1 X6.525 Y20.000 E22.96188
G1 X7.284 Y17.664 E23.04610
G1 X9.272 Y16.219 E23.13033
G1 X9.415 Y16.219 E23.13523 F585.000
G1 X5.334 Y19.267 F7800.000
G1 X5.234 Y19.901 E23.18187 F780.000
G1 X5.234 Y20.099 E23.19631
G1 X5.334 Y20.733 E23.24293
G1 X5.867 Y21.376 F7800.000
G1 X5.553 Y21.062 E23.25898 F780.000
G1 X4.978 Y21.419 E23.28345
G1 X6.316 Y22.756 E23.35182
G1 X6.654 Y24.027 E23.39937
G1 X4.978 Y22.351 E23.48506
G1 X4.978 Y23.283 E23.51876
G1 X5.938 Y24.243 E23.56782
G1 X5.279 Y24.516 E23.59361
G1 X4.978 Y24.215 E23.60898
G1 X9.215 Y24.107 F7800.000
G1 X9.532 Y24.210 E23.62041 F780.000
G1 X10.416 Y24.153 E23.65077
G1 X11.830 Y24.153 E23.69926
G1 X12.728 Y23.867 E23.73157
G1 X8.977 Y24.200 F7800.000
G1 X5.672 Y22.869 F7800.000
G1 X5.281 Y19.604 F7800.000
G1 X9.263 Y9.069 F7800.000
G1 X5.672 Y2.869 F7800.000
G1 X5.600 Y2.411 F7800.000
G1 X5.281 Y0.396 F7800.000
G1 X5.335 Y0.734 F7800.000
G1 X5.234 Y0.099 E23.77831 F780.000
G1 X5.234 Y-0.099 E23.79274
G1 X5.335 Y-0.734 E23.83949
G1 X4.979 Y-1.909 F7800.000
G1 X5.825 Y-1.063 E23.88076 F780.000
G1 X6.063 Y-1.714 E23.90469
G1 X4.979 Y-2.798 E23.95758
G1 X4.979 Y-3.687 E23.98826
G1 X6.281 Y-2.385 E24.05178
G1 X6.566 Y-2.990 E24.07484
G1 X4.979 Y-4.577 E24.15225
G1 X4.979 Y-5.466 E24.18293
G1 X7.081 Y-3.364 E24.28548
G1 X7.596 Y-3.738 E24.30744
G1 X4.979 Y-6.355 E24.43511
G1 X4.979 Y-7.244 E24.46579
G1 X8.111 Y-4.113 E24.61860
G1 X8.626 Y-4.487 E24.64056
G1 X4.979 Y-8.134 E24.81849
G1 X4.979 Y-9.023 E24.84917
G1 X9.218 Y-4.784 E25.05600
G1 X10.107 Y-4.784 E25.08668
G1 X4.979 Y-9.912 E25.33689
G1 X4.979 Y-10.802 E25.36757
G1 X10.997 Y-4.784 E25.66116
G1 X11.886 Y-4.784 E25.69184
G1 X4.979 Y-11.691 E26.02883
G1 X4.979 Y-12.580 E26.05951
G1 X21.022 Y3.462 E26.84222
G1 X21.022 Y2.573 E26.87290
G1 X4.979 Y-13.469 E27.65561
G1 X4.979 Y-14.359 E27.68629
G1 X21.022 Y1.684 E28.46900
G1 X21.022 Y0.794 E28.49968
G1 X4.979 Y-15.248 E29.28239
G1 X4.979 Y-16.137 E29.31307
G1 X21.022 Y-0.095 E30.09578
G1 X21.022 Y-0.984 E30.12646
G1 X4.979 Y-17.026 E30.90917
G1 X4.979 Y-17.916 E30.93985
G1 X21.022 Y-1.873 E31.72256
G1 X21.022 Y-2.763 E31.75324
G1 X8.033 Y-15.752 E32.38697
G1 X9.458 Y-15.216 F7800.000
G1 X21.022 Y-3.652 E32.95118 F780.000
G1 X21.022 Y-4.541 E32.98186
G1 X10.347 Y-15.216 E33.50268
G1 X11.236 Y-15.216 E33.53336
G1 X21.022 Y-5.431 E34.01080
G1 X21.022 Y-6.320 E34.04148
G1 X12.058 Y-15.284 E34.47882
G1 X12.573 Y-15.658 E34.50078
G1 X21.022 Y-7.209 E34.91299
G1 X21.022 Y-8.099 E34.94367
G1 X13.088 Y-16.032 E35.33076
G1 X13.603 Y-16.406 E35.35272
G1 X21.022 Y-8.988 E35.71467
G1 X21.022 Y-9.877 E35.74535
G1 X14.118 Y-16.781 E36.08217
G1 X14.585 Y-17.203 E36.10389
G1 X21.022 Y-10.766 E36.41793
G1 X21.022 Y-11.656 E36.44861
G1 X14.803 Y-17.874 E36.75202
G1 X15.021 Y-18.545 E36.77636
G1 X21.022 Y-12.545 E37.06912
G1 X21.022 Y-13.434 E37.09980
G1 X15.239 Y-19.217 E37.38192
G1 X15.457 Y-19.888 E37.40627
G1 X21.022 Y-14.324 E37.67775
G1 X21.022 Y-15.213 E37.70843
G1 X15.265 Y-20.969 E37.98930
G1 X14.837 Y-22.287 E38.03708
G1 X21.022 Y-16.102 E38.33883
G1 X21.022 Y-16.991 E38.36951
G1 X14.491 Y-23.522 E38.68812
G1 X15.381 Y-23.522 E38.71880
G1 X21.022 Y-17.881 E38.99403
G1 X21.022 Y-18.770 E39.02471
G1 X16.270 Y-23.522 E39.25654
G1 X17.159 Y-23.522 E39.28722
G1 X21.022 Y-19.659 E39.47566
G1 X21.022 Y-20.549 E39.50634
G1 X18.049 Y-23.522 E39.65140
G1 X18.938 Y-23.522 E39.68208
G1 X21.022 Y-21.438 E39.78374
G1 X21.022 Y-22.327 E39.81442
G1 X19.827 Y-23.522 E39.87270
G1 X20.717 Y-23.522 E39.90338
G1 X21.022 Y-23.217 E39.91826
G1 X10.389 Y-24.154 F7800.000
G1 X5.854 Y-23.395 F7800.000
G1 X5.281 Y-20.396 F7800.000
G1 X5.281 Y-19.604 F7800.000
G1 X5.672 Y-17.131 F7800.000
G1 X6.207 Y-17.577 F7800.000
G1 X4.979 Y-18.805 E39.97817 F780.000
G1 X5.320 Y1.100 F7800.000
G1 X5.998 Y1.778 E40.01120 F780.000
G1 X4.979 Y1.648 E40.04662
G1 X21.022 Y17.691 E40.82935
G1 X21.022 Y16.802 E40.86003
G1 X9.004 Y4.784 E41.44638
G1 X9.893 Y4.784 E41.47707
G1 X21.022 Y15.912 E42.02003
G1 X21.022 Y15.023 E42.05071
G1 X10.782 Y4.784 E42.55028
G1 X11.672 Y4.784 E42.58096
G1 X21.022 Y14.134 E43.03714
G1 X21.022 Y13.245 E43.06782
G1 X12.310 Y4.533 E43.49286
G1 X12.825 Y4.159 E43.51482
G1 X21.022 Y12.355 E43.91473
G1 X21.022 Y11.466 E43.94541
G1 X13.340 Y3.785 E44.32018
G1 X13.855 Y3.410 E44.34215
G1 X21.022 Y10.577 E44.69179
G1 X21.022 Y9.687 E44.72247
G1 X14.370 Y3.036 E45.04698
G1 X14.692 Y2.468 E45.06949
G1 X21.022 Y8.798 E45.37833
G1 X21.022 Y7.909 E45.40901
G1 X14.910 Y1.797 E45.70720
G1 X15.128 Y1.126 E45.73154
G1 X21.022 Y7.019 E46.01909
G1 X21.022 Y6.130 E46.04977
G1 X15.346 Y0.455 E46.32668
