; generated by Slic3r 1.2.9 on 2016-02-27 at 11:56:36

; external perimeters extrusion width = 0.40mm
; perimeters extrusion width = 0.67mm
; infill extrusion width = 0.67mm
; solid infill extrusion width = 0.67mm
; top infill extrusion width = 0.67mm
; support material extrusion width = 0.40mm

M107
M190 S70 ; set bed temperature
M104 S210 ; set temperature
G28 ; home all axes
G1 Z5 F5000 ; lift nozzle

M109 S210 ; wait for temperature to be reached
G21 ; set units to millimeters
G90 ; use absolute coordinates
M82 ; use absolute distances for extrusion
G92 E0
G1 Z0.350 F7800.000
G1 E-2.00000 F2400.00000
G92 E0
G1 X0.000 Y29.625 F7800.000
G1 E2.00000 F2400.00000
G1 X-57.000 Y29.625 E3.95419 F1800.000
G1 X-59.259 Y29.228 E4.03282
G1 X-61.247 Y28.085 E4.11145
G1 X-62.726 Y26.332 E4.19007
G1 X-63.519 Y24.180 E4.26870
G1 X-63.625 Y23.000 E4.30931
G1 X-63.625 Y-23.000 E5.88638
G1 X-63.228 Y-25.259 E5.96501
G1 X-62.085 Y-27.247 E6.04363
G1 X-60.332 Y-28.726 E6.12226
G1 X-58.180 Y-29.519 E6.20089
G1 X-57.000 Y-29.625 E6.24150
G1 X57.000 Y-29.625 E10.14988
G1 X59.259 Y-29.228 E10.22851
G1 X61.247 Y-28.085 E10.30714 F1800.000
G1 X62.726 Y-26.332 E10.38577
G1 X63.519 Y-24.180 E10.46439
G1 X63.625 Y-23.000 E10.50500
G1 X63.625 Y23.000 E12.08207
G1 X63.228 Y25.259 E12.16070
G1 X62.085 Y27.247 E12.23933
G1 X60.332 Y28.726 E12.31795
G1 X58.180 Y29.519 E12.39658
G1 X57.000 Y29.625 E12.43719
G1 X0.060 Y29.625 E14.38932
G1 E12.38932 F2400.00000
G92 E0
G1 X0.000 Y26.437 F7800.000
G1 E2.00000 F2400.00000
G1 X-18.424 Y26.437 E2.63164 F1800.000
G1 X-19.741 Y25.119 E2.69552
G1 X-20.259 Y25.119 E2.71326
G1 X-21.576 Y26.437 E2.77715
G1 X-58.424 Y26.437 E4.04042
G1 X-60.437 Y24.424 E4.13803
G1 X-60.437 Y1.576 E4.92132
G1 X-59.119 Y0.259 E4.98521
G1 X-59.119 Y-0.259 E5.00295
G1 X-60.437 Y-1.576 E5.06684
G1 X-60.437 Y-24.424 E5.85013
G1 X-58.424 Y-26.437 E5.94774
G1 X-21.576 Y-26.437 E7.21101
G1 X-20.259 Y-25.119 E7.27489
G1 X-19.741 Y-25.119 E7.29264 F1800.000
G1 X-18.424 Y-26.437 E7.35652
G1 X18.424 Y-26.437 E8.61979
G1 X19.741 Y-25.119 E8.68368
G1 X20.259 Y-25.119 E8.70142
G1 X21.576 Y-26.437 E8.76531
G1 X58.424 Y-26.437 E10.02858
G1 X60.437 Y-24.424 E10.12619
G1 X60.437 Y-1.576 E10.90948
G1 X59.119 Y-0.259 E10.97336
G1 X59.119 Y0.259 E10.99111
G1 X60.437 Y1.576 E11.05499
G1 X60.437 Y24.424 E11.83829
G1 X58.424 Y26.437 E11.93590
G1 X21.576 Y26.437 E13.19917
G1 X20.259 Y25.119 E13.26305
G1 X19.741 Y25.119 E13.28080
G1 X18.424 Y26.437 E13.34468
G1 X0.060 Y26.437 E13.97426
G1 X0.000 Y25.812 F7800.000
G1 X-18.165 Y25.812 E14.59702 F1800.000
G1 X-19.741 Y24.236 E14.67345
G1 X-20.259 Y24.236 E14.69120
G1 X-21.835 Y25.812 E14.76763
G1 X-58.165 Y25.812 E16.01315
G1 X-59.812 Y24.165 E16.09302
G1 X-59.812 Y1.835 E16.85857
G1 X-58.236 Y0.259 E16.93500
G1 X-58.236 Y-0.259 E16.95275
G1 X-59.812 Y-1.835 E17.02918
G1 X-59.812 Y-24.165 E17.79472
G1 X-58.165 Y-25.812 E17.87459
G1 X-21.835 Y-25.812 E19.12011
G1 X-20.259 Y-24.236 E19.19654 F1800.000
G1 X-19.741 Y-24.236 E19.21429
G1 X-18.165 Y-25.812 E19.29072
G1 X18.165 Y-25.812 E20.53624
G1 X19.741 Y-24.236 E20.61267
G1 X20.259 Y-24.236 E20.63042
G1 X21.835 Y-25.812 E20.70685
G1 X58.165 Y-25.812 E21.95238
G1 X59.812 Y-24.165 E22.03224
G1 X59.812 Y-1.835 E22.79779
G1 X58.236 Y-0.259 E22.87422
G1 X58.236 Y0.259 E22.89197
G1 X59.812 Y1.835 E22.96840
G1 X59.812 Y24.165 E23.73394
G1 X58.165 Y25.812 E23.81381
G1 X21.835 Y25.812 E25.05933
G1 X20.259 Y24.236 E25.13576
G1 X19.741 Y24.236 E25.15351
G1 X18.165 Y25.812 E25.22994
G1 X0.060 Y25.812 E25.85065
G1 E23.85065 F2400.00000
G92 E0
G1 X18.243 Y24.828 F7800.000
G1 X20.000 Y2.586 F7800.000
G1 X20.000 Y0.000 F7800.000
G1 X20.586 Y0.000 F7800.000
G1 X22.586 Y0.000 F7800.000
G1 X22.094 Y-0.813 F7800.000
G1 E2.00000 F2400.00000
G1 X20.813 Y-2.094 E2.06212 F1800.000
G1 X20.813 Y-23.906 E2.80992
G1 X22.094 Y-25.187 E2.87203
G1 X57.906 Y-25.187 E4.09981
G1 X59.187 Y-23.906 E4.16193
G1 X59.187 Y-2.094 E4.90972 F1800.000
G1 X57.906 Y-0.813 E4.97184
G1 X22.154 Y-0.813 E6.19756
G1 X22.353 Y-1.438 F7800.000
G1 X21.438 Y-2.353 E6.24193 F1800.000
G1 X21.438 Y-23.647 E6.97198
G1 X22.353 Y-24.562 E7.01635
G1 X57.647 Y-24.562 E8.22637
G1 X58.562 Y-23.647 E8.27074 F1800.000
G1 X58.562 Y-2.353 E9.00079
G1 X57.647 Y-1.438 E9.04516
G1 X22.413 Y-1.438 E10.25313
G1 X22.612 Y-2.063 F7800.000
G1 X22.063 Y-2.612 E10.27976 F1800.000
G1 X22.063 Y-23.388 E10.99206
G1 X22.612 Y-23.937 E11.01868
G1 X57.388 Y-23.937 E12.21096
G1 X57.937 Y-23.388 E12.23758
G1 X57.937 Y-2.612 E12.94988 F1800.000
G1 X57.388 Y-2.063 E12.97650
G1 X22.672 Y-2.063 E14.16672
G1 X22.688 Y-2.871 F7800.000
G1 X22.688 Y-23.129 E14.86128 F1800.000
G1 X22.871 Y-23.312 E14.87015
G1 X57.129 Y-23.312 E16.04468
G1 X57.312 Y-23.129 E16.05356
G1 X57.312 Y-2.871 E16.74811
G1 X57.129 Y-2.688 E16.75699
G1 X22.871 Y-2.688 E17.93152
G1 X22.730 Y-2.828 E17.93833
G1 E15.93833 F2400.00000
G92 E0
G1 X22.586 Y-2.000 F7800.000
G1 X22.586 Y-2.000 F7800.000
G1 X22.586 Y0.000 F7800.000
G1 X22.688 Y0.813 F7800.000
G1 E2.00000 F2400.00000
G1 X57.906 Y0.813 E3.20743 F1800.000
G1 X59.187 Y2.094 E3.26954
G1 X59.187 Y23.906 E4.01734 F1800.000
G1 X57.906 Y25.187 E4.07946
G1 X22.094 Y25.187 E5.30723
G1 X20.813 Y23.906 E5.36935
G1 X20.813 Y2.094 E6.11715
G1 X22.094 Y0.813 E6.17927
G1 X22.628 Y0.813 E6.19756
G1 X22.688 Y1.438 F7800.000
G1 X57.647 Y1.438 E7.39611 F1800.000
G1 X58.562 Y2.353 E7.44048 F1800.000
G1 X58.562 Y23.647 E8.17053
G1 X57.647 Y24.562 E8.21490
G1 X22.353 Y24.562 E9.42493
G1 X21.438 Y23.647 E9.46930
G1 X21.438 Y2.353 E10.19935
G1 X22.353 Y1.438 E10.24372
G1 X22.628 Y1.438 E10.25313
G1 X22.688 Y2.063 F7800.000
G1 X57.388 Y2.063 E11.44281 F1800.000
G1 X57.937 Y2.612 E11.46943
G1 X57.937 Y23.388 E12.18174 F1800.000
G1 X57.388 Y23.937 E12.20836
G1 X22.612 Y23.937 E13.40064
G1 X22.063 Y23.388 E13.42726
G1 X22.063 Y2.612 E14.13956
G1 X22.628 Y2.063 E14.16657
G1 X22.871 Y2.688 F7800.000
G1 X57.129 Y2.688 E15.34110 F1800.000
G1 X57.312 Y2.871 E15.34997
G1 X57.312 Y23.129 E16.04453
G1 X57.129 Y23.312 E16.05340
G1 X22.871 Y23.312 E17.22793
G1 X22.688 Y23.129 E17.23681
G1 X22.688 Y2.871 E17.93136
G1 X22.828 Y2.730 E17.93818
G1 X19.187 Y2.688 F7800.000
G1 X19.187 Y23.906 E18.66563 F1800.000
G1 X17.906 Y25.187 E18.72775
G1 X-17.906 Y25.187 E19.95552
G1 X-19.187 Y23.906 E20.01764
G1 X-19.187 Y2.094 E20.76544
G1 X-17.906 Y0.813 E20.82755
G1 X17.906 Y0.813 E22.05533
G1 X19.187 Y2.094 E22.11744
G1 X19.187 Y2.628 E22.13573 F1800.000
G1 X18.562 Y2.688 F7800.000
G1 X18.562 Y23.647 E22.85431 F1800.000
G1 X17.647 Y24.562 E22.89868
G1 X-17.647 Y24.562 E24.10871
G1 X-18.562 Y23.647 E24.15308
G1 X-18.562 Y2.353 E24.88313
G1 X-17.647 Y1.438 E24.92750
G1 X17.647 Y1.438 E26.13752
G1 X18.562 Y2.353 E26.18189 F1800.000
G1 X18.562 Y2.628 E26.19131
G1 X17.937 Y2.688 F7800.000
G1 X17.937 Y23.388 E26.90101 F1800.000
G1 X17.388 Y23.937 E26.92763
G1 X-17.388 Y23.937 E28.11991
G1 X-17.937 Y23.388 E28.14653
G1 X-17.937 Y2.612 E28.85884
G1 X-17.388 Y2.063 E28.88546
G1 X17.388 Y2.063 E30.07774
G1 X17.937 Y2.612 E30.10436
G1 X17.937 Y2.628 E30.10490 F1800.000
G1 X17.129 Y2.688 F7800.000
G1 X17.312 Y2.871 E30.11378 F1800.000
G1 X17.312 Y23.129 E30.80833
G1 X17.129 Y23.312 E30.81720
G1 X-17.129 Y23.312 E31.99173
G1 X-17.312 Y23.129 E32.00061
G1 X-17.312 Y2.871 E32.69516
G1 X-17.129 Y2.688 E32.70404
G1 X17.069 Y2.688 E33.87651
G1 X18.897 Y0.920 F7800.000
G1 X18.236 Y0.259 E33.90857 F1800.000
G1 X18.236 Y-0.259 E33.92632
G1 X19.741 Y-1.764 E33.99931
G1 X20.259 Y-1.764 E34.01706
G1 X21.764 Y-0.259 E34.09006
G1 X21.764 Y0.259 E34.10781 F1800.000
G1 X20.259 Y1.764 E34.18080
G1 X19.741 Y1.764 E34.19855
G1 X18.939 Y0.963 E34.23743
G1 X19.339 Y0.478 F7800.000
G1 X19.119 Y0.259 E34.24807 F1800.000
G1 X19.119 Y-0.259 E34.26582
G1 X19.741 Y-0.881 E34.29597
G1 X20.259 Y-0.881 E34.31371
G1 X20.881 Y-0.259 E34.34386 F1800.000
G1 X20.881 Y0.259 E34.36161
G1 X20.259 Y0.881 E34.39176
G1 X19.741 Y0.881 E34.40951
G1 X19.381 Y0.521 E34.42696
G1 X17.977 Y-0.884 F7800.000
G1 X17.906 Y-0.813 E34.43040 F1800.000
G1 X-17.906 Y-0.813 E35.65817
G1 X-19.187 Y-2.094 E35.72029
G1 X-19.187 Y-23.906 E36.46809
G1 X-17.906 Y-25.187 E36.53020
G1 X17.906 Y-25.187 E37.75798
G1 X19.187 Y-23.906 E37.82010
G1 X19.187 Y-2.094 E38.56789 F1800.000
G1 X18.019 Y-0.926 E38.62452
G1 X17.647 Y-1.438 F7800.000
G1 X-17.647 Y-1.438 E39.83455 F1800.000
G1 X-18.562 Y-2.353 E39.87892
G1 X-18.562 Y-23.647 E40.60897
G1 X-17.647 Y-24.562 E40.65334
G1 X17.647 Y-24.562 E41.86336
G1 X18.562 Y-23.647 E41.90773 F1800.000
G1 X18.562 Y-2.353 E42.63778
G1 X17.690 Y-1.480 E42.68010
G1 X17.388 Y-2.063 F7800.000
G1 X-17.388 Y-2.063 E43.87237 F1800.000
G1 X-17.937 Y-2.612 E43.89900
G1 X-17.937 Y-23.388 E44.61130
G1 X-17.388 Y-23.937 E44.63792
G1 X17.388 Y-23.937 E45.83020
G1 X17.937 Y-23.388 E45.85682
G1 X17.937 Y-2.612 E46.56912 F1800.000
G1 X17.431 Y-2.105 E46.59369
G1 X17.129 Y-2.688 F7800.000
G1 X-17.129 Y-2.688 E47.76822 F1800.000
G1 X-17.312 Y-2.871 E47.77709
G1 X-17.312 Y-23.129 E48.47165
G1 X-17.129 Y-23.312 E48.48052
G1 X17.129 Y-23.312 E49.65505
G1 X17.312 Y-23.129 E49.66392
G1 X17.312 Y-2.871 E50.35848
G1 X17.172 Y-2.730 E50.36529
G1 E48.36529 F2400.00000
G92 E0
G1 X-17.414 Y-2.000 F7800.000
G1 X-20.000 Y0.000 F7800.000
G1 X-20.000 Y-0.586 F7800.000
G1 X-20.000 Y-2.586 F7800.000
G1 X-20.813 Y-2.688 F7800.000
G1 E2.00000 F2400.00000
G1 X-20.813 Y-2.094 E2.02035 F1800.000
G1 X-22.094 Y-0.813 E2.08247
G1 X-57.906 Y-0.813 E3.31024
G1 X-59.187 Y-2.094 E3.37236
G1 X-59.187 Y-23.906 E4.12016
G1 X-57.906 Y-25.187 E4.18227
G1 X-22.094 Y-25.187 E5.41005
G1 X-20.813 Y-23.906 E5.47216
G1 X-20.813 Y-2.748 E6.19756 F1800.000
G1 X-21.438 Y-2.688 F7800.000
G1 X-21.438 Y-2.353 E6.20903 F1800.000
G1 X-22.353 Y-1.438 E6.25340
G1 X-57.647 Y-1.438 E7.46343
G1 X-58.562 Y-2.353 E7.50780
G1 X-58.562 Y-23.647 E8.23785
G1 X-57.647 Y-24.562 E8.28222
G1 X-22.353 Y-24.562 E9.49224
G1 X-21.438 Y-23.647 E9.53661 F1800.000
G1 X-21.438 Y-2.748 E10.25313
G1 X-22.063 Y-2.688 F7800.000
G1 X-22.063 Y-2.612 E10.25573 F1800.000
G1 X-22.612 Y-2.063 E10.28235
G1 X-57.388 Y-2.063 E11.47463
G1 X-57.937 Y-2.612 E11.50125
G1 X-57.937 Y-23.388 E12.21356
G1 X-57.388 Y-23.937 E12.24018
G1 X-22.612 Y-23.937 E13.43246
G1 X-22.063 Y-23.388 E13.45908
G1 X-22.063 Y-2.748 E14.16672 F1800.000
G1 X-22.871 Y-2.688 F7800.000
G1 X-57.129 Y-2.688 E15.34126 F1800.000
G1 X-57.312 Y-2.871 E15.35013
G1 X-57.312 Y-23.129 E16.04468
G1 X-57.129 Y-23.312 E16.05356
G1 X-22.871 Y-23.312 E17.22809
G1 X-22.688 Y-23.129 E17.23696
G1 X-22.688 Y-2.871 E17.93152
G1 X-22.828 Y-2.730 E17.93833
G1 E15.93833 F2400.00000
G92 E0
G1 X-22.586 Y-2.000 F7800.000
G1 X-22.586 Y-2.000 F7800.000
G1 X-20.586 Y0.000 F7800.000
G1 X-21.103 Y-0.920 F7800.000
G1 E2.00000 F2400.00000
G1 X-20.259 Y-1.764 E2.04094 F1800.000
G1 X-19.741 Y-1.764 E2.05868
G1 X-18.236 Y-0.259 E2.13168
G1 X-18.236 Y0.259 E2.14943 F1800.000
G1 X-19.741 Y1.764 E2.22242
G1 X-20.259 Y1.764 E2.24017
G1 X-21.764 Y0.259 E2.31317
G1 X-21.764 Y-0.259 E2.33092
G1 X-21.146 Y-0.878 E2.36092
G1 X-20.661 Y-0.478 F7800.000
G1 X-20.259 Y-0.881 E2.38043 F1800.000
G1 X-19.741 Y-0.881 E2.39818
G1 X-19.119 Y-0.259 E2.42833 F1800.000
G1 X-19.119 Y0.259 E2.44608
G1 X-19.741 Y0.881 E2.47623
G1 X-20.259 Y0.881 E2.49398
G1 X-20.881 Y0.259 E2.52413
G1 X-20.881 Y-0.259 E2.54187
G1 X-20.704 Y-0.436 E2.55045
G1 X-22.023 Y0.884 F7800.000
G1 X-20.813 Y2.094 E2.60914 F1800.000
G1 X-20.813 Y23.906 E3.35694 F1800.000
G1 X-22.094 Y25.187 E3.41905
G1 X-57.906 Y25.187 E4.64683
G1 X-59.187 Y23.906 E4.70895
G1 X-59.187 Y2.094 E5.45674
G1 X-57.906 Y0.813 E5.51886
G1 X-22.094 Y0.813 E6.74664
G1 X-22.066 Y0.841 E6.74801
G1 X-22.353 Y1.438 F7800.000
G1 X-21.438 Y2.353 E6.79238 F1800.000
G1 X-21.438 Y23.647 E7.52243
G1 X-22.353 Y24.562 E7.56680
G1 X-57.647 Y24.562 E8.77683
G1 X-58.562 Y23.647 E8.82120
G1 X-58.562 Y2.353 E9.55125
G1 X-57.647 Y1.438 E9.59562
G1 X-22.413 Y1.438 E10.80359
G1 X-22.612 Y2.063 F7800.000
G1 X-22.063 Y2.612 E10.83021 F1800.000
G1 X-22.063 Y23.388 E11.54251 F1800.000
G1 X-22.612 Y23.937 E11.56913
G1 X-57.388 Y23.937 E12.76141
G1 X-57.937 Y23.388 E12.78803
G1 X-57.937 Y2.612 E13.50034
G1 X-57.388 Y2.063 E13.52696
G1 X-22.672 Y2.063 E14.71718
G1 X-22.871 Y2.688 F7800.000
G1 X-22.688 Y2.871 E14.72605 F1800.000
G1 X-22.688 Y23.129 E15.42061
G1 X-22.871 Y23.312 E15.42948
G1 X-57.129 Y23.312 E16.60401
G1 X-57.312 Y23.129 E16.61288
G1 X-57.312 Y2.871 E17.30744
G1 X-57.129 Y2.688 E17.31631
G1 X-22.931 Y2.688 E18.48879
G1 E16.48879 F2400.00000
G92 E0
G1 X-16.650 Y-22.650 F7800.000
G1 E2.00000 F2400.00000
G1 X16.650 Y-22.650 E3.14166 F750.000
G1 X16.650 Y-3.350 E3.80334
G1 X-16.650 Y-3.350 E4.94500
G1 X-16.650 Y-22.590 E5.60462
G1 X-16.304 Y-22.450 F7800.000
G1 X-16.025 Y-22.025 F7800.000
G1 X16.025 Y-22.025 E6.70343 F1500.000
G1 X16.025 Y-3.975 E7.32227
G1 X-16.025 Y-3.975 E8.42108
G1 X-16.025 Y-21.965 E9.03786
G1 X-10.000 Y-20.043 F7800.000
G1 X-15.400 Y-16.926 E9.25164 F1500.000
G1 X-15.400 Y-21.400 E9.40505
G1 X15.400 Y-21.400 E10.46101
G1 X15.400 Y-16.926 E10.61442
G1 X10.000 Y-20.043 E10.82820
G1 X3.900 Y-16.522 E11.06968
G1 X3.900 Y-9.478 E11.31116
G1 X10.000 Y-5.957 E11.55263
G1 X15.400 Y-9.074 E11.76642
G1 X15.400 Y-4.600 E11.91982
G1 X-15.400 Y-4.600 E12.97579
G1 X-15.400 Y-9.074 E13.12920
G1 X-10.000 Y-5.957 E13.34298
G1 X-3.900 Y-9.478 E13.58446
G1 X-3.900 Y-16.522 E13.82593
G1 X-9.948 Y-20.013 E14.06535
G1 X5.150 Y-15.800 F7800.000
G1 X10.000 Y-18.600 E14.25735 F450.000
G1 X14.850 Y-15.800 E14.44935
G1 X14.850 Y-10.200 E14.64135
G1 X10.000 Y-7.400 E14.83335
G1 X5.150 Y-10.200 E15.02535
G1 X5.150 Y-15.740 E15.21530
G1 X5.013 Y-16.176 F7800.000
G1 X4.525 Y-16.161 F7800.000
G1 X10.000 Y-19.322 E15.43203 F450.000
G1 X15.475 Y-16.161 E15.64877
G1 X15.475 Y-9.839 E15.86551
G1 X10.000 Y-6.678 E16.08225
G1 X4.525 Y-9.839 E16.29899
G1 X4.525 Y-16.101 E16.51367
G1 X-5.150 Y-15.800 F7800.000
G1 X-5.150 Y-10.200 E16.70567 F450.000
G1 X-10.000 Y-7.400 E16.89767
G1 X-14.850 Y-10.200 E17.08967
G1 X-14.850 Y-15.800 E17.28167
G1 X-10.000 Y-18.600 E17.47367
G1 X-5.202 Y-15.830 E17.66361
G1 X-4.756 Y-15.731 F7800.000
G1 X-4.525 Y-16.161 F7800.000
G1 X-4.525 Y-9.839 E17.88035 F450.000
G1 X-10.000 Y-6.678 E18.09709
G1 X-15.475 Y-9.839 E18.31383
G1 X-15.475 Y-16.161 E18.53057
G1 X-10.000 Y-19.322 E18.74730
G1 X-4.577 Y-16.191 E18.96198
G1 X-5.323 Y-17.878 F7800.000
G1 X-8.468 Y-21.022 E19.11580 F600.000
G1 X-7.433 Y-19.096 F7800.000
G1 X-9.359 Y-21.022 E19.21002 F600.000
G1 X-9.543 Y-20.314 E19.23532
G1 X-10.251 Y-21.022 E19.26996
G1 X-10.346 Y-20.225 E19.29772
G1 X-11.143 Y-21.022 E19.33670
G1 X-12.034 Y-21.022 E19.36754
G1 X-10.911 Y-19.898 E19.42249
G1 X-11.476 Y-19.572 E19.44507
G1 X-12.926 Y-21.022 E19.51599
G1 X-13.818 Y-21.022 E19.54683
G1 X-12.042 Y-19.246 E19.63371
G1 X-12.607 Y-18.919 E19.65630
G1 X-14.709 Y-21.022 E19.75915
G1 X-15.022 Y-20.442 E19.78191
G1 X-13.172 Y-18.593 E19.87239
G1 X-13.738 Y-18.267 E19.89497
G1 X-15.022 Y-19.551 E19.95778
G1 X-15.022 Y-18.659 E19.98863
G1 X-14.303 Y-17.940 E20.02379
G1 X-15.750 Y-16.175 F7800.000
G1 X-15.667 Y-9.536 F7800.000
G1 X-13.762 Y-6.238 F7800.000
G1 X-13.771 Y-7.600 F7800.000
G1 X-11.150 Y-4.978 E20.15203 F600.000
G1 X-12.041 Y-4.978 F7800.000
G1 X-15.022 Y-7.959 E20.29782 F600.000
G1 X-15.022 Y-7.067 E20.32867
G1 X-12.933 Y-4.978 E20.43084
G1 X-13.825 Y-4.978 E20.46169
G1 X-15.022 Y-6.175 E20.52024
G1 X-15.022 Y-5.283 E20.55108
G1 X-14.717 Y-4.978 E20.56601
G1 X-11.661 Y-6.382 F7800.000
G1 X-10.258 Y-4.978 E20.63466 F600.000
G1 X-9.366 Y-4.978 E20.66550
G1 X-9.977 Y-5.589 E20.69537
G1 X-9.412 Y-5.915 E20.71795
G1 X-8.475 Y-4.978 E20.76378
G1 X-7.583 Y-4.978 E20.79463
G1 X-8.846 Y-6.242 E20.85643
G1 X-8.281 Y-6.568 E20.87901
G1 X-6.691 Y-4.978 E20.95678
G1 X-5.800 Y-4.978 E20.98763
G1 X-7.716 Y-6.894 E21.08136
G1 X-7.150 Y-7.221 E21.10394
G1 X-4.908 Y-4.978 E21.21365
G1 X-4.016 Y-4.978 E21.24449
G1 X-6.585 Y-7.547 E21.37016
G1 X-6.020 Y-7.874 E21.39274
G1 X-3.125 Y-4.978 E21.53438
G1 X-2.233 Y-4.978 E21.56523
G1 X-5.454 Y-8.200 E21.72283
G1 X-4.889 Y-8.526 E21.74541
G1 X-1.341 Y-4.978 E21.91899
