; generated by Slic3r 1.2.9 on 2016-06-08 at 13:26:20

; external perimeters extrusion width = 0.40mm
; perimeters extrusion width = 0.48mm
; infill extrusion width = 0.48mm
; solid infill extrusion width = 0.48mm
; top infill extrusion width = 0.48mm
; support material extrusion width = 0.40mm

M107
M190 S70 ; set bed temperature
M104 S210 ; set temperature
G28 ; home all axes
G1 Z5 F5000 ; lift nozzle

M109 S210 ; wait for temperature to be reached
G21 ; set units to millimeters
G90 ; use absolute coordinates
M82 ; use absolute distances for extrusion
G92 E0
G1 Z0.350 F7800.000
G1 E-2.00000 F2400.00000
G92 E0
G1 X16.909 Y-16.909 F7800.000
G1 E2.00000 F2400.00000
G1 X86.304 Y52.485 E5.36458 F2340.000
G1 X87.620 Y54.363 E5.44321
G1 X88.218 Y56.577 E5.52184
G1 X88.024 Y58.863 E5.60047
G1 X87.063 Y60.945 E5.67910
G1 X86.304 Y61.854 E5.71971
G1 X81.354 Y66.804 E5.95970
G1 X79.476 Y68.120 E6.03833
G1 X76.670 Y68.744 E6.13689
G1 X37.670 Y68.744 E7.47397
G1 X35.411 Y68.347 E7.55260
G1 X32.985 Y66.804 E7.65117
G1 X-86.304 Y-52.485 E13.43488
G1 X-87.620 Y-54.363 E13.51351
G1 X-88.218 Y-56.577 E13.59214
G1 X-88.024 Y-58.863 E13.67077
G1 X-87.063 Y-60.945 E13.74939
G1 X-86.304 Y-61.854 E13.79000
G1 X-81.354 Y-66.804 E14.02999
G1 X-79.476 Y-68.120 E14.10862
G1 X-76.670 Y-68.744 E14.20719
G1 X-37.670 Y-68.744 E15.54427
G1 X-35.411 Y-68.347 E15.62289
G1 X-32.985 Y-66.804 E15.72146 F2340.000
G1 X16.867 Y-16.952 E18.13853
G1 E16.13853 F2400.00000
G92 E0
G1 X14.655 Y-14.655 F7800.000
G1 E2.00000 F2400.00000
G1 X85.056 Y55.746 E5.41339 F2340.000
G1 X85.056 Y58.593 E5.51100
G1 X78.093 Y65.556 E5.84861
G1 X75.246 Y65.556 E5.94622
G1 X70.428 Y60.739 E6.17980
G1 X69.911 Y60.739 E6.19755
G1 X65.093 Y65.556 E6.43113
G1 X62.246 Y65.556 E6.52874
G1 X57.428 Y60.739 E6.76232
G1 X56.911 Y60.739 E6.78007
G1 X52.093 Y65.556 E7.01365
G1 X49.246 Y65.556 E7.11126
G1 X44.428 Y60.739 E7.34484
G1 X43.911 Y60.739 E7.36259
G1 X39.093 Y65.556 E7.59616
G1 X36.246 Y65.556 E7.69378
G1 X-85.056 Y-55.746 E13.57510
G1 X-85.056 Y-58.593 E13.67272
G1 X-78.093 Y-65.556 E14.01032
G1 X-75.246 Y-65.556 E14.10793
G1 X-70.428 Y-60.739 E14.34151
G1 X-69.911 Y-60.739 E14.35926
G1 X-65.093 Y-65.556 E14.59284
G1 X-62.246 Y-65.556 E14.69045
G1 X-57.428 Y-60.739 E14.92403
G1 X-56.911 Y-60.739 E14.94178
G1 X-52.093 Y-65.556 E15.17536
G1 X-49.246 Y-65.556 E15.27297
G1 X-44.428 Y-60.739 E15.50655
G1 X-43.911 Y-60.739 E15.52430
G1 X-39.093 Y-65.556 E15.75788
G1 X-36.246 Y-65.556 E15.85549
G1 X14.613 Y-14.698 E18.32137 F2340.000
G1 X14.213 Y-14.213 F7800.000
G1 X84.431 Y56.005 E21.72589 F2340.000
G1 X84.431 Y58.334 E21.80575
G1 X77.834 Y64.931 E22.12561
G1 X75.505 Y64.931 E22.20547
G1 X70.428 Y59.855 E22.45160
G1 X69.911 Y59.855 E22.46935
G1 X64.834 Y64.931 E22.71548
G1 X62.505 Y64.931 E22.79534
G1 X57.428 Y59.855 E23.04147
G1 X56.911 Y59.855 E23.05922
G1 X51.834 Y64.931 E23.30535
G1 X49.505 Y64.931 E23.38521
G1 X44.428 Y59.855 E23.63134
G1 X43.911 Y59.855 E23.64909
G1 X38.834 Y64.931 E23.89522
G1 X36.505 Y64.931 E23.97508
G1 X-84.431 Y-56.005 E29.83866
G1 X-84.431 Y-58.334 E29.91853
G1 X-77.834 Y-64.931 E30.23838
G1 X-75.505 Y-64.931 E30.31825
G1 X-70.428 Y-59.855 E30.56438
G1 X-69.911 Y-59.855 E30.58212
G1 X-64.834 Y-64.931 E30.82825
G1 X-62.505 Y-64.931 E30.90812
G1 X-57.428 Y-59.855 E31.15425
G1 X-56.911 Y-59.855 E31.17199
G1 X-51.834 Y-64.931 E31.41812
G1 X-49.505 Y-64.931 E31.49799
G1 X-44.428 Y-59.855 E31.74412
G1 X-43.911 Y-59.855 E31.76187
G1 X-38.834 Y-64.931 E32.00799
G1 X-36.505 Y-64.931 E32.08786 F2340.000
G1 X14.171 Y-14.256 E34.54486
G1 X13.771 Y-13.771 F7800.000
G1 X83.806 Y56.264 E37.94051 F2340.000
G1 X83.806 Y58.076 E38.00262
G1 X77.576 Y64.306 E38.30473
G1 X75.764 Y64.306 E38.36685
G1 X70.428 Y58.971 E38.62553
G1 X69.911 Y58.971 E38.64327
G1 X64.576 Y64.306 E38.90195
G1 X62.764 Y64.306 E38.96407
G1 X57.428 Y58.971 E39.22275
G1 X56.911 Y58.971 E39.24050
G1 X51.576 Y64.306 E39.49917
G1 X49.764 Y64.306 E39.56129
G1 X44.428 Y58.971 E39.81997
G1 X43.911 Y58.971 E39.83772
G1 X38.576 Y64.306 E40.09640
G1 X36.764 Y64.306 E40.15851
G1 X-83.806 Y-56.264 E46.00434
G1 X-83.806 Y-58.076 E46.06646
G1 X-77.576 Y-64.306 E46.36857
G1 X-75.764 Y-64.306 E46.43069
G1 X-70.428 Y-58.971 E46.68936
G1 X-69.911 Y-58.971 E46.70711
G1 X-64.576 Y-64.306 E46.96579
G1 X-62.764 Y-64.306 E47.02791
G1 X-57.428 Y-58.971 E47.28659
G1 X-56.911 Y-58.971 E47.30433
G1 X-51.576 Y-64.306 E47.56301
G1 X-49.764 Y-64.306 E47.62513
G1 X-44.428 Y-58.971 E47.88381
G1 X-43.911 Y-58.971 E47.90156
G1 X-38.576 Y-64.306 E48.16023
G1 X-36.764 Y-64.306 E48.22235
G1 X13.729 Y-13.814 E50.67048 F2340.000
G1 X13.330 Y-13.330 F7800.000
G1 X83.182 Y56.522 E54.05725 F2340.000
G1 X83.182 Y57.817 E54.10162
G1 X77.317 Y63.682 E54.38598
G1 X76.022 Y63.682 E54.43035
G1 X70.428 Y58.087 E54.70158
G1 X69.911 Y58.087 E54.71932
G1 X64.317 Y63.682 E54.99055
G1 X63.022 Y63.682 E55.03492
G1 X57.428 Y58.087 E55.30615
G1 X56.911 Y58.087 E55.32390
G1 X51.317 Y63.682 E55.59513
G1 X50.022 Y63.682 E55.63950
G1 X44.428 Y58.087 E55.91072
G1 X43.911 Y58.087 E55.92847
G1 X38.317 Y63.682 E56.19970
G1 X37.022 Y63.682 E56.24407
G1 X-83.182 Y-56.522 E62.07215
G1 X-83.182 Y-57.817 E62.11652
G1 X-77.317 Y-63.682 E62.40088
G1 X-76.022 Y-63.682 E62.44525
G1 X-70.428 Y-58.087 E62.71648
G1 X-69.911 Y-58.087 E62.73423
G1 X-64.317 Y-63.682 E63.00545
G1 X-63.022 Y-63.682 E63.04982
G1 X-57.428 Y-58.087 E63.32105
G1 X-56.911 Y-58.087 E63.33880
G1 X-51.317 Y-63.682 E63.61003
G1 X-50.022 Y-63.682 E63.65440
G1 X-44.428 Y-58.087 E63.92562
G1 X-43.911 Y-58.087 E63.94337
G1 X-38.317 Y-63.682 E64.21460
G1 X-37.022 Y-63.682 E64.25897 F2340.000
G1 X13.287 Y-13.372 E66.69823
G1 X12.888 Y-12.888 F7800.000
G1 X82.557 Y56.781 E70.07612 F2340.000
G1 X82.557 Y57.558 E70.10274
G1 X77.058 Y63.057 E70.36935
G1 X76.281 Y63.057 E70.39597
G1 X70.428 Y57.204 E70.67975
G1 X69.911 Y57.204 E70.69750
G1 X64.058 Y63.057 E70.98128
G1 X63.281 Y63.057 E71.00790
G1 X57.428 Y57.204 E71.29168
G1 X56.911 Y57.204 E71.30943
G1 X51.058 Y63.057 E71.59320
G1 X50.281 Y63.057 E71.61983
G1 X44.428 Y57.204 E71.90360
G1 X43.911 Y57.204 E71.92135
G1 X38.058 Y63.057 E72.20513
G1 X37.281 Y63.057 E72.23175
G1 X-82.557 Y-56.781 E78.04208
G1 X-82.557 Y-57.558 E78.06871
G1 X-77.058 Y-63.057 E78.33532
G1 X-76.281 Y-63.057 E78.36194
G1 X-70.428 Y-57.204 E78.64572
G1 X-69.911 Y-57.204 E78.66346
G1 X-64.058 Y-63.057 E78.94724
G1 X-63.281 Y-63.057 E78.97386
G1 X-57.428 Y-57.204 E79.25764
G1 X-56.911 Y-57.204 E79.27539
G1 X-51.058 Y-63.057 E79.55917
G1 X-50.281 Y-63.057 E79.58579
G1 X-44.428 Y-57.204 E79.86957
G1 X-43.911 Y-57.204 E79.88731
G1 X-38.058 Y-63.057 E80.17109
G1 X-37.281 Y-63.057 E80.19771
G1 X12.845 Y-12.930 E82.62810 F2340.000
G1 E80.62810 F2400.00000
G92 E0
G1 X-37.540 Y-62.432 F7800.000
G1 E2.00000 F2400.00000
G1 X81.932 Y57.040 E7.79259 F2340.000
G1 X81.932 Y57.299 E7.80146
G1 X76.799 Y62.432 E8.05032
G1 X76.540 Y62.432 E8.05920
G1 X-42.932 Y-57.040 E13.85178
G1 X-42.932 Y-57.299 E13.86066
G1 X-37.799 Y-62.432 E14.10952
G1 X-37.600 Y-62.432 E14.11633
G1 E12.11633 F2400.00000
G92 E0
G1 X-43.619 Y-57.584 F7800.000
G1 X-44.170 Y-58.134 F7800.000
G1 X-49.212 Y-63.859 F7800.000
G1 X-50.103 Y-62.967 F7800.000
G1 X-50.540 Y-62.432 F7800.000
G1 E2.00000 F2400.00000
G1 X68.932 Y57.040 E7.79259 F2340.000
G1 X68.932 Y57.299 E7.80146
G1 X63.799 Y62.432 E8.05032
G1 X63.540 Y62.432 E8.05920
G1 X-55.932 Y-57.040 E13.85178
G1 X-55.932 Y-57.299 E13.86066
G1 X-50.799 Y-62.432 E14.10952
G1 X-50.600 Y-62.432 E14.11633
G1 E12.11633 F2400.00000
G92 E0
G1 X-56.619 Y-57.584 F7800.000
G1 X-57.170 Y-58.134 F7800.000
G1 X-62.212 Y-63.859 F7800.000
G1 X-63.103 Y-62.967 F7800.000
G1 X-63.540 Y-62.432 F7800.000
G1 E2.00000 F2400.00000
G1 X55.932 Y57.040 E7.79259 F2340.000
G1 X55.932 Y57.299 E7.80146
G1 X50.799 Y62.432 E8.05032
G1 X50.540 Y62.432 E8.05920
G1 X-68.932 Y-57.040 E13.85178
G1 X-68.932 Y-57.299 E13.86066
G1 X-63.799 Y-62.432 E14.10952
G1 X-63.600 Y-62.432 E14.11633
G1 E12.11633 F2400.00000
G92 E0
G1 X-69.619 Y-57.584 F7800.000
G1 X-70.170 Y-58.134 F7800.000
G1 X-75.212 Y-63.859 F7800.000
G1 X-76.103 Y-62.967 F7800.000
G1 X-76.540 Y-62.432 F7800.000
G1 E2.00000 F2400.00000
G1 X42.932 Y57.040 E7.79259 F2340.000
G1 X42.932 Y57.299 E7.80146
G1 X37.799 Y62.432 E8.05032
G1 X37.540 Y62.432 E8.05920
G1 X-81.932 Y-57.040 E13.85178
G1 X-81.932 Y-57.299 E13.86066
G1 X-76.799 Y-62.432 E14.10952
G1 X-76.600 Y-62.432 E14.11633
G1 E12.11633 F2400.00000
G92 E0
G1 X-59.545 Y-54.718 F7800.000
G1 E2.00000 F2400.00000
G1 X-60.129 Y-56.900 E2.07744 F1170.000
G1 X-62.666 Y-59.437 E2.20044
G1 X-65.183 Y-60.111 E2.28976
G1 X-63.670 Y-61.624 E2.36311
G1 X55.124 Y57.170 E8.12282
G1 X53.611 Y58.683 E8.19618
G1 X52.909 Y56.061 E8.28921
G1 X50.623 Y55.449 E8.37037
G1 X48.949 Y57.123 E8.45152
G1 X49.561 Y59.407 E8.53261
G1 X52.166 Y60.128 E8.62527
G1 X50.670 Y61.624 E8.69782
G1 X-68.124 Y-57.170 E14.45753
G1 X-66.611 Y-58.683 E14.53088
G1 X-65.937 Y-56.166 E14.62020
G1 X-63.400 Y-53.629 E14.74320
G1 X-61.218 Y-53.045 E14.82064
G1 X-59.587 Y-54.676 E14.89974
G1 X-59.182 Y-54.888 F7800.000
G1 X-61.032 Y-52.348 F7800.000
G1 X-58.848 Y-54.532 E15.00563 F2340.000
G1 X-59.211 Y-55.890 E15.05383
G1 X-58.962 Y-56.033 E15.06369
G1 X51.938 Y54.866 E20.44066
G1 X51.794 Y55.116 E20.45052
G1 X50.436 Y54.752 E20.49872
G1 X48.252 Y56.936 E20.60461
G1 X48.616 Y58.294 E20.65281
G1 X48.367 Y58.438 E20.66267
G1 X-62.533 Y-52.462 E26.03964
G1 X-62.390 Y-52.711 E26.04950
G1 X-61.090 Y-52.363 E26.09564
G1 X-60.841 Y-51.654 F7800.000
G1 X-58.154 Y-54.341 E26.22593 F2340.000
G1 X50.246 Y54.058 E31.48169
G1 X47.558 Y56.746 E31.61198
G1 X-60.799 Y-51.612 E36.86568
G1 X-60.223 Y-51.787 F7800.000
G1 X47.691 Y56.127 E42.59736 F780.000
G1 X48.175 Y55.643 E42.62307
G1 X-59.739 Y-52.271 E48.35476
G1 X-59.255 Y-52.755 E48.38047
G1 X48.659 Y55.159 E54.11215
G1 X49.143 Y54.675 E54.13786
G1 X-58.771 Y-53.239 E59.86954
G1 X-58.287 Y-53.723 E59.89525
G1 X49.627 Y54.191 E65.62694
G1 X52.136 Y55.147 F7800.000
G1 X53.179 Y55.750 E65.66823 F780.000
G1 X53.221 Y55.791 E65.67025
G1 X53.408 Y56.115 E65.68308
G1 X53.408 Y56.115 F7800.000
G1 X54.260 Y57.592 E65.80699 F780.000
G1 X51.087 Y60.766 F7800.000
G1 X49.618 Y59.910 E65.93055 F780.000
G1 X49.618 Y59.910 F7800.000
G1 X49.290 Y59.718 E65.94358 F780.000
G1 X49.248 Y59.676 E65.94561
G1 X48.647 Y58.636 E65.98678
G1 X-62.732 Y-52.743 F7800.000
G1 X-63.637 Y-53.274 E66.02276 F780.000
G1 X-66.292 Y-55.929 E66.15149
G1 X-66.408 Y-56.115 E66.15901
G1 X-66.408 Y-56.115 F7800.000
G1 X-67.260 Y-57.592 E66.28292 F780.000
G1 X-64.092 Y-60.760 F7800.000
G1 X-62.615 Y-59.908 E66.40682 F780.000
G1 X-62.615 Y-59.908 F7800.000
G1 X-62.429 Y-59.792 E66.41434 F780.000
G1 X-59.774 Y-57.137 E66.54308
G1 X-59.243 Y-56.232 E66.57905
G1 E64.57905 F2400.00000
G92 E0
G1 X-69.619 Y-56.755 F7800.000
G1 X-70.075 Y-57.584 F7800.000
G1 X-70.170 Y-61.770 F7800.000
G1 X-75.212 Y-63.859 F7800.000
G1 X-76.103 Y-62.967 F7800.000
G1 X-72.545 Y-54.718 F7800.000
G1 E2.00000 F2400.00000
G1 X-73.129 Y-56.900 E2.07744 F1170.000
G1 X-75.666 Y-59.437 E2.20044
G1 X-78.183 Y-60.111 E2.28976
G1 X-76.670 Y-61.624 E2.36311
G1 X42.124 Y57.170 E8.12282
G1 X40.611 Y58.683 E8.19618
G1 X39.909 Y56.061 E8.28921
G1 X37.623 Y55.449 E8.37037
G1 X35.949 Y57.123 E8.45152
G1 X36.561 Y59.407 E8.53261
G1 X39.166 Y60.128 E8.62527
G1 X37.670 Y61.624 E8.69782
G1 X-81.124 Y-57.170 E14.45753
G1 X-79.611 Y-58.683 E14.53088
G1 X-78.937 Y-56.166 E14.62020
G1 X-76.400 Y-53.629 E14.74320
G1 X-74.218 Y-53.045 E14.82064
G1 X-72.587 Y-54.676 E14.89974
G1 X-72.182 Y-54.888 F7800.000
G1 X-74.032 Y-52.348 F7800.000
G1 X-71.848 Y-54.532 E15.00563 F2340.000
G1 X-72.211 Y-55.890 E15.05383
G1 X-71.962 Y-56.033 E15.06369
G1 X38.938 Y54.866 E20.44066
G1 X38.794 Y55.116 E20.45052
G1 X37.436 Y54.752 E20.49872
G1 X35.252 Y56.936 E20.60461
G1 X35.616 Y58.294 E20.65281
G1 X35.367 Y58.438 E20.66267
G1 X-75.533 Y-52.462 E26.03964
G1 X-75.390 Y-52.711 E26.04950
G1 X-74.090 Y-52.363 E26.09564
G1 X-73.841 Y-51.654 F7800.000
G1 X-71.154 Y-54.341 E26.22593 F2340.000
G1 X37.246 Y54.058 E31.48169
G1 X34.558 Y56.746 E31.61198
G1 X-73.799 Y-51.612 E36.86568
G1 X-73.223 Y-51.787 F7800.000
G1 X34.691 Y56.127 E42.59736 F780.000
G1 X35.175 Y55.643 E42.62307
G1 X-72.739 Y-52.271 E48.35476
G1 X-72.255 Y-52.755 E48.38047
G1 X35.659 Y55.159 E54.11215
G1 X36.143 Y54.675 E54.13786
G1 X-71.771 Y-53.239 E59.86954
G1 X-71.287 Y-53.723 E59.89525
G1 X36.627 Y54.191 E65.62694
G1 X39.136 Y55.147 F7800.000
G1 X40.179 Y55.750 E65.66823 F780.000
G1 X40.221 Y55.791 E65.67025
G1 X40.408 Y56.115 E65.68308
G1 X40.408 Y56.115 F7800.000
G1 X41.260 Y57.592 E65.80699 F780.000
G1 X38.087 Y60.766 F7800.000
G1 X36.618 Y59.910 E65.93055 F780.000
G1 X36.618 Y59.910 F7800.000
G1 X36.290 Y59.718 E65.94358 F780.000
G1 X36.248 Y59.676 E65.94561
G1 X35.647 Y58.636 E65.98678
G1 X-75.732 Y-52.743 F7800.000
G1 X-76.637 Y-53.274 E66.02276 F780.000
G1 X-79.292 Y-55.929 E66.15149
G1 X-79.408 Y-56.115 E66.15901
G1 X-79.408 Y-56.115 F7800.000
G1 X-80.260 Y-57.592 E66.28292 F780.000
G1 X-77.092 Y-60.760 F7800.000
G1 X-75.615 Y-59.908 E66.40682 F780.000
G1 X-75.615 Y-59.908 F7800.000
G1 X-75.429 Y-59.792 E66.41434 F780.000
G1 X-72.774 Y-57.137 E66.54308
G1 X-72.243 Y-56.232 E66.57905
G1 E64.57905 F2400.00000
G92 E0
G1 X-76.103 Y-62.967 F7800.000
G1 X-63.868 Y-64.119 F7800.000
G1 X-62.212 Y-63.859 F7800.000
G1 X-57.170 Y-58.134 F7800.000
G1 X-56.619 Y-57.584 F7800.000
G1 X-46.545 Y-54.718 F7800.000
G1 E2.00000 F2400.00000
G1 X-47.129 Y-56.900 E2.07744 F1170.000
G1 X-49.666 Y-59.437 E2.20044
G1 X-52.183 Y-60.111 E2.28976
G1 X-50.670 Y-61.624 E2.36311
G1 X68.124 Y57.170 E8.12282
G1 X66.611 Y58.683 E8.19618
G1 X65.909 Y56.061 E8.28921
G1 X63.623 Y55.449 E8.37037
G1 X61.949 Y57.123 E8.45152
G1 X62.561 Y59.407 E8.53261
G1 X65.166 Y60.128 E8.62527
G1 X63.670 Y61.624 E8.69782
G1 X-55.124 Y-57.170 E14.45753
G1 X-53.611 Y-58.683 E14.53088
G1 X-52.937 Y-56.166 E14.62020
G1 X-50.400 Y-53.629 E14.74320
G1 X-48.218 Y-53.045 E14.82064
G1 X-46.587 Y-54.676 E14.89974
G1 X-46.182 Y-54.888 F7800.000
G1 X-48.032 Y-52.348 F7800.000
G1 X-45.848 Y-54.532 E15.00563 F2340.000
G1 X-46.211 Y-55.890 E15.05383
G1 X-45.962 Y-56.033 E15.06369
G1 X64.938 Y54.866 E20.44066
G1 X64.794 Y55.116 E20.45052
G1 X63.436 Y54.752 E20.49872
G1 X61.252 Y56.936 E20.60461
G1 X61.616 Y58.294 E20.65281
G1 X61.367 Y58.438 E20.66267
G1 X-49.533 Y-52.462 E26.03964
G1 X-49.390 Y-52.711 E26.04950
G1 X-48.090 Y-52.363 E26.09564
G1 X-47.841 Y-51.654 F7800.000
G1 X-45.154 Y-54.341 E26.22593 F2340.000
G1 X63.246 Y54.058 E31.48169
G1 X60.558 Y56.746 E31.61198
G1 X-47.799 Y-51.612 E36.86568
G1 X-47.223 Y-51.787 F7800.000
G1 X60.691 Y56.127 E42.59736 F780.000
G1 X61.175 Y55.643 E42.62307
G1 X-46.739 Y-52.271 E48.35476
G1 X-46.255 Y-52.755 E48.38047
G1 X61.659 Y55.159 E54.11215
G1 X62.143 Y54.675 E54.13786
G1 X-45.771 Y-53.239 E59.86954
G1 X-45.287 Y-53.723 E59.89525
G1 X62.627 Y54.191 E65.62694
G1 X65.136 Y55.147 F7800.000
G1 X66.179 Y55.750 E65.66823 F780.000
G1 X66.221 Y55.791 E65.67025
G1 X66.408 Y56.115 E65.68308
G1 X66.408 Y56.115 F7800.000
G1 X67.260 Y57.592 E65.80699 F780.000
G1 X64.087 Y60.766 F7800.000
G1 X62.618 Y59.910 E65.93055 F780.000
G1 X62.618 Y59.910 F7800.000
G1 X62.290 Y59.718 E65.94358 F780.000
G1 X62.248 Y59.676 E65.94561
G1 X61.647 Y58.636 E65.98678
G1 X-49.732 Y-52.743 F7800.000
G1 X-50.637 Y-53.274 E66.02276 F780.000
G1 X-53.292 Y-55.929 E66.15149
G1 X-53.408 Y-56.115 E66.15901
G1 X-53.408 Y-56.115 F7800.000
G1 X-54.260 Y-57.592 E66.28292 F780.000
G1 X-51.092 Y-60.760 F7800.000
G1 X-49.615 Y-59.908 E66.40682 F780.000
G1 X-49.615 Y-59.908 F7800.000
G1 X-49.429 Y-59.792 E66.41434 F780.000
G1 X-46.774 Y-57.137 E66.54308
G1 X-46.243 Y-56.232 E66.57905
G1 E64.57905 F2400.00000
G92 E0
G1 X-50.103 Y-62.967 F7800.000
G1 X-49.212 Y-63.859 F7800.000
G1 X-44.170 Y-58.134 F7800.000
G1 X-43.619 Y-57.584 F7800.000
G1 X-33.545 Y-54.718 F7800.000
G1 E2.00000 F2400.00000
G1 X-34.129 Y-56.900 E2.07744 F1170.000
G1 X-36.666 Y-59.437 E2.20044
G1 X-39.183 Y-60.111 E2.28976
G1 X-37.670 Y-61.624 E2.36311
