; generated by Slic3r 1.2.9 on 2016-10-25 at 11:48:44

; external perimeters extrusion width = 0.40mm
; perimeters extrusion width = 0.67mm
; infill extrusion width = 0.67mm
; solid infill extrusion width = 0.67mm
; top infill extrusion width = 0.67mm
; support material extrusion width = 0.40mm

M107
M190 S70 ; set bed temperature
M104 S210 ; set temperature
G28 ; home all axes
G1 Z5 F5000 ; lift nozzle

M109 S210 ; wait for temperature to be reached
G21 ; set units to millimeters
G90 ; use absolute coordinates
M82 ; use absolute distances for extrusion
G92 E0
G1 Z0.350 F7800.000
G1 X0.000 Y16.875 F7800.000
G1 X-14.000 Y16.875 E0.47998 F2340.000
G1 X-16.259 Y16.478 E0.55860
G1 X-18.247 Y15.335 E0.63723
G1 X-19.726 Y13.582 E0.71586
G1 X-20.519 Y11.430 E0.79449
G1 X-20.625 Y10.250 E0.83510
G1 X-20.625 Y-10.250 E1.53792
G1 X-20.228 Y-12.509 E1.61655
G1 X-19.085 Y-14.497 E1.69518
G1 X-17.332 Y-15.976 E1.77381
G1 X-15.180 Y-16.769 E1.85244
G1 X-14.000 Y-16.875 E1.89305
G1 X14.000 Y-16.875 E2.85300
G1 X16.259 Y-16.478 E2.93163
G1 X18.247 Y-15.335 E3.01026 F2340.000
G1 X19.726 Y-13.582 E3.08889
G1 X20.519 Y-11.430 E3.16751
G1 X20.625 Y-10.250 E3.20813
G1 X20.625 Y10.250 E3.91095
G1 X20.228 Y12.509 E3.98958
G1 X19.085 Y14.497 E4.06820
G1 X17.332 Y15.976 E4.14683
G1 X15.180 Y16.769 E4.22546
G1 X14.000 Y16.875 E4.26607
G1 X0.060 Y16.875 E4.74399
G1 X1.576 Y13.687 F7800.000
G1 X0.259 Y12.369 E4.80787 F2340.000
G1 X-0.259 Y12.369 E4.82562
G1 X-1.576 Y13.687 E4.88950
G1 X-15.424 Y13.687 E5.36424
G1 X-17.437 Y11.674 E5.46185
G1 X-17.437 Y-11.674 E6.26229
G1 X-15.424 Y-13.687 E6.35990
G1 X-1.576 Y-13.687 E6.83464
G1 X-0.259 Y-12.369 E6.89852
G1 X0.259 Y-12.369 E6.91627 F2340.000
G1 X1.576 Y-13.687 E6.98015
G1 X15.424 Y-13.687 E7.45489
G1 X17.437 Y-11.674 E7.55251
G1 X17.437 Y11.674 E8.35294
G1 X15.424 Y13.687 E8.45055
G1 X1.636 Y13.687 E8.92324
G1 X1.835 Y13.062 F7800.000
G1 X0.259 Y11.486 E8.99967 F2340.000
G1 X-0.259 Y11.486 E9.01741
G1 X-1.835 Y13.062 E9.09385
G1 X-15.165 Y13.062 E9.55084
G1 X-16.812 Y11.415 E9.63070
G1 X-16.812 Y-11.415 E10.41339
G1 X-15.165 Y-13.062 E10.49326
G1 X-1.835 Y-13.062 E10.95025
G1 X-0.259 Y-11.486 E11.02668 F2340.000
G1 X0.259 Y-11.486 E11.04443
G1 X1.835 Y-13.062 E11.12086
G1 X15.165 Y-13.062 E11.57785
G1 X16.812 Y-11.415 E11.65771
G1 X16.812 Y11.415 E12.44040
G1 X15.165 Y13.062 E12.52027
G1 X1.895 Y13.062 E12.97520
G1 E10.97520 F2400.00000
G92 E0
G1 X0.929 Y11.735 F7800.000
G1 X0.000 Y11.184 F7800.000
G1 X-0.929 Y11.735 F7800.000
G1 X-0.813 Y11.156 F7800.000
G1 E2.00000 F2400.00000
G1 X-2.094 Y12.437 E2.06212 F2340.000
G1 X-14.906 Y12.437 E2.50136
G1 X-16.187 Y11.156 E2.56348
G1 X-16.187 Y-11.156 E3.32842
G1 X-14.906 Y-12.437 E3.39054
G1 X-2.094 Y-12.437 E3.82978
G1 X-0.813 Y-11.156 E3.89190
G1 X-0.813 Y11.096 E4.65478 F2340.000
G1 X-1.438 Y10.897 F7800.000
G1 X-2.353 Y11.812 E4.69915 F2340.000
G1 X-14.647 Y11.812 E5.12064
G1 X-15.562 Y10.897 E5.16501
G1 X-15.562 Y-10.897 E5.91220
G1 X-14.647 Y-11.812 E5.95657
G1 X-2.353 Y-11.812 E6.37807
G1 X-1.438 Y-10.897 E6.42244 F2340.000
G1 X-1.438 Y10.837 E7.16757
G1 X-2.063 Y10.638 F7800.000
G1 X-2.612 Y11.187 E7.19420 F2340.000
G1 X-14.388 Y11.187 E7.59794
G1 X-14.937 Y10.638 E7.62456
G1 X-14.937 Y-10.638 E8.35401
G1 X-14.388 Y-11.187 E8.38063
G1 X-2.612 Y-11.187 E8.78438
G1 X-2.063 Y-10.638 E8.81100
G1 X-2.063 Y10.578 E9.53838 F2340.000
G1 X-2.688 Y10.379 F7800.000
G1 X-2.871 Y10.562 E9.54726 F2340.000
G1 X-14.129 Y10.562 E9.93326
G1 X-14.312 Y10.379 E9.94213
G1 X-14.312 Y-10.379 E10.65383
G1 X-14.129 Y-10.562 E10.66270
G1 X-2.871 Y-10.562 E11.04870
G1 X-2.688 Y-10.379 E11.05757
G1 X-2.688 Y10.319 E11.76721
G1 E9.76721 F2400.00000
G92 E0
G1 X-2.000 Y10.664 F7800.000
G1 X-2.000 Y10.664 F7800.000
G1 X0.000 Y10.664 F7800.000
G1 X0.813 Y10.379 F7800.000
G1 E2.00000 F2400.00000
G1 X0.813 Y-11.156 E2.73832 F2340.000
G1 X2.094 Y-12.437 E2.80044
G1 X14.906 Y-12.437 E3.23968
G1 X16.187 Y-11.156 E3.30180
G1 X16.187 Y11.156 E4.06674 F2340.000
G1 X14.906 Y12.437 E4.12885
G1 X2.094 Y12.437 E4.56810
G1 X0.813 Y11.156 E4.63021
G1 X0.813 Y10.439 E4.65478
G1 X1.438 Y10.379 F7800.000
G1 X1.438 Y-10.897 E5.38422 F2340.000
G1 X2.353 Y-11.812 E5.42859
G1 X14.647 Y-11.812 E5.85009
G1 X15.562 Y-10.897 E5.89446 F2340.000
G1 X15.562 Y10.897 E6.64165
G1 X14.647 Y11.812 E6.68602
G1 X2.353 Y11.812 E7.10751
G1 X1.438 Y10.897 E7.15188
G1 X1.438 Y10.439 E7.16757
G1 X2.063 Y10.379 F7800.000
G1 X2.063 Y-10.638 E7.88814 F2340.000
G1 X2.612 Y-11.187 E7.91477
G1 X14.388 Y-11.187 E8.31851
G1 X14.937 Y-10.638 E8.34513
G1 X14.937 Y10.638 E9.07458 F2340.000
G1 X14.388 Y11.187 E9.10120
G1 X2.612 Y11.187 E9.50495
G1 X2.063 Y10.638 E9.53157
G1 X2.063 Y10.439 E9.53838
G1 X2.871 Y10.562 F7800.000
G1 X2.688 Y10.379 E9.54726 F2340.000
G1 X2.688 Y-10.379 E10.25895
G1 X2.871 Y-10.562 E10.26783
G1 X14.129 Y-10.562 E10.65383
G1 X14.312 Y-10.379 E10.66270
G1 X14.312 Y10.379 E11.37440
G1 X14.129 Y10.562 E11.38327
G1 X2.931 Y10.562 E11.76721
G1 E9.76721 F2400.00000
G92 E0
G1 X-13.650 Y9.900 F7800.000
G1 E2.00000 F2400.00000
G1 X-13.650 Y-9.900 E2.67882 F780.000
G1 X-3.350 Y-9.900 E3.03195
G1 X-3.350 Y9.900 E3.71077
G1 X-13.590 Y9.900 E4.06184
G1 X-13.450 Y9.554 F7800.000
G1 X-13.025 Y9.275 F7800.000
G1 X-13.025 Y-9.275 E4.69782 F1560.000
G1 X-3.975 Y-9.275 E5.00809
G1 X-3.975 Y9.275 E5.64407
G1 X-12.965 Y9.275 E5.95229
G1 X-6.595 Y8.050 F7800.000
G1 X-4.878 Y5.075 E6.07004 F585.000
G1 X-4.600 Y5.150 E6.07990
G1 X-4.600 Y8.650 E6.19990
G1 X-12.400 Y8.650 E6.46733
G1 X-12.400 Y5.150 E6.58734
G1 X-12.122 Y5.075 E6.59720
G1 X-10.405 Y8.050 E6.71494
G1 X-6.655 Y8.050 E6.84352
G1 X-4.824 Y5.430 F7800.000
G1 X-4.824 Y2.070 F7800.000
G1 X-5.576 Y-0.738 F7800.000
G1 X-6.941 Y0.050 F7800.000
G1 X-6.595 Y-0.550 F7800.000
G1 X-10.405 Y-0.550 E6.97415 F1560.000
G1 X-12.122 Y2.425 E7.09189
G1 X-12.400 Y2.350 E7.10176
G1 X-12.400 Y-8.650 E7.47889
G1 X-4.600 Y-8.650 E7.74632
G1 X-4.600 Y2.350 E8.12346
G1 X-4.878 Y2.425 E8.13332
G1 X-6.565 Y-0.498 E8.24901
G1 X-7.316 Y0.700 F7800.000
G1 X-6.187 Y2.656 E8.32645 F585.000
G1 X-6.187 Y4.844 E8.40145
G1 X-7.316 Y6.800 E8.47889
G1 X-9.684 Y6.800 E8.56004
G1 X-10.813 Y4.844 E8.63749
G1 X-10.813 Y2.656 E8.71249
G1 X-9.684 Y0.700 E8.78993
G1 X-7.376 Y0.700 E8.86903
G1 X-6.941 Y0.563 F7800.000
G1 X-6.956 Y0.075 F7800.000
G1 X-5.562 Y2.489 E8.96458 F585.000
G1 X-5.562 Y5.011 E9.05106
G1 X-6.956 Y7.425 E9.14661
G1 X-10.044 Y7.425 E9.25250
G1 X-11.438 Y5.011 E9.34805
G1 X-11.438 Y2.489 E9.43453
G1 X-10.044 Y0.075 E9.53009
G1 X-7.016 Y0.075 E9.63392
G1 X-5.283 Y0.357 F7800.000
G1 X-4.928 Y1.682 E9.68094 F780.000
G1 X-4.769 Y2.719 F7800.000
G1 X-4.769 Y4.781 E9.83086 F780.000
G1 X-4.928 Y5.818 F7800.000
G1 X-5.283 Y7.143 E9.87788 F780.000
G1 X-4.978 Y7.886 F7800.000
G1 X-5.292 Y7.573 E9.89982 F780.000
G1 X-5.869 Y8.272 E9.94470
G1 X-6.169 Y7.972 E9.96569
G1 X-11.103 Y7.766 F7800.000
G1 X-11.439 Y7.430 E9.98633 F780.000
G1 X-12.022 Y7.967 E10.02071
G1 X-11.717 Y8.272 E10.03945
G1 X-11.717 Y7.143 F7800.000
G1 X-12.072 Y5.818 E10.08647 F780.000
G1 X-12.231 Y4.781 F7800.000
G1 X-12.231 Y2.719 E10.23639 F780.000
G1 X-12.072 Y1.682 F7800.000
G1 X-11.717 Y0.357 E10.28341 F780.000
G1 X-12.022 Y-0.386 F7800.000
G1 X-11.708 Y-0.073 E10.29912 F780.000
G1 X-10.964 Y-0.242 E10.32620
G1 X-12.022 Y-1.300 E10.37924
G1 X-12.022 Y-2.214 E10.41165
G1 X-10.629 Y-0.822 E10.48147
G1 X-9.822 Y-0.928 E10.51034
G1 X-12.022 Y-3.128 E10.62065
G1 X-12.022 Y-4.042 E10.65306
G1 X-8.908 Y-0.928 E10.80919
G1 X-7.994 Y-0.928 E10.84160
G1 X-12.022 Y-4.956 E11.04357
G1 X-12.022 Y-5.870 E11.07597
G1 X-7.080 Y-0.928 E11.32377
G1 X-5.250 Y-0.013 F7800.000
G1 X-12.022 Y-6.784 E11.66331 F780.000
G1 X-12.022 Y-7.698 E11.69572
G1 X-4.978 Y-0.655 E12.04890
G1 X-4.978 Y-1.569 E12.08131
G1 X-11.681 Y-8.272 E12.41743
G1 X-10.767 Y-8.272 E12.44984
G1 X-4.978 Y-2.483 E12.74012
G1 X-4.978 Y-3.397 E12.77253
G1 X-9.853 Y-8.272 E13.01699
G1 X-8.939 Y-8.272 E13.04939
G1 X-4.978 Y-4.311 E13.24802
G1 X-4.978 Y-5.225 E13.28043
G1 X-8.025 Y-8.272 E13.43322
G1 X-7.111 Y-8.272 E13.46563
G1 X-4.978 Y-6.139 E13.57259
G1 X-4.978 Y-7.053 E13.60500
G1 X-6.197 Y-8.272 E13.66613
G1 X-5.283 Y-8.272 E13.69854
G1 X-4.978 Y-7.967 E13.71384
G1 E11.71384 F2400.00000
G92 E0
G1 X-2.000 Y10.664 F7800.000
G1 X0.000 Y11.184 F7800.000
G1 X1.757 Y12.078 F7800.000
G1 X2.586 Y11.250 F7800.000
G1 X13.650 Y9.900 F7800.000
G1 E2.00000 F2400.00000
G1 X3.350 Y9.900 E2.35313 F780.000
G1 X3.350 Y-9.900 E3.03195
G1 X13.650 Y-9.900 E3.38507
G1 X13.650 Y9.840 E4.06184
G1 X13.304 Y9.700 F7800.000
G1 X13.025 Y9.275 F7800.000
G1 X3.975 Y9.275 E4.37212 F1560.000
G1 X3.975 Y-9.275 E5.00809
G1 X13.025 Y-9.275 E5.31837
G1 X13.025 Y9.215 E5.95229
G1 X10.405 Y8.050 F7800.000
G1 X12.122 Y5.075 E6.07004 F585.000
G1 X12.400 Y5.150 E6.07990
G1 X12.400 Y8.650 E6.19990
G1 X4.600 Y8.650 E6.46733
G1 X4.600 Y5.150 E6.58734
G1 X4.878 Y5.075 E6.59720
G1 X6.595 Y8.050 E6.71494
G1 X10.345 Y8.050 E6.84352
G1 X12.176 Y5.430 F7800.000
G1 X12.176 Y2.070 F7800.000
G1 X11.424 Y-0.738 F7800.000
G1 X10.059 Y0.050 F7800.000
G1 X10.405 Y-0.550 F7800.000
G1 X6.595 Y-0.550 E6.97415 F1560.000
G1 X4.878 Y2.425 E7.09189
G1 X4.600 Y2.350 E7.10176
G1 X4.600 Y-8.650 E7.47889
G1 X12.400 Y-8.650 E7.74632
G1 X12.400 Y2.350 E8.12346
G1 X12.122 Y2.425 E8.13332
G1 X10.435 Y-0.498 E8.24901
G1 X9.684 Y0.700 F7800.000
G1 X10.813 Y2.656 E8.32645 F585.000
G1 X10.813 Y4.844 E8.40145
G1 X9.684 Y6.800 E8.47889
G1 X7.316 Y6.800 E8.56004
G1 X6.187 Y4.844 E8.63749
G1 X6.187 Y2.656 E8.71249
G1 X7.316 Y0.700 E8.78993
G1 X9.624 Y0.700 E8.86903
G1 X10.059 Y0.563 F7800.000
G1 X10.044 Y0.075 F7800.000
G1 X11.438 Y2.489 E8.96458 F585.000
G1 X11.438 Y5.011 E9.05106
G1 X10.044 Y7.425 E9.14661
G1 X6.956 Y7.425 E9.25250
G1 X5.562 Y5.011 E9.34805
G1 X5.562 Y2.489 E9.43453
G1 X6.956 Y0.075 E9.53009
G1 X9.984 Y0.075 E9.63392
G1 X11.717 Y0.357 F7800.000
G1 X12.072 Y1.682 E9.68094 F780.000
G1 X12.231 Y2.719 F7800.000
G1 X12.231 Y4.781 E9.83086 F780.000
G1 X12.072 Y5.818 F7800.000
G1 X11.717 Y7.143 E9.87788 F780.000
G1 X12.022 Y7.886 F7800.000
G1 X11.708 Y7.573 E9.89982 F780.000
G1 X11.131 Y8.272 E9.94470
G1 X10.831 Y7.972 E9.96569
G1 X5.897 Y7.766 F7800.000
G1 X5.561 Y7.430 E9.98633 F780.000
G1 X4.978 Y7.967 E10.02071
G1 X5.283 Y8.272 E10.03945
G1 X5.283 Y7.143 F7800.000
G1 X4.928 Y5.818 E10.08647 F780.000
G1 X4.769 Y4.781 F7800.000
G1 X4.769 Y2.719 E10.23639 F780.000
G1 X4.928 Y1.682 F7800.000
G1 X5.283 Y0.357 E10.28341 F780.000
G1 X4.978 Y-0.386 F7800.000
G1 X5.292 Y-0.073 E10.29912 F780.000
G1 X6.036 Y-0.242 E10.32620
G1 X4.978 Y-1.300 E10.37924
G1 X4.978 Y-2.214 E10.41165
G1 X6.371 Y-0.822 E10.48147
G1 X7.178 Y-0.928 E10.51034
G1 X4.978 Y-3.128 E10.62065
G1 X4.978 Y-4.042 E10.65306
G1 X8.092 Y-0.928 E10.80919
G1 X9.006 Y-0.928 E10.84160
G1 X4.978 Y-4.956 E11.04357
G1 X4.978 Y-5.870 E11.07597
G1 X9.920 Y-0.928 E11.32377
G1 X11.750 Y-0.013 F7800.000
G1 X4.978 Y-6.784 E11.66331 F780.000
G1 X4.978 Y-7.698 E11.69572
G1 X12.022 Y-0.655 E12.04890
G1 X12.022 Y-1.569 E12.08131
G1 X5.319 Y-8.272 E12.41743
G1 X6.233 Y-8.272 E12.44984
G1 X12.022 Y-2.483 E12.74012
G1 X12.022 Y-3.397 E12.77253
G1 X7.147 Y-8.272 E13.01699
G1 X8.061 Y-8.272 E13.04939
G1 X12.022 Y-4.311 E13.24802
G1 X12.022 Y-5.225 E13.28043
G1 X8.975 Y-8.272 E13.43322
G1 X9.889 Y-8.272 E13.46563
G1 X12.022 Y-6.139 E13.57259
G1 X12.022 Y-7.053 E13.60500
G1 X10.803 Y-8.272 E13.66613
G1 X11.717 Y-8.272 E13.69854
G1 X12.022 Y-7.967 E13.71384
G1 Z0.350 F7800.000
M106 S168.3
M140 S50 ; wait for bed temperature to be reached
G1 Z0.550 F7800.000
G1 E11.71384 F2400.00000
G92 E0
G1 X2.000 Y-10.664 F7800.000
G1 X2.000 Y-10.664 F7800.000
G1 X0.000 Y-10.664 F7800.000
G1 X-2.000 Y-10.664 F7800.000
G1 X-6.756 Y-0.271 F7800.000
G1 E2.00000 F2400.00000
G1 X-5.216 Y2.396 E2.06066 F900.000
G1 X-5.216 Y5.104 E2.11401
G1 X-6.756 Y7.771 E2.17467
G1 X-10.244 Y7.771 E2.24339
G1 X-11.784 Y5.104 E2.30405
G1 X-11.784 Y2.396 E2.35739
G1 X-10.244 Y-0.271 E2.41806
G1 X-6.816 Y-0.271 E2.48559
G1 X-7.119 Y0.357 F7800.000
G1 X-5.844 Y2.564 E2.53579 F900.000
G1 X-5.844 Y4.936 E2.58250
G1 X-7.119 Y7.143 E2.63270
G1 X-9.881 Y7.143 E2.68713
G1 X-11.156 Y4.936 E2.73733
G1 X-11.156 Y2.564 E2.78404
G1 X-9.881 Y0.357 E2.83424
G1 X-7.179 Y0.357 E2.88748
G1 X-7.403 Y0.850 F7800.000
G1 X-6.337 Y2.696 E2.91135 F900.000
G1 X-6.337 Y4.804 E2.93494
G1 X-7.403 Y6.650 E2.95881
G1 X-9.597 Y6.650 E2.98337
G1 X-10.663 Y4.804 E3.00723
G1 X-10.663 Y2.696 E3.03082
G1 X-9.597 Y0.850 E3.05469
G1 X-7.463 Y0.850 E3.07858
G1 X-7.027 Y0.713 F7800.000
G1 E1.07858 F2400.00000
G92 E0
G1 X-5.537 Y5.018 F7800.000
G1 X-4.824 Y5.430 F7800.000
G1 X-5.457 Y7.793 F7800.000
G1 X-4.000 Y9.250 F7800.000
G1 X-4.321 Y8.929 F7800.000
G1 E2.00000 F2400.00000
G1 X-12.679 Y8.929 E2.16464 F2400.000
G1 X-12.679 Y-8.929 E2.51641
G1 X-4.321 Y-8.929 E2.68105
G1 X-4.321 Y8.869 E3.03164
G1 X-3.693 Y9.557 F7800.000
G1 X-13.307 Y9.557 E3.22103 F2400.000
G1 X-13.307 Y-9.557 E3.59756
G1 X-3.693 Y-9.557 E3.78695
G1 X-3.693 Y9.497 E4.16230
G1 X-3.200 Y10.050 F7800.000
G1 X-13.800 Y10.050 E4.28096 F1200.000
G1 X-13.800 Y-10.050 E4.50597
G1 X-3.200 Y-10.050 E4.62464
G1 X-3.200 Y9.990 E4.84898
G1 X-3.546 Y9.850 F7800.000
G1 X-5.008 Y8.548 F7800.000
G1 X-4.702 Y8.242 E4.86062 F1200.000
G1 X-4.702 Y7.031 E4.89314
G1 X-6.219 Y8.548 E4.95076
G1 X-5.625 Y6.743 F7800.000
G1 X-5.287 Y6.405 E4.96357 F1200.000
G1 X-5.008 Y6.117 F7800.000
G1 X-4.769 Y5.188 E4.98246 F1200.000
G1 X-4.769 Y2.312 E5.03912
G1 X-5.008 Y1.383 E5.05801
G1 X-5.017 Y0.951 F7800.000
G1 X-4.702 Y0.636 E5.06704 F1200.000
G1 X-4.702 Y-0.279 E5.08561
G1 X-5.764 Y0.783 E5.11609
G1 X-6.099 Y0.203 E5.12968
G1 X-4.702 Y-1.194 E5.16977
G1 X-4.702 Y-2.109 E5.18834
G1 X-6.434 Y-0.377 E5.23804
G1 X-7.075 Y-0.652 F7800.000
G1 X-4.702 Y-3.025 E5.30613 F1200.000
G1 X-4.702 Y-3.940 E5.32470
G1 X-7.990 Y-0.652 E5.41905
G1 X-8.905 Y-0.652 E5.43762
G1 X-4.702 Y-4.855 E5.55823
G1 X-4.702 Y-5.770 E5.57680
G1 X-9.820 Y-0.652 E5.72367
G1 X-12.298 Y-0.920 F7800.000
G1 X-4.706 Y-8.512 E5.94153 F1200.000
G1 X-5.585 Y-8.548 E5.95938
G1 X-12.298 Y-1.835 E6.15201
G1 X-12.298 Y-2.750 E6.17058
G1 X-6.500 Y-8.548 E6.33694
G1 X-7.415 Y-8.548 E6.35551
G1 X-12.298 Y-3.665 E6.49562
G1 X-12.298 Y-4.581 E6.51419
G1 X-8.331 Y-8.548 E6.62803
G1 X-9.246 Y-8.548 E6.64660
G1 X-12.298 Y-5.496 E6.73418
G1 X-12.298 Y-6.411 E6.75275
G1 X-10.161 Y-8.548 E6.81407
G1 X-11.076 Y-8.548 E6.83264
G1 X-12.298 Y-7.326 E6.86770
G1 X-12.298 Y-8.242 E6.88627
G1 X-11.992 Y-8.548 E6.89506
G1 X-4.702 Y-7.601 F7800.000
G1 X-12.298 Y-0.004 E7.11303 F1200.000
G1 X-12.294 Y0.907 E7.13152
G1 X-4.702 Y-6.686 E7.34938
G1 X-11.992 Y1.383 F7800.000
G1 X-12.231 Y2.312 E7.36826 F1200.000
G1 X-12.231 Y5.188 E7.42492
G1 X-11.992 Y6.117 E7.44381
G1 X-12.298 Y6.864 F7800.000
G1 X-11.983 Y6.549 E7.45376 F1200.000
G1 X-11.202 Y6.775 E7.47192
G1 X-12.298 Y7.871 E7.50654
G1 X-11.968 Y8.548 E7.52336
G1 X-10.834 Y7.414 E7.55919
G1 X-10.653 Y8.242 E7.57810
G1 X-10.960 Y8.548 E7.58779
G1 X-10.273 Y8.350 F7800.000
G1 X-6.727 Y8.350 E7.73223 F1200.000
G1 E5.73223 F2400.00000
G92 E0
G1 X-2.000 Y10.664 F7800.000
G1 X0.000 Y11.184 F7800.000
G1 X1.757 Y12.078 F7800.000
G1 X2.586 Y11.250 F7800.000
G1 X10.244 Y7.771 F7800.000
G1 E2.00000 F2400.00000
G1 X6.756 Y7.771 E2.06872 F900.000
G1 X5.216 Y5.104 E2.12938
G1 X5.216 Y2.396 E2.18272
G1 X6.756 Y-0.271 E2.24339
G1 X10.244 Y-0.271 E2.31210
G1 X11.784 Y2.396 E2.37276
G1 X11.784 Y5.104 E2.42611
G1 X10.274 Y7.719 E2.48559
G1 X9.881 Y7.143 F7800.000
G1 X7.119 Y7.143 E2.54001 F900.000
G1 X5.844 Y4.936 E2.59021
G1 X5.844 Y2.564 E2.63692
G1 X7.119 Y0.357 E2.68713
G1 X9.881 Y0.357 E2.74155
G1 X11.156 Y2.564 E2.79175
G1 X11.156 Y4.936 E2.83846
G1 X9.911 Y7.091 E2.88748
G1 X9.597 Y6.650 F7800.000
G1 X7.403 Y6.650 E2.91204 F900.000
G1 X6.337 Y4.804 E2.93591
G1 X6.337 Y2.696 E2.95950
G1 X7.403 Y0.850 E2.98337
G1 X9.597 Y0.850 E3.00793
G1 X10.663 Y2.696 E3.03179
G1 X10.663 Y4.804 E3.05538
G1 X9.627 Y6.598 E3.07858
G1 X9.528 Y7.044 F7800.000
G1 X12.679 Y8.929 F7800.000
G1 X4.321 Y8.929 E3.24322 F2400.000
G1 X4.321 Y-8.929 E3.59499
