; generated by Slic3r 1.2.9 on 2016-10-25 at 13:06:24

; external perimeters extrusion width = 0.40mm
; perimeters extrusion width = 0.67mm
; infill extrusion width = 0.67mm
; solid infill extrusion width = 0.67mm
; top infill extrusion width = 0.67mm
; support material extrusion width = 0.40mm

M107
M190 S70 ; set bed temperature
M104 S210 ; set temperature
G28 ; home all axes
G1 Z5 F5000 ; lift nozzle

M109 S210 ; wait for temperature to be reached
G21 ; set units to millimeters
G90 ; use absolute coordinates
M82 ; use absolute distances for extrusion
G92 E0
G1 Z0.350 F7800.000
G1 E-2.00000 F2400.00000
G92 E0
G1 X0.000 Y23.824 F7800.000
G1 E2.00000 F2400.00000
G1 X-22.400 Y23.824 E2.76796 F2340.000
G1 X-24.659 Y23.427 E2.84659
G1 X-26.647 Y22.283 E2.92522
G1 X-28.126 Y20.530 E3.00385
G1 X-28.790 Y18.947 E3.06271
G1 X-37.190 Y-11.752 E4.15387
G1 X-37.425 Y-13.500 E4.21435
G1 X-37.425 Y-17.500 E4.35149
G1 X-37.028 Y-19.759 E4.43012
G1 X-35.885 Y-21.747 E4.50875
G1 X-34.132 Y-23.226 E4.58738
G1 X-31.980 Y-24.019 E4.66600
G1 X-30.800 Y-24.125 E4.70661
G1 X30.800 Y-24.125 E6.81851
G1 X33.059 Y-23.728 E6.89714
G1 X35.047 Y-22.585 E6.97577 F2340.000
G1 X36.526 Y-20.832 E7.05440
G1 X37.319 Y-18.680 E7.13302
G1 X37.425 Y-17.500 E7.17363
G1 X37.425 Y-13.500 E7.31077
G1 X37.190 Y-11.752 E7.37125
G1 X28.790 Y18.947 E8.46242
G1 X27.811 Y21.021 E8.54104
G1 X26.183 Y22.637 E8.61967
G1 X24.102 Y23.601 E8.69830
G1 X22.400 Y23.824 E8.75716
G1 X0.060 Y23.824 E9.52307
G1 E7.52307 F2400.00000
G92 E0
G1 X7.963 Y18.622 F7800.000
G1 E2.00000 F2400.00000
G1 X7.963 Y-9.697 E2.97090 F2340.000
G1 X7.597 Y-10.063 E2.98865
G1 X1.576 Y-10.063 E3.19506
G1 X0.259 Y-11.381 E3.25894
G1 X-0.259 Y-11.381 E3.27669
G1 X-1.576 Y-10.063 E3.34057
G1 X-7.597 Y-10.063 E3.54698
G1 X-7.963 Y-9.697 E3.56473
G1 X-7.963 Y18.622 E4.53563
G1 X-9.976 Y20.636 E4.63324
G1 X-23.824 Y20.636 E5.10798
G1 X-25.837 Y18.622 E5.20559
G1 X-25.837 Y-9.697 E6.17649
G1 X-26.203 Y-10.063 E6.19424
G1 X-32.224 Y-10.063 E6.40065
G1 X-34.237 Y-12.076 E6.49827
G1 X-34.237 Y-18.924 E6.73302
G1 X-32.224 Y-20.937 E6.83063
G1 X-1.576 Y-20.937 E7.88134
G1 X-0.259 Y-19.619 E7.94522
G1 X0.259 Y-19.619 E7.96297 F2340.000
G1 X1.576 Y-20.937 E8.02685
G1 X32.224 Y-20.937 E9.07756
G1 X34.237 Y-18.924 E9.17517
G1 X34.237 Y-12.076 E9.40992
G1 X32.224 Y-10.063 E9.50754
G1 X26.203 Y-10.063 E9.71395
G1 X25.837 Y-9.697 E9.73170
G1 X25.837 Y18.622 E10.70260
G1 X23.824 Y20.636 E10.80021
G1 X9.976 Y20.636 E11.27495
G1 X8.006 Y18.665 E11.37051
G1 X8.588 Y18.363 F7800.000
G1 X8.588 Y-10.322 E12.35395 F2340.000
G1 X8.222 Y-10.688 E12.37170
G1 X1.835 Y-10.688 E12.59066
G1 X0.259 Y-12.264 E12.66709
G1 X-0.259 Y-12.264 E12.68484
G1 X-1.835 Y-10.688 E12.76127
G1 X-8.222 Y-10.688 E12.98024
G1 X-8.588 Y-10.322 E12.99798
G1 X-8.588 Y18.363 E13.98143
G1 X-10.235 Y20.011 E14.06130
G1 X-23.565 Y20.011 E14.51829
G1 X-25.212 Y18.363 E14.59815
G1 X-25.212 Y-10.322 E15.58160
G1 X-25.578 Y-10.688 E15.59935
G1 X-31.965 Y-10.688 E15.81831
G1 X-33.612 Y-12.335 E15.89818
G1 X-33.612 Y-18.665 E16.11518
G1 X-31.965 Y-20.312 E16.19505
G1 X-1.835 Y-20.312 E17.22801
G1 X-0.259 Y-18.736 E17.30444 F2340.000
G1 X0.259 Y-18.736 E17.32219
G1 X1.835 Y-20.312 E17.39862
G1 X31.965 Y-20.312 E18.43158
G1 X33.612 Y-18.665 E18.51144
G1 X33.612 Y-12.335 E18.72845
G1 X31.965 Y-10.688 E18.80831
G1 X25.578 Y-10.688 E19.02727
G1 X25.212 Y-10.322 E19.04502
G1 X25.212 Y18.363 E20.02847
G1 X23.565 Y20.011 E20.10834
G1 X10.235 Y20.011 E20.56533
G1 X8.630 Y18.406 E20.64314
G1 E18.64314 F2400.00000
G92 E0
G1 X8.685 Y18.292 F7800.000
G1 X0.000 Y11.664 F7800.000
G1 X-8.685 Y18.292 F7800.000
G1 X-9.213 Y18.105 F7800.000
G1 E2.00000 F2400.00000
G1 X-10.494 Y19.386 E2.06212 F2340.000
G1 X-23.306 Y19.386 E2.50136
G1 X-24.587 Y18.105 E2.56348
G1 X-24.587 Y-10.947 E3.55948
G1 X-24.953 Y-11.313 E3.57722
G1 X-31.706 Y-11.313 E3.80874
G1 X-32.987 Y-12.594 E3.87085
G1 X-32.987 Y-18.406 E4.07011
G1 X-31.706 Y-19.687 E4.13223
G1 X-2.094 Y-19.687 E5.14744
G1 X-0.813 Y-18.406 E5.20956
G1 X-0.813 Y-12.594 E5.40881 F2340.000
G1 X-2.094 Y-11.313 E5.47093
G1 X-8.847 Y-11.313 E5.70244
G1 X-9.213 Y-10.947 E5.72019
G1 X-9.213 Y18.045 E6.71413
G1 X-9.838 Y17.846 F7800.000
G1 X-10.753 Y18.761 E6.75850 F2340.000
G1 X-23.047 Y18.761 E7.17999
G1 X-23.962 Y17.846 E7.22436
G1 X-23.962 Y-11.572 E8.23291
G1 X-24.328 Y-11.938 E8.25066
G1 X-31.447 Y-11.938 E8.49472
G1 X-32.362 Y-12.853 E8.53909
G1 X-32.362 Y-18.147 E8.72060
G1 X-31.447 Y-19.062 E8.76497
G1 X-2.353 Y-19.062 E9.76243
G1 X-1.438 Y-18.147 E9.80680 F2340.000
G1 X-1.438 Y-12.853 E9.98831
G1 X-2.353 Y-11.938 E10.03268
G1 X-9.472 Y-11.938 E10.27674
G1 X-9.838 Y-11.572 E10.29449
G1 X-9.838 Y17.786 E11.30098
G1 X-10.463 Y17.587 F7800.000
G1 X-11.012 Y18.136 E11.32760 F2340.000
G1 X-22.788 Y18.136 E11.73134
G1 X-23.337 Y17.587 E11.75797
G1 X-23.337 Y-12.197 E12.77906
G1 X-23.703 Y-12.563 E12.79681
G1 X-31.188 Y-12.563 E13.05342
G1 X-31.737 Y-13.112 E13.08005
G1 X-31.737 Y-17.888 E13.24380
G1 X-31.188 Y-18.437 E13.27043
G1 X-2.612 Y-18.437 E14.25014
G1 X-2.063 Y-17.888 E14.27676
G1 X-2.063 Y-13.112 E14.44052 F2340.000
G1 X-2.612 Y-12.563 E14.46714
G1 X-10.097 Y-12.563 E14.72376
G1 X-10.463 Y-12.197 E14.74150
G1 X-10.463 Y17.527 E15.76054
G1 X-11.088 Y17.328 F7800.000
G1 X-11.271 Y17.511 E15.76942 F2340.000
G1 X-22.529 Y17.511 E16.15542
G1 X-22.712 Y17.328 E16.16429
G1 X-22.712 Y-12.822 E17.19794
G1 X-23.078 Y-13.188 E17.21568
G1 X-30.929 Y-13.188 E17.48485
G1 X-31.112 Y-13.371 E17.49372
G1 X-31.112 Y-17.629 E17.63973
G1 X-30.929 Y-17.812 E17.64860
G1 X-2.871 Y-17.812 E18.61057
G1 X-2.688 Y-17.629 E18.61945
G1 X-2.688 Y-13.371 E18.76546
G1 X-2.871 Y-13.188 E18.77433
G1 X-10.722 Y-13.188 E19.04349
G1 X-11.088 Y-12.822 E19.06124
G1 X-11.088 Y17.268 E20.09283
G1 E18.09283 F2400.00000
G92 E0
G1 X-10.525 Y17.789 F7800.000
G1 X-8.685 Y18.292 F7800.000
G1 X0.000 Y11.664 F7800.000
G1 X8.685 Y18.292 F7800.000
G1 X9.213 Y17.328 F7800.000
G1 E2.00000 F2400.00000
G1 X9.213 Y-10.947 E2.96938 F2340.000
G1 X8.847 Y-11.313 E2.98712
G1 X2.094 Y-11.313 E3.21864
G1 X0.813 Y-12.594 E3.28075
G1 X0.813 Y-18.406 E3.48001
G1 X2.094 Y-19.687 E3.54213
G1 X31.706 Y-19.687 E4.55734
G1 X32.987 Y-18.406 E4.61946
G1 X32.987 Y-12.594 E4.81871 F2340.000
G1 X31.706 Y-11.313 E4.88083
G1 X24.953 Y-11.313 E5.11234
G1 X24.587 Y-10.947 E5.13009
G1 X24.587 Y18.105 E6.12609
G1 X23.306 Y19.386 E6.18820
G1 X10.494 Y19.386 E6.62745
G1 X9.213 Y18.105 E6.68956
G1 X9.213 Y17.388 E6.71413
G1 X9.838 Y17.328 F7800.000
G1 X9.838 Y-11.572 E7.70493 F2340.000
G1 X9.472 Y-11.938 E7.72268
G1 X2.353 Y-11.938 E7.96674
G1 X1.438 Y-12.853 E8.01111
G1 X1.438 Y-18.147 E8.19261
G1 X2.353 Y-19.062 E8.23698
G1 X31.447 Y-19.062 E9.23445
G1 X32.362 Y-18.147 E9.27882 F2340.000
G1 X32.362 Y-12.853 E9.46032
G1 X31.447 Y-11.938 E9.50469
G1 X24.328 Y-11.938 E9.74876
G1 X23.962 Y-11.572 E9.76650
G1 X23.962 Y17.846 E10.77505
G1 X23.047 Y18.761 E10.81942
G1 X10.753 Y18.761 E11.24092
G1 X9.838 Y17.846 E11.28529
G1 X9.838 Y17.388 E11.30098
G1 X10.463 Y17.328 F7800.000
G1 X10.463 Y-12.197 E12.31320 F2340.000
G1 X10.097 Y-12.563 E12.33095
G1 X2.612 Y-12.563 E12.58756
G1 X2.063 Y-13.112 E12.61418
G1 X2.063 Y-17.888 E12.77794
G1 X2.612 Y-18.437 E12.80456
G1 X31.188 Y-18.437 E13.78428
G1 X31.737 Y-17.888 E13.81090
G1 X31.737 Y-13.112 E13.97466 F2340.000
G1 X31.188 Y-12.563 E14.00128
G1 X23.703 Y-12.563 E14.25789
G1 X23.337 Y-12.197 E14.27564
G1 X23.337 Y17.587 E15.29674
G1 X22.788 Y18.136 E15.32336
G1 X11.012 Y18.136 E15.72710
G1 X10.463 Y17.587 E15.75373
G1 X10.463 Y17.388 E15.76054
G1 X11.271 Y17.511 F7800.000
G1 X11.088 Y17.328 E15.76942 F2340.000
G1 X11.088 Y-12.822 E16.80306
G1 X10.722 Y-13.188 E16.82081
G1 X2.871 Y-13.188 E17.08997
G1 X2.688 Y-13.371 E17.09885
G1 X2.688 Y-17.629 E17.24486
G1 X2.871 Y-17.812 E17.25373
G1 X30.929 Y-17.812 E18.21570
G1 X31.112 Y-17.629 E18.22458
G1 X31.112 Y-13.371 E18.37059
G1 X30.929 Y-13.188 E18.37946
G1 X23.078 Y-13.188 E18.64862
G1 X22.712 Y-12.822 E18.66637
G1 X22.712 Y17.328 E19.70001
G1 X22.529 Y17.511 E19.70889
G1 X11.331 Y17.511 E20.09283
G1 E18.09283 F2400.00000
G92 E0
G1 X-22.050 Y-13.850 F7800.000
G1 E2.00000 F2400.00000
G1 X-30.450 Y-13.850 E2.28799 F780.000
G1 X-30.450 Y-17.150 E2.40112
G1 X-3.350 Y-17.150 E3.33022
G1 X-3.350 Y-13.850 E3.44336
G1 X-11.750 Y-13.850 E3.73134
G1 X-11.750 Y16.849 E4.78381
G1 X-22.050 Y16.849 E5.13694
G1 X-22.050 Y-13.790 E6.18735
G1 X-22.050 Y-14.250 F7800.000
G1 X-21.425 Y-14.475 F7800.000
G1 X-29.825 Y-14.475 E6.47534 F1560.000
G1 X-29.825 Y-16.525 E6.54563
G1 X-3.975 Y-16.525 E7.43188
G1 X-3.975 Y-14.475 E7.50217
G1 X-12.375 Y-14.475 E7.79015
G1 X-12.375 Y16.224 E8.84263
G1 X-21.425 Y16.224 E9.15290
G1 X-21.425 Y-14.415 E10.20332
G1 X-20.800 Y-15.100 F7800.000
G1 X-29.200 Y-15.100 E10.49130 F1560.000
G1 X-29.200 Y-15.900 E10.51875
G1 X-4.600 Y-15.900 E11.36215
G1 X-4.600 Y-15.100 E11.38959
G1 X-13.000 Y-15.100 E11.67758
G1 X-13.000 Y-9.400 E11.87299
G1 X-13.278 Y-9.325 E11.88285
G1 X-14.995 Y-12.300 E12.00060
G1 X-18.805 Y-12.300 E12.13123
G1 X-20.522 Y-9.325 E12.24897
G1 X-20.800 Y-9.400 E12.25884
G1 X-20.800 Y-15.040 E12.45219
G1 X-14.827 Y-14.073 F7800.000
G1 X-13.224 Y-9.680 F7800.000
G1 X-13.224 Y-2.820 F7800.000
G1 X-13.976 Y-0.012 F7800.000
G1 X-15.341 Y-0.800 F7800.000
G1 X-14.995 Y-0.200 F7800.000
G1 X-13.278 Y-3.175 E12.56994 F1560.000
G1 X-13.000 Y-3.100 E12.57980
G1 X-13.000 Y15.599 E13.22087
G1 X-20.800 Y15.599 E13.48830
G1 X-20.800 Y-3.100 E14.12938
G1 X-20.522 Y-3.175 E14.13924
G1 X-18.805 Y-0.200 E14.25698
G1 X-15.055 Y-0.200 E14.38556
G1 X-15.716 Y-1.450 F7800.000
G1 X-18.084 Y-1.450 E14.46671 F585.000
G1 X-19.213 Y-3.406 E14.54416
G1 X-19.213 Y-9.094 E14.73915
G1 X-18.084 Y-11.050 E14.81659
G1 X-15.716 Y-11.050 E14.89774
G1 X-14.587 Y-9.094 E14.97519
G1 X-14.587 Y-3.406 E15.17018
G1 X-15.686 Y-1.502 E15.24556
G1 X-15.786 Y-1.056 F7800.000
G1 X-15.356 Y-0.825 F7800.000
G1 X-18.444 Y-0.825 E15.35146 F585.000
G1 X-19.838 Y-3.239 E15.44701
G1 X-19.838 Y-9.261 E15.65348
G1 X-18.444 Y-11.675 E15.74903
G1 X-15.356 Y-11.675 E15.85493
G1 X-13.962 Y-9.261 E15.95048
G1 X-13.962 Y-3.239 E16.15695
G1 X-15.326 Y-0.877 E16.25045
G1 X-13.683 Y-1.107 F7800.000
G1 X-13.328 Y-2.432 E16.29746 F780.000
G1 X-13.169 Y-3.469 F7800.000
G1 X-13.169 Y-9.031 E16.70180 F780.000
G1 X-13.328 Y-10.068 F7800.000
G1 X-13.683 Y-11.393 E16.74882 F780.000
G1 X-13.691 Y-15.217 F7800.000
G1 X-13.996 Y-15.522 E16.76375 F780.000
G1 X-14.888 Y-15.522 E16.79461
G1 X-13.378 Y-14.012 E16.86848
G1 X-13.378 Y-13.120 E16.89934
G1 X-15.780 Y-15.522 E17.01685
G1 X-16.672 Y-15.522 E17.04772
G1 X-13.378 Y-12.228 E17.20888
G1 X-13.772 Y-11.730 E17.23085
G1 X-17.564 Y-15.522 E17.41639
G1 X-18.456 Y-15.522 E17.44725
G1 X-15.612 Y-12.678 E17.58638
G1 X-16.504 Y-12.678 E17.61725
G1 X-19.348 Y-15.522 E17.75638
G1 X-20.109 Y-15.391 E17.78312
G1 X-17.396 Y-12.678 E17.91589
G1 X-18.288 Y-12.678 E17.94675
G1 X-20.381 Y-14.771 E18.04918
G1 X-20.422 Y-13.920 E18.07867
G1 X-19.045 Y-12.544 E18.14602
G1 X-19.372 Y-11.978 E18.16861
G1 X-20.422 Y-13.028 E18.21998
G1 X-20.422 Y-12.136 E18.25085
G1 X-20.108 Y-11.823 E18.26618
G1 X-20.117 Y-11.393 F7800.000
G1 X-20.472 Y-10.068 E18.31320 F780.000
G1 X-20.631 Y-9.031 F7800.000
G1 X-20.631 Y-3.469 E18.71753 F780.000
G1 X-20.472 Y-2.432 F7800.000
G1 X-20.117 Y-1.107 E18.76455 F780.000
G1 X-19.168 Y0.097 F7800.000
G1 X-20.033 Y-0.768 E18.80695 F780.000
G1 X-20.422 Y-0.264 E18.82901
G1 X-13.378 Y6.779 E19.17404
G1 X-13.378 Y5.886 E19.20497
G1 X-19.086 Y0.178 E19.48459
G1 X-18.194 Y0.178 E19.51552
G1 X-13.378 Y4.993 E19.75141
G1 X-13.378 Y4.101 E19.78234
G1 X-17.301 Y0.178 E19.97448
G1 X-16.408 Y0.178 E20.00541
G1 X-13.378 Y3.208 E20.15381
G1 X-13.378 Y2.315 E20.18474
G1 X-15.515 Y0.178 E20.28940
G1 X-14.755 Y0.045 E20.31611
G1 X-13.378 Y1.422 E20.38357
G1 X-13.378 Y0.529 E20.41450
G1 X-14.428 Y-0.521 E20.46594
G1 X-13.692 Y-0.677 E20.49203
G1 X-13.378 Y-0.364 E20.50738
G1 X-20.422 Y0.629 F7800.000
G1 X-13.378 Y7.672 E20.85241 F780.000
G1 X-13.378 Y8.565 E20.88334
G1 X-20.422 Y1.522 E21.22838
G1 X-20.422 Y2.415 E21.25931
G1 X-13.378 Y9.458 E21.60434
G1 X-13.378 Y10.351 E21.63527
G1 X-20.422 Y3.308 E21.98031
G1 X-20.422 Y4.200 E22.01124
G1 X-13.378 Y11.244 E22.35627
G1 X-13.378 Y12.137 E22.38720
G1 X-20.422 Y5.093 E22.73223
G1 X-20.422 Y5.986 E22.76316
G1 X-13.378 Y13.030 E23.10820
G1 X-13.378 Y13.922 E23.13913
G1 X-20.422 Y6.879 E23.48416
G1 X-20.422 Y7.772 E23.51509
G1 X-13.378 Y14.815 E23.86013
G1 X-13.866 Y15.220 E23.88209
G1 X-20.422 Y8.665 E24.20322
G1 X-20.422 Y9.558 E24.23415
G1 X-14.759 Y15.220 E24.51154
G1 X-15.652 Y15.220 E24.54247
G1 X-20.422 Y10.451 E24.77612
G1 X-20.422 Y11.344 E24.80705
G1 X-16.545 Y15.220 E24.99696
G1 X-17.438 Y15.220 E25.02789
G1 X-20.422 Y12.236 E25.17406
G1 X-20.422 Y13.129 E25.20499
G1 X-18.331 Y15.220 E25.30742
G1 X-19.224 Y15.220 E25.33835
G1 X-20.422 Y14.022 E25.39703
G1 X-20.422 Y14.915 E25.42796
G1 X-20.117 Y15.220 E25.44291
G1 X-20.488 Y-15.500 F7800.000
G1 X-28.888 Y-15.500 E25.73089 F780.000
G1 X-13.312 Y-15.500 F7800.000
G1 X-4.912 Y-15.500 E26.01888 F780.000
G1 E24.01888 F2400.00000
G92 E0
G1 X-2.000 Y-13.433 F7800.000
G1 X0.000 Y-13.164 F7800.000
G1 X0.000 Y-13.029 F7800.000
G1 X2.018 Y-13.301 F7800.000
G1 X22.050 Y-13.850 F7800.000
G1 E2.00000 F2400.00000
G1 X22.050 Y16.849 E3.05247 F780.000
G1 X11.750 Y16.849 E3.40560
G1 X11.750 Y-13.850 E4.45807
G1 X3.350 Y-13.850 E4.74605
G1 X3.350 Y-17.150 E4.85919
G1 X30.450 Y-17.150 E5.78829
G1 X30.450 Y-13.850 E5.90142
G1 X22.110 Y-13.850 E6.18735
G1 X21.650 Y-13.850 F7800.000
G1 X21.425 Y-14.475 F7800.000
G1 X21.425 Y16.224 E7.23983 F1560.000
G1 X12.375 Y16.224 E7.55010
G1 X12.375 Y-14.475 E8.60257
G1 X3.975 Y-14.475 E8.89056
G1 X3.975 Y-16.525 E8.96085
G1 X29.825 Y-16.525 E9.84710
G1 X29.825 Y-14.475 E9.91739
G1 X21.485 Y-14.475 E10.20332
G1 X20.800 Y-15.100 F7800.000
G1 X20.800 Y-9.400 E10.39873 F1560.000
G1 X20.522 Y-9.325 E10.40859
G1 X18.805 Y-12.300 E10.52634
G1 X14.995 Y-12.300 E10.65697
G1 X13.278 Y-9.325 E10.77471
G1 X13.000 Y-9.400 E10.78458
G1 X13.000 Y-15.100 E10.97999
G1 X4.600 Y-15.100 E11.26798
G1 X4.600 Y-15.900 E11.29542
G1 X29.200 Y-15.900 E12.13882
G1 X29.200 Y-15.100 E12.16626
G1 X20.860 Y-15.100 E12.45219
G1 X18.805 Y-0.200 F7800.000
G1 X20.522 Y-3.175 E12.56994 F1560.000
G1 X20.800 Y-3.100 E12.57980
G1 X20.800 Y15.599 E13.22087
G1 X13.000 Y15.599 E13.48830
G1 X13.000 Y-3.100 E14.12938
G1 X13.278 Y-3.175 E14.13924
G1 X14.995 Y-0.200 E14.25698
G1 X18.745 Y-0.200 E14.38556
G1 X18.084 Y-1.450 F7800.000
G1 X15.716 Y-1.450 E14.46671 F585.000
G1 X14.587 Y-3.406 E14.54416
G1 X14.587 Y-9.094 E14.73915
G1 X15.716 Y-11.050 E14.81659
G1 X18.084 Y-11.050 E14.89774
G1 X19.213 Y-9.094 E14.97519
G1 X19.213 Y-3.406 E15.17018
G1 X18.114 Y-1.502 E15.24556
G1 X18.014 Y-1.056 F7800.000
G1 X18.444 Y-0.825 F7800.000
G1 X15.356 Y-0.825 E15.35146 F585.000
G1 X13.962 Y-3.239 E15.44701
G1 X13.962 Y-9.261 E15.65348
G1 X15.356 Y-11.675 E15.74903
G1 X18.444 Y-11.675 E15.85493
G1 X19.838 Y-9.261 E15.95048
G1 X19.838 Y-3.239 E16.15695
G1 X18.474 Y-0.877 E16.25045
G1 X20.117 Y-1.107 F7800.000
G1 X20.472 Y-2.432 E16.29746 F780.000
G1 X20.631 Y-3.469 F7800.000
G1 X20.631 Y-9.031 E16.70180 F780.000
G1 X20.472 Y-10.068 F7800.000
G1 X20.117 Y-11.393 E16.74882 F780.000
G1 X20.109 Y-15.217 F7800.000
G1 X19.804 Y-15.522 E16.76375 F780.000
G1 X18.912 Y-15.522 E16.79461
G1 X20.422 Y-14.012 E16.86848
G1 X20.422 Y-13.120 E16.89934
G1 X18.020 Y-15.522 E17.01685
G1 X17.128 Y-15.522 E17.04772
G1 X20.422 Y-12.228 E17.20888
G1 X20.028 Y-11.730 E17.23085
G1 X16.236 Y-15.522 E17.41639
G1 X15.344 Y-15.522 E17.44725
G1 X18.188 Y-12.678 E17.58638
G1 X17.296 Y-12.678 E17.61725
G1 X14.453 Y-15.522 E17.75638
G1 X13.691 Y-15.391 E17.78312
G1 X16.404 Y-12.678 E17.91589
G1 X15.512 Y-12.678 E17.94675
G1 X13.419 Y-14.771 E18.04918
G1 X13.378 Y-13.920 E18.07867
G1 X14.755 Y-12.544 E18.14602
G1 X14.428 Y-11.978 E18.16861
G1 X13.378 Y-13.028 E18.21998
G1 X13.378 Y-12.136 E18.25085
G1 X13.692 Y-11.823 E18.26618
G1 X13.683 Y-11.393 F7800.000
