; generated by Slic3r 1.2.9 on 2016-09-30 at 07:03:58

; external perimeters extrusion width = 0.40mm
; perimeters extrusion width = 0.48mm
; infill extrusion width = 0.48mm
; solid infill extrusion width = 0.48mm
; top infill extrusion width = 0.48mm

M107
M190 S70 ; set bed temperature
M104 S210 ; set temperature
G28 ; home all axes
G1 Z5 F5000 ; lift nozzle

M109 S210 ; wait for temperature to be reached
G21 ; set units to millimeters
G90 ; use absolute coordinates
M82 ; use absolute distances for extrusion
G92 E0
G1 Z0.350 F7800.000
G1 E-2.00000 F2400.00000
G92 E0
G1 X-49.100 Y0.000 F7800.000
G1 E2.00000 F2400.00000
G1 X-49.100 Y-51.500 E3.76563 F1800.000
G1 X-48.703 Y-53.759 E3.84425
G1 X-47.560 Y-55.747 E3.92288
G1 X-45.807 Y-57.226 E4.00151
G1 X-43.655 Y-58.019 E4.08014
G1 X-42.475 Y-58.125 E4.12075
G1 X42.475 Y-58.125 E7.03318
G1 X44.734 Y-57.728 E7.11181
G1 X46.722 Y-56.585 E7.19043 F1800.000
G1 X48.201 Y-54.832 E7.26906
G1 X48.994 Y-52.680 E7.34769
G1 X49.100 Y-51.500 E7.38830
G1 X49.100 Y51.500 E10.91956
G1 X48.703 Y53.759 E10.99818
G1 X47.560 Y55.747 E11.07681
G1 X45.807 Y57.226 E11.15544
G1 X43.655 Y58.019 E11.23407
G1 X42.475 Y58.125 E11.27468
G1 X-42.475 Y58.125 E14.18711
G1 X-44.734 Y57.728 E14.26574
G1 X-46.722 Y56.585 E14.34436
G1 X-48.201 Y54.832 E14.42299
G1 X-48.994 Y52.680 E14.50162
G1 X-49.100 Y51.500 E14.54223
G1 X-49.100 Y0.060 E16.30580
G1 E14.30580 F2400.00000
G92 E0
G1 X-45.912 Y0.000 F7800.000
G1 E2.00000 F2400.00000
G1 X-45.912 Y-3.924 E2.13452 F1800.000
G1 X-44.607 Y-5.228 E2.19778
G1 X-44.512 Y-5.458 E2.20631
G1 X-44.512 Y-23.542 E2.82629
G1 X-44.607 Y-23.772 E2.83481
G1 X-45.912 Y-25.076 E2.89808
G1 X-45.912 Y-52.924 E3.85279
G1 X-43.899 Y-54.937 E3.95040
G1 X43.899 Y-54.937 E6.96044
G1 X45.912 Y-52.924 E7.05806
G1 X45.912 Y-45.076 E7.32709 F1800.000
G1 X43.899 Y-43.063 E7.42471
G1 X40.778 Y-43.063 E7.53170
G1 X40.412 Y-42.697 E7.54944
G1 X40.412 Y-6.303 E8.79718
G1 X40.778 Y-5.937 E8.81493
G1 X43.899 Y-5.937 E8.92192
G1 X45.912 Y-3.924 E9.01953
G1 X45.912 Y3.924 E9.28856
G1 X43.899 Y5.937 E9.38618
G1 X40.778 Y5.937 E9.49317
G1 X40.412 Y6.303 E9.51091
G1 X40.412 Y42.697 E10.75865
G1 X40.778 Y43.063 E10.77640
G1 X43.899 Y43.063 E10.88339
G1 X45.912 Y45.076 E10.98100
G1 X45.912 Y52.924 E11.25004
G1 X43.899 Y54.937 E11.34765
G1 X-43.899 Y54.937 E14.35769
G1 X-45.912 Y52.924 E14.45530
G1 X-45.912 Y0.060 E16.26768
G1 X-45.287 Y0.000 F7800.000
G1 X-45.287 Y-3.665 E16.39332 F1800.000
G1 X-43.982 Y-4.970 E16.45659
G1 X-43.887 Y-5.199 E16.46511
G1 X-43.887 Y-23.801 E17.10284
G1 X-43.982 Y-24.030 E17.11136
G1 X-45.287 Y-25.335 E17.17463
G1 X-45.287 Y-52.665 E18.11160
G1 X-43.640 Y-54.312 E18.19146
G1 X43.640 Y-54.312 E21.18375
G1 X45.287 Y-52.665 E21.26362 F1800.000
G1 X45.287 Y-45.335 E21.51491
G1 X43.640 Y-43.688 E21.59477
G1 X40.153 Y-43.688 E21.71431
G1 X39.787 Y-43.322 E21.73206
G1 X39.787 Y-5.678 E23.02264
G1 X40.153 Y-5.312 E23.04039
G1 X43.640 Y-5.312 E23.15993
G1 X45.287 Y-3.665 E23.23979
G1 X45.287 Y3.665 E23.49108
G1 X43.640 Y5.312 E23.57095
G1 X40.153 Y5.312 E23.69049
G1 X39.787 Y5.678 E23.70823
G1 X39.787 Y43.322 E24.99882
G1 X40.153 Y43.688 E25.01656
G1 X43.640 Y43.688 E25.13610
G1 X45.287 Y45.335 E25.21597
G1 X45.287 Y52.665 E25.46725
G1 X43.640 Y54.312 E25.54712
G1 X-43.640 Y54.312 E28.53941
G1 X-45.287 Y52.665 E28.61928
G1 X-45.287 Y0.060 E30.42278
G1 X-44.662 Y0.000 F7800.000
G1 X-44.662 Y-3.406 E30.53955 F1800.000
G1 X-43.357 Y-4.711 E30.60282
G1 X-43.262 Y-4.940 E30.61134
G1 X-43.262 Y-24.060 E31.26682
G1 X-43.357 Y-24.289 E31.27534
G1 X-44.662 Y-25.594 E31.33861
G1 X-44.662 Y-52.406 E32.25782
G1 X-43.381 Y-53.687 E32.31994
G1 X43.381 Y-53.687 E35.29449
G1 X44.662 Y-52.406 E35.35660
G1 X44.662 Y-45.594 E35.59014 F1800.000
G1 X43.381 Y-44.313 E35.65226
G1 X39.528 Y-44.313 E35.78435
G1 X39.162 Y-43.947 E35.80210
G1 X39.162 Y-5.053 E37.13553
G1 X39.528 Y-4.687 E37.15327
G1 X43.381 Y-4.687 E37.28536
G1 X44.662 Y-3.406 E37.34748
G1 X44.662 Y3.406 E37.58102
G1 X43.381 Y4.687 E37.64314
G1 X39.528 Y4.687 E37.77523
G1 X39.162 Y5.053 E37.79297
G1 X39.162 Y43.947 E39.12640
G1 X39.528 Y44.313 E39.14415
G1 X43.381 Y44.313 E39.27624
G1 X44.662 Y45.594 E39.33836
G1 X44.662 Y52.406 E39.57190
G1 X43.381 Y53.687 E39.63401
G1 X-43.381 Y53.687 E42.60856
G1 X-44.662 Y52.406 E42.67068
G1 X-44.662 Y0.060 E44.46530
G1 X-44.037 Y0.000 F7800.000
G1 X-44.037 Y-3.147 E44.57320 F1800.000
G1 X-43.122 Y-4.062 E44.61757
G1 X-43.003 Y-4.062 E44.62164
G1 X-42.637 Y-4.428 E44.63939
G1 X-42.637 Y-24.572 E45.32999
G1 X-43.003 Y-24.938 E45.34774
G1 X-43.122 Y-24.938 E45.35181
G1 X-44.037 Y-25.853 E45.39618
G1 X-44.037 Y-52.147 E46.29765
G1 X-43.122 Y-53.062 E46.34202
G1 X43.122 Y-53.062 E49.29882
G1 X44.037 Y-52.147 E49.34319 F1800.000
G1 X44.037 Y-45.853 E49.55898
G1 X43.122 Y-44.938 E49.60335
G1 X38.903 Y-44.938 E49.74798
G1 X38.537 Y-44.572 E49.76573
G1 X38.537 Y-4.428 E51.14201
G1 X38.903 Y-4.062 E51.15976
G1 X43.122 Y-4.062 E51.30440
G1 X44.037 Y-3.147 E51.34877
G1 X44.037 Y3.147 E51.56456
G1 X43.122 Y4.062 E51.60893
G1 X38.903 Y4.062 E51.75356
G1 X38.537 Y4.428 E51.77131
G1 X38.537 Y44.572 E53.14759
G1 X38.903 Y44.938 E53.16534
G1 X43.122 Y44.938 E53.30998
G1 X44.037 Y45.853 E53.35435
G1 X44.037 Y52.147 E53.57014
G1 X43.122 Y53.062 E53.61451
G1 X-43.122 Y53.062 E56.57130
G1 X-44.037 Y52.147 E56.61567
G1 X-44.037 Y0.060 E58.40143
G1 X-43.412 Y0.000 F7800.000
G1 X-43.412 Y-2.888 E58.50045 F1800.000
G1 X-42.863 Y-3.437 E58.52707
G1 X-42.378 Y-3.437 E58.54369
G1 X-42.012 Y-3.803 E58.56144
G1 X-42.012 Y-25.197 E59.29489
G1 X-42.378 Y-25.563 E59.31263
G1 X-42.863 Y-25.563 E59.32926
G1 X-43.412 Y-26.112 E59.35588
G1 X-43.412 Y-51.888 E60.23960
G1 X-42.863 Y-52.437 E60.26622
G1 X42.863 Y-52.437 E63.20527
G1 X43.412 Y-51.888 E63.23189
G1 X43.412 Y-46.112 E63.42994 F1800.000
G1 X42.863 Y-45.563 E63.45656
G1 X38.278 Y-45.563 E63.61374
G1 X37.912 Y-45.197 E63.63149
G1 X37.912 Y-3.803 E65.05062
G1 X38.278 Y-3.437 E65.06837
G1 X42.863 Y-3.437 E65.22555
G1 X43.412 Y-2.888 E65.25218
G1 X43.412 Y2.888 E65.45022
G1 X42.863 Y3.437 E65.47684
G1 X38.278 Y3.437 E65.63403
G1 X37.912 Y3.803 E65.65178
G1 X37.912 Y45.197 E67.07090
G1 X38.278 Y45.563 E67.08865
G1 X42.863 Y45.563 E67.24584
G1 X43.412 Y46.112 E67.27246
G1 X43.412 Y51.888 E67.47050
G1 X42.863 Y52.437 E67.49712
G1 X-42.863 Y52.437 E70.43617
G1 X-43.412 Y51.888 E70.46279
G1 X-43.412 Y0.060 E72.23967
G1 E70.23967 F2400.00000
G92 E0
G1 X-42.787 Y-2.629 F7800.000
G1 E2.00000 F2400.00000
G1 X-42.604 Y-2.812 E2.00887 F1800.000
G1 X-41.754 Y-2.812 E2.03805
G1 X-41.387 Y-3.178 E2.05579
G1 X-41.387 Y-25.822 E2.83209
G1 X-41.754 Y-26.188 E2.84984
G1 X-42.604 Y-26.188 E2.87901
G1 X-42.787 Y-26.371 E2.88788
G1 X-42.787 Y-51.629 E3.75386
G1 X-42.604 Y-51.812 E3.76273
G1 X42.604 Y-51.812 E6.68403
G1 X42.787 Y-51.629 E6.69290
G1 X42.787 Y-46.371 E6.87320
G1 X42.604 Y-46.188 E6.88207
G1 X37.653 Y-46.188 E7.05181
G1 X37.287 Y-45.822 E7.06956
G1 X37.287 Y-3.178 E8.53153
G1 X37.653 Y-2.812 E8.54928
G1 X42.604 Y-2.812 E8.71902
G1 X42.787 Y-2.629 E8.72789
G1 X42.787 Y2.629 E8.90818
G1 X42.604 Y2.812 E8.91706
G1 X37.653 Y2.812 E9.08680
G1 X37.287 Y3.178 E9.10454
G1 X37.287 Y45.822 E10.56652
G1 X37.653 Y46.188 E10.58427
G1 X42.604 Y46.188 E10.75400
G1 X42.787 Y46.371 E10.76288
G1 X42.787 Y51.629 E10.94317
G1 X42.604 Y51.812 E10.95204
G1 X-42.604 Y51.812 E13.87334
G1 X-42.787 Y51.629 E13.88222
G1 X-42.787 Y-2.569 E15.74037
G1 E13.74037 F2400.00000
G92 E0
G1 X-40.725 Y-26.850 F7800.000
G1 E2.00000 F2400.00000
G1 X-42.125 Y-26.850 E2.04800 F750.000
G1 X-42.125 Y-51.150 E2.88110
G1 X42.125 Y-51.150 E5.76953
G1 X42.125 Y-46.850 E5.91695
G1 X36.625 Y-46.850 E6.10551
G1 X36.625 Y-2.150 E7.63801
G1 X42.125 Y-2.150 E7.82657
G1 X42.125 Y2.150 E7.97399
G1 X36.625 Y2.150 E8.16255
G1 X36.625 Y46.850 E9.69505
G1 X42.125 Y46.850 E9.88361
G1 X42.125 Y51.150 E10.03103
G1 X-42.125 Y51.150 E12.91946
G1 X-42.125 Y-2.150 E14.74680
G1 X-40.725 Y-2.150 E14.79479
G1 X-40.725 Y-26.790 E15.63955
G1 X-40.725 Y-27.250 F7800.000
G1 E13.63955 F2400.00000
G92 E0
G1 X-2.175 Y-27.500 F7800.000
G1 X35.975 Y1.500 F7800.000
G1 X36.000 Y1.525 F7800.000
G1 E2.00000 F2400.00000
G1 X36.000 Y47.475 E3.57534 F1500.000
G1 X41.500 Y47.475 E3.76390
G1 X41.500 Y50.525 E3.86848
G1 X-41.500 Y50.525 E6.71406
G1 X-41.500 Y-1.525 E8.49855
G1 X41.500 Y-1.525 E11.34413
G1 X41.500 Y1.525 E11.44871
G1 X36.060 Y1.525 E11.63521
G1 X35.975 Y47.500 F7800.000
G1 X35.975 Y49.000 F7800.000
G1 X39.975 Y49.000 F7800.000
G1 X41.475 Y47.500 F7800.000
G1 X40.875 Y48.100 F7800.000
G1 X40.875 Y49.900 E11.69694 F1500.000
G1 X-40.875 Y49.900 E14.49967
G1 X-40.875 Y48.100 E14.56140
G1 X40.815 Y48.100 E17.36207
G1 X35.400 Y47.500 F7800.000
G1 X35.975 Y0.000 F7800.000
G1 X39.975 Y0.000 F7800.000
G1 X41.475 Y1.500 F7800.000
G1 X40.875 Y0.900 F7800.000
G1 X-40.875 Y0.900 E20.16481 F1500.000
G1 X-40.875 Y-0.900 E20.22653
G1 X40.875 Y-0.900 E23.02927
G1 X40.875 Y0.840 E23.08894
G1 X-3.975 Y2.150 F7800.000
G1 X-3.975 Y46.850 E24.62143 F750.000
G1 X-39.675 Y46.850 E25.84537
G1 X-39.675 Y2.150 E27.37787
G1 X-4.035 Y2.150 E28.59975
G1 X-3.575 Y2.150 F7800.000
G1 X-3.350 Y1.525 F7800.000
G1 X-3.350 Y47.475 E30.17509 F1500.000
G1 X-40.300 Y47.475 E31.44187
G1 X-40.300 Y1.525 E33.01722
G1 X-3.410 Y1.525 E34.28194
G1 X-1.525 Y2.150 F7800.000
G1 X34.175 Y2.150 E35.50588 F750.000
G1 X34.175 Y46.850 E37.03838
G1 X-1.525 Y46.850 E38.26231
G1 X-1.525 Y2.210 E39.79275
G1 X-1.525 Y1.750 F7800.000
G1 X-2.150 Y1.525 F7800.000
G1 X34.800 Y1.525 E41.05954 F1500.000
G1 X34.800 Y47.475 E42.63488
G1 X-2.150 Y47.475 E43.90166
G1 X-2.150 Y1.585 E45.47495
G1 X-2.150 Y-47.475 F7800.000
G1 X-2.150 Y-27.475 E46.16063 F1500.000
G1 X-3.350 Y-27.475 E46.20178
G1 X-3.350 Y-47.475 E46.88746
G1 X-40.300 Y-47.475 E48.15424
G1 X-40.300 Y-27.475 E48.83992
G1 X-41.500 Y-27.475 E48.88107
G1 X-41.500 Y-50.525 E49.67133
G1 X41.500 Y-50.525 E52.51691
G1 X41.500 Y-47.475 E52.62148
G1 X36.000 Y-47.475 E52.81005
G1 X36.000 Y-27.475 E53.49573
G1 X34.800 Y-27.475 E53.53688
G1 X34.800 Y-47.475 E54.22256
G1 X-2.090 Y-47.475 E55.48728
G1 X-40.875 Y-48.100 F7800.000
G1 X-40.875 Y-49.900 E55.54901 F1500.000
G1 X40.875 Y-49.900 E58.35174
G1 X40.875 Y-48.100 E58.41347
G1 X-40.815 Y-48.100 E61.21415
G1 X-39.675 Y-46.850 F7800.000
G1 X-3.975 Y-46.850 E62.43809 F750.000
G1 X-3.975 Y-26.850 E63.12377
G1 X-2.575 Y-26.850 E63.17176
G1 X-2.575 Y-2.150 E64.01858
G1 X-39.675 Y-2.150 E65.29051
G1 X-39.675 Y-46.790 E66.82095
G1 X-39.675 Y-47.250 F7800.000
G1 X-1.525 Y-46.850 F7800.000
G1 X34.175 Y-46.850 E68.04489 F750.000
G1 X34.175 Y-26.850 E68.73057
G1 X35.575 Y-26.850 E68.77857
G1 X35.575 Y-2.150 E69.62538
G1 X-1.525 Y-2.150 E70.89732
G1 X-1.525 Y-46.790 E72.42775
G1 X-1.525 Y-47.250 F7800.000
G1 X-2.750 Y-47.787 F7800.000
G1 X-2.750 Y-27.787 E73.88153 F600.000
G1 X-2.050 Y-27.162 F7800.000
G1 X-2.050 Y-1.838 E75.72236 F600.000
G1 X-2.750 Y1.213 F7800.000
G1 X-2.750 Y47.787 E79.10781 F600.000
G1 X-40.497 Y49.217 F7800.000
G1 X-40.192 Y49.522 E79.12263 F600.000
G1 X-39.307 Y49.522 E79.15302
G1 X-40.350 Y48.478 E79.20368
G1 X-39.465 Y48.478 E79.23407
G1 X-38.421 Y49.522 E79.28473
G1 X-37.536 Y49.522 E79.31512
G1 X-38.580 Y48.478 E79.36578
G1 X-37.695 Y48.478 E79.39617
G1 X-36.651 Y49.522 E79.44683
G1 X-35.766 Y49.522 E79.47722
G1 X-36.810 Y48.478 E79.52789
G1 X-35.924 Y48.478 E79.55828
G1 X-34.881 Y49.522 E79.60894
G1 X-33.996 Y49.522 E79.63933
G1 X-35.039 Y48.478 E79.68999
G1 X-34.154 Y48.478 E79.72038
G1 X-33.111 Y49.522 E79.77104
G1 X-32.226 Y49.522 E79.80143
G1 X-33.269 Y48.478 E79.85209
G1 X-32.384 Y48.478 E79.88248
G1 X-31.341 Y49.522 E79.93314
G1 X-30.456 Y49.522 E79.96353
G1 X-31.499 Y48.478 E80.01420
G1 X-30.614 Y48.478 E80.04459
G1 X-29.571 Y49.522 E80.09525
G1 X-28.686 Y49.522 E80.12564
G1 X-29.729 Y48.478 E80.17630
G1 X-28.844 Y48.478 E80.20669
G1 X-27.801 Y49.522 E80.25735
G1 X-26.916 Y49.522 E80.28774
G1 X-27.959 Y48.478 E80.33840
G1 X-27.074 Y48.478 E80.36879
G1 X-26.030 Y49.522 E80.41945
G1 X-25.145 Y49.522 E80.44984
G1 X-26.189 Y48.478 E80.50051
G1 X-25.304 Y48.478 E80.53090
G1 X-24.260 Y49.522 E80.58156
G1 X-23.375 Y49.522 E80.61195
G1 X-24.419 Y48.478 E80.66261
G1 X-23.533 Y48.478 E80.69300
G1 X-22.490 Y49.522 E80.74366
G1 X-21.605 Y49.522 E80.77405
G1 X-22.648 Y48.478 E80.82471
G1 X-21.763 Y48.478 E80.85510
G1 X-20.720 Y49.522 E80.90576
G1 X-19.835 Y49.522 E80.93615
G1 X-20.878 Y48.478 E80.98682
G1 X-19.993 Y48.478 E81.01721
G1 X-18.950 Y49.522 E81.06787
G1 X-18.065 Y49.522 E81.09826
G1 X-19.108 Y48.478 E81.14892
G1 X-18.223 Y48.478 E81.17931
G1 X-17.180 Y49.522 E81.22997
G1 X-16.295 Y49.522 E81.26036
G1 X-17.338 Y48.478 E81.31102
G1 X-16.453 Y48.478 E81.34141
G1 X-15.410 Y49.522 E81.39207
G1 X-14.525 Y49.522 E81.42246
G1 X-15.568 Y48.478 E81.47313
G1 X-14.683 Y48.478 E81.50352
G1 X-13.639 Y49.522 E81.55418
G1 X-12.754 Y49.522 E81.58457
G1 X-13.798 Y48.478 E81.63523
G1 X-12.913 Y48.478 E81.66562
G1 X-11.869 Y49.522 E81.71628
G1 X-10.984 Y49.522 E81.74667
G1 X-12.028 Y48.478 E81.79733
G1 X-11.143 Y48.478 E81.82772
G1 X-10.099 Y49.522 E81.87838
G1 X-9.214 Y49.522 E81.90877
G1 X-10.257 Y48.478 E81.95943
G1 X-9.372 Y48.478 E81.98982
G1 X-8.329 Y49.522 E82.04049
G1 X-7.444 Y49.522 E82.07088
G1 X-8.487 Y48.478 E82.12154
G1 X-7.602 Y48.478 E82.15193
G1 X-6.559 Y49.522 E82.20259
G1 X-5.674 Y49.522 E82.23298
G1 X-6.717 Y48.478 E82.28364
G1 X-5.832 Y48.478 E82.31403
G1 X-4.789 Y49.522 E82.36469
G1 X-3.904 Y49.522 E82.39508
G1 X-4.947 Y48.478 E82.44574
G1 X-4.062 Y48.478 E82.47613
G1 X-3.019 Y49.522 E82.52680
G1 X-2.134 Y49.522 E82.55719
G1 X-3.177 Y48.478 E82.60785
G1 X-2.292 Y48.478 E82.63824
G1 X-1.249 Y49.522 E82.68890
G1 X-0.363 Y49.522 E82.71929
G1 X-1.407 Y48.478 E82.76995
G1 X-0.522 Y48.478 E82.80034
G1 X0.522 Y49.522 E82.85100
G1 X1.407 Y49.522 E82.88139
G1 X0.363 Y48.478 E82.93205
G1 X1.248 Y48.478 E82.96244
G1 X2.292 Y49.522 E83.01310
G1 X3.177 Y49.522 E83.04349
G1 X2.134 Y48.478 E83.09416
G1 X3.019 Y48.478 E83.12455
G1 X4.062 Y49.522 E83.17521
G1 X4.947 Y49.522 E83.20560
G1 X3.904 Y48.478 E83.25626
G1 X4.789 Y48.478 E83.28665
G1 X5.832 Y49.522 E83.33731
G1 X6.717 Y49.522 E83.36770
G1 X5.674 Y48.478 E83.41836
G1 X6.559 Y48.478 E83.44875
G1 X7.602 Y49.522 E83.49941
G1 X8.487 Y49.522 E83.52980
G1 X7.444 Y48.478 E83.58047
G1 X8.329 Y48.478 E83.61086
G1 X9.372 Y49.522 E83.66152
G1 X10.257 Y49.522 E83.69191
G1 X9.214 Y48.478 E83.74257
G1 X10.099 Y48.478 E83.77296
G1 X11.142 Y49.522 E83.82362
G1 X12.028 Y49.522 E83.85401
G1 X10.984 Y48.478 E83.90467
G1 X11.869 Y48.478 E83.93506
G1 X12.913 Y49.522 E83.98572
G1 X13.798 Y49.522 E84.01611
G1 X12.754 Y48.478 E84.06678
G1 X13.639 Y48.478 E84.09717
G1 X14.683 Y49.522 E84.14783
G1 X15.568 Y49.522 E84.17822
G1 X14.525 Y48.478 E84.22888
G1 X15.410 Y48.478 E84.25927
G1 X16.453 Y49.522 E84.30993
G1 X17.338 Y49.522 E84.34032
G1 X16.295 Y48.478 E84.39098
G1 X17.180 Y48.478 E84.42137
G1 X18.223 Y49.522 E84.47203
G1 X19.108 Y49.522 E84.50242
G1 X18.065 Y48.478 E84.55308
G1 X18.950 Y48.478 E84.58347
G1 X19.993 Y49.522 E84.63414
G1 X20.878 Y49.522 E84.66453
G1 X19.835 Y48.478 E84.71519
G1 X20.720 Y48.478 E84.74558
G1 X21.763 Y49.522 E84.79624
G1 X22.648 Y49.522 E84.82663
G1 X21.605 Y48.478 E84.87729
G1 X22.490 Y48.478 E84.90768
G1 X23.533 Y49.522 E84.95834
G1 X24.419 Y49.522 E84.98873
G1 X23.375 Y48.478 E85.03939
G1 X24.260 Y48.478 E85.06978
G1 X25.304 Y49.522 E85.12045
G1 X26.189 Y49.522 E85.15083
G1 X25.145 Y48.478 E85.20150
G1 X26.030 Y48.478 E85.23189
G1 X27.074 Y49.522 E85.28255
G1 X27.959 Y49.522 E85.31294
G1 X26.915 Y48.478 E85.36360
G1 X27.801 Y48.478 E85.39399
G1 X28.844 Y49.522 E85.44465
G1 X29.729 Y49.522 E85.47504
G1 X28.686 Y48.478 E85.52570
G1 X29.571 Y48.478 E85.55609
G1 X30.614 Y49.522 E85.60675
G1 X31.499 Y49.522 E85.63714
G1 X30.456 Y48.478 E85.68781
G1 X31.341 Y48.478 E85.71820
G1 X32.384 Y49.522 E85.76886
G1 X33.269 Y49.522 E85.79925
G1 X32.226 Y48.478 E85.84991
G1 X33.111 Y48.478 E85.88030
G1 X34.154 Y49.522 E85.93096
G1 X35.039 Y49.522 E85.96135
G1 X33.996 Y48.478 E86.01201
G1 X34.881 Y48.478 E86.04240
G1 X35.924 Y49.522 E86.09306
