; generated by Slic3r 1.2.9 on 2016-10-25 at 10:16:58

; external perimeters extrusion width = 0.40mm
; perimeters extrusion width = 0.67mm
; infill extrusion width = 0.67mm
; solid infill extrusion width = 0.67mm
; top infill extrusion width = 0.67mm
; support material extrusion width = 0.40mm

M107
M190 S70 ; set bed temperature
M104 S210 ; set temperature
G28 ; home all axes
G1 Z5 F5000 ; lift nozzle

M109 S210 ; wait for temperature to be reached
G21 ; set units to millimeters
G90 ; use absolute coordinates
M82 ; use absolute distances for extrusion
G92 E0
G1 Z0.350 F7800.000
G1 E-2.00000 F2400.00000
G92 E0
G1 X0.000 Y28.375 F7800.000
G1 E2.00000 F2400.00000
G1 X-31.000 Y28.375 E3.06280 F2340.000
G1 X-33.259 Y27.978 E3.14143
G1 X-35.247 Y26.835 E3.22006
G1 X-36.726 Y25.082 E3.29869
G1 X-37.519 Y22.930 E3.37732
G1 X-37.625 Y21.750 E3.41793
G1 X-37.625 Y11.750 E3.76077
G1 X-36.622 Y-21.948 E4.91657
G1 X-36.158 Y-24.194 E4.99520
G1 X-34.956 Y-26.147 E5.07383
G1 X-33.159 Y-27.573 E5.15246
G1 X-30.000 Y-28.375 E5.26421
G1 X30.000 Y-28.375 E7.32125
G1 X32.259 Y-27.978 E7.39988
G1 X34.247 Y-26.835 E7.47851 F2340.000
G1 X35.726 Y-25.082 E7.55714
G1 X36.622 Y-21.948 E7.66889
G1 X37.625 Y11.750 E8.82470
G1 X37.625 Y21.750 E9.16754
G1 X37.228 Y24.009 E9.24616
G1 X36.085 Y25.997 E9.32479
G1 X34.332 Y27.476 E9.40342
G1 X32.180 Y28.269 E9.48205
G1 X31.000 Y28.375 E9.52266
G1 X0.060 Y28.375 E10.58341
G1 E8.58341 F2400.00000
G92 E0
G1 X-15.792 Y14.819 F7800.000
G1 E2.00000 F2400.00000
G1 X-16.563 Y15.138 E2.02863 F2340.000
G1 X-16.563 Y23.174 E2.30411
G1 X-18.576 Y25.187 E2.40172
G1 X-32.424 Y25.187 E2.87646
G1 X-34.437 Y23.174 E2.97407
G1 X-34.437 Y10.326 E3.41453
G1 X-33.532 Y9.422 E3.45840
G1 X-33.437 Y9.192 E3.46692
G1 X-33.437 Y-23.174 E4.57654
G1 X-31.424 Y-25.187 E4.67415
G1 X-19.576 Y-25.187 E5.08032
G1 X-17.563 Y-23.174 E5.17794
G1 X-17.563 Y-13.138 E5.52198
G1 X-16.792 Y-12.819 E5.55061
G1 X-14.424 Y-15.187 E5.66542
G1 X-2.576 Y-15.187 E6.07159
G1 X-0.259 Y-12.869 E6.18396
G1 X0.259 Y-12.869 E6.20171
G1 X2.576 Y-15.187 E6.31407
G1 X14.424 Y-15.187 E6.72024
G1 X16.792 Y-12.819 E6.83506
G1 X17.563 Y-13.138 E6.86369
G1 X17.563 Y-23.174 E7.20773
G1 X19.576 Y-25.187 E7.30534
G1 X31.424 Y-25.187 E7.71151
G1 X33.437 Y-23.174 E7.80913
G1 X33.437 Y9.192 E8.91875
G1 X33.532 Y9.422 E8.92727
G1 X34.437 Y10.326 E8.97114
G1 X34.437 Y23.174 E9.41159
G1 X32.424 Y25.187 E9.50921
G1 X18.576 Y25.187 E9.98395
G1 X16.563 Y23.174 E10.08156
G1 X16.563 Y15.138 E10.35704
G1 X15.792 Y14.819 E10.38567
G1 X15.424 Y15.187 E10.40351
G1 X1.576 Y15.187 E10.87825
G1 X0.259 Y13.869 E10.94213
G1 X-0.259 Y13.869 E10.95988
G1 X-1.576 Y15.187 E11.02376
G1 X-15.424 Y15.187 E11.49850
G1 X-15.749 Y14.861 E11.51428
G1 X-16.416 Y13.310 F7800.000
G1 X-17.188 Y13.630 E11.54291 F2340.000
G1 X-17.188 Y22.915 E11.86124
G1 X-18.835 Y24.562 E11.94110
G1 X-32.165 Y24.562 E12.39809
G1 X-33.812 Y22.915 E12.47796
G1 X-33.812 Y10.585 E12.90066
G1 X-32.907 Y9.680 E12.94454
G1 X-32.812 Y9.451 E12.95306
G1 X-32.812 Y-22.915 E14.06268
G1 X-31.165 Y-24.562 E14.14254
G1 X-19.835 Y-24.562 E14.53096
G1 X-18.188 Y-22.915 E14.61083
G1 X-18.188 Y9.451 E15.72045
G1 X-18.093 Y9.680 E15.72897
G1 X-17.584 Y10.190 E15.75367
G1 X-16.812 Y9.870 E15.78230
G1 X-16.812 Y0.585 E16.10062
G1 X-15.907 Y-0.320 E16.14449
G1 X-15.812 Y-0.549 E16.15302
G1 X-15.812 Y-12.915 E16.57695
G1 X-14.165 Y-14.562 E16.65682
G1 X-2.835 Y-14.562 E17.04524
G1 X-1.188 Y-12.915 E17.12511
G1 X-1.188 Y-0.549 E17.54904
G1 X-1.093 Y-0.320 E17.55757
G1 X-0.259 Y0.514 E17.59800
G1 X0.259 Y0.514 E17.61575
G1 X1.093 Y-0.320 E17.65619
G1 X1.188 Y-0.549 E17.66471
G1 X1.188 Y-12.915 E18.08865
G1 X2.835 Y-14.562 E18.16852
G1 X14.165 Y-14.562 E18.55694
G1 X15.812 Y-12.915 E18.63680
G1 X15.812 Y-0.549 E19.06074
G1 X15.907 Y-0.320 E19.06926
G1 X16.812 Y0.585 E19.11314
G1 X16.812 Y9.870 E19.43146
G1 X17.584 Y10.190 E19.46009
G1 X18.093 Y9.680 E19.48479
G1 X18.188 Y9.451 E19.49331
G1 X18.188 Y-22.915 E20.60293
G1 X19.835 Y-24.562 E20.68279
G1 X31.165 Y-24.562 E21.07122
G1 X32.812 Y-22.915 E21.15108
G1 X32.812 Y9.451 E22.26070
G1 X32.907 Y9.680 E22.26922
G1 X33.812 Y10.585 E22.31309
G1 X33.812 Y22.915 E22.73580
G1 X32.165 Y24.562 E22.81567
G1 X18.835 Y24.562 E23.27266
G1 X17.188 Y22.915 E23.35252
G1 X17.188 Y13.630 E23.67085
G1 X16.416 Y13.310 E23.69948
G1 X15.165 Y14.562 E23.76017
G1 X1.835 Y14.562 E24.21716
G1 X0.259 Y12.986 E24.29359
G1 X-0.259 Y12.986 E24.31133
G1 X-1.835 Y14.562 E24.38777
G1 X-15.165 Y14.562 E24.84476
G1 X-16.374 Y13.353 E24.90339
G1 E22.90339 F2400.00000
G92 E0
G1 X-2.586 Y18.750 F7800.000
G1 X13.000 Y18.750 F7800.000
G1 X16.314 Y14.649 F7800.000
G1 X16.657 Y13.821 F7800.000
G1 X17.813 Y13.310 F7800.000
G1 E2.00000 F2400.00000
G1 X17.813 Y10.844 E2.08455 F2340.000
G1 X18.718 Y9.939 E2.12842
G1 X18.813 Y9.710 E2.13695
G1 X18.813 Y-22.656 E3.24656
G1 X20.094 Y-23.937 E3.30868
G1 X30.906 Y-23.937 E3.67936
G1 X32.187 Y-22.656 E3.74147
G1 X32.187 Y9.710 E4.85109 F2340.000
G1 X32.282 Y9.939 E4.85961
G1 X33.187 Y10.844 E4.90349
G1 X33.187 Y22.656 E5.30844
G1 X31.906 Y23.937 E5.37056
G1 X19.094 Y23.937 E5.80980
G1 X17.813 Y22.656 E5.87192
G1 X17.813 Y13.370 E6.19027
G1 X18.438 Y13.310 F7800.000
G1 X18.438 Y11.103 E6.26595 F2340.000
G1 X19.343 Y10.198 E6.30982
G1 X19.438 Y9.968 E6.31834
G1 X19.438 Y-22.397 E7.42796
G1 X20.353 Y-23.312 E7.47233
G1 X30.647 Y-23.312 E7.82526
G1 X31.562 Y-22.397 E7.86963 F2340.000
G1 X31.562 Y9.968 E8.97925
G1 X31.657 Y10.198 E8.98777
G1 X32.562 Y11.103 E9.03164
G1 X32.562 Y22.397 E9.41885
G1 X31.647 Y23.312 E9.46322
G1 X19.353 Y23.312 E9.88471
G1 X18.438 Y22.397 E9.92908
G1 X18.438 Y13.370 E10.23856
G1 X19.063 Y13.310 F7800.000
G1 X19.063 Y11.362 E10.30536 F2340.000
G1 X19.612 Y10.813 E10.33199
G1 X19.697 Y10.813 E10.33490
G1 X20.063 Y10.447 E10.35264
G1 X20.063 Y-22.138 E11.46978
G1 X20.612 Y-22.687 E11.49641
G1 X30.388 Y-22.687 E11.83158
G1 X30.937 Y-22.138 E11.85821
G1 X30.937 Y10.447 E12.97535 F2340.000
G1 X31.303 Y10.813 E12.99309
G1 X31.388 Y10.813 E12.99600
G1 X31.937 Y11.362 E13.02262
G1 X31.937 Y22.138 E13.39209
G1 X31.388 Y22.687 E13.41871
G1 X19.612 Y22.687 E13.82245
G1 X19.063 Y22.138 E13.84908
G1 X19.063 Y13.370 E14.14968
G1 E12.14968 F2400.00000
G92 E0
G1 X20.688 Y11.072 F7800.000
G1 E2.00000 F2400.00000
G1 X20.688 Y-21.879 E3.12969 F2340.000
G1 X20.871 Y-22.062 E3.13856
G1 X30.129 Y-22.062 E3.45599
G1 X30.312 Y-21.879 E3.46487
G1 X30.312 Y11.072 E4.59456
G1 X30.678 Y11.438 E4.61231
G1 X31.129 Y11.438 E4.62776
G1 X31.312 Y11.621 E4.63664
G1 X31.312 Y21.879 E4.98835
G1 X31.129 Y22.062 E4.99723
G1 X19.871 Y22.062 E5.38322
G1 X19.688 Y21.879 E5.39210
G1 X19.688 Y11.621 E5.74381
G1 X19.871 Y11.438 E5.75269
G1 X20.322 Y11.438 E5.76815
G1 X20.645 Y11.114 E5.78384
G1 E3.78384 F2400.00000
G92 E0
G1 X19.000 Y11.728 F7800.000
G1 X19.000 Y11.728 F7800.000
G1 X17.001 Y11.668 F7800.000
G1 X16.187 Y11.072 F7800.000
G1 E2.00000 F2400.00000
G1 X16.187 Y12.656 E2.05432 F2340.000
G1 X14.906 Y13.937 E2.11644
G1 X2.094 Y13.937 E2.55568
G1 X0.813 Y12.656 E2.61780
G1 X0.813 Y0.844 E3.02276
G1 X1.718 Y-0.061 E3.06663
G1 X1.813 Y-0.290 E3.07515
G1 X1.813 Y-12.656 E3.49909
G1 X3.094 Y-13.937 E3.56121
G1 X13.906 Y-13.937 E3.93188
G1 X15.187 Y-12.656 E3.99400
G1 X15.187 Y-0.290 E4.41794 F2340.000
G1 X15.282 Y-0.061 E4.42646
G1 X16.187 Y0.844 E4.47033
G1 X16.187 Y11.012 E4.81891
G1 X15.562 Y11.072 F7800.000
G1 X15.562 Y12.397 E4.86436 F2340.000
G1 X14.647 Y13.312 E4.90873
G1 X2.353 Y13.312 E5.33022
G1 X1.438 Y12.397 E5.37459
G1 X1.438 Y1.103 E5.76180
G1 X2.343 Y0.198 E5.80567
G1 X2.438 Y-0.032 E5.81420
G1 X2.438 Y-12.397 E6.23813
G1 X3.353 Y-13.312 E6.28250
G1 X13.647 Y-13.312 E6.63543
G1 X14.562 Y-12.397 E6.67980 F2340.000
G1 X14.562 Y-0.032 E7.10374
G1 X14.657 Y0.198 E7.11226
G1 X15.562 Y1.103 E7.15613
G1 X15.562 Y11.012 E7.49584
G1 X14.937 Y11.072 F7800.000
G1 X14.937 Y12.138 E7.53241 F2340.000
G1 X14.388 Y12.687 E7.55903
G1 X2.612 Y12.687 E7.96278
G1 X2.063 Y12.138 E7.98940
G1 X2.063 Y1.362 E8.35886
G1 X2.612 Y0.813 E8.38549
G1 X2.697 Y0.813 E8.38840
G1 X3.063 Y0.447 E8.40614
G1 X3.063 Y-12.138 E8.83760
G1 X3.612 Y-12.687 E8.86423
G1 X13.388 Y-12.687 E9.19940
G1 X13.937 Y-12.138 E9.22603
G1 X13.937 Y0.447 E9.65749 F2340.000
G1 X14.303 Y0.813 E9.67523
G1 X14.388 Y0.813 E9.67814
G1 X14.937 Y1.362 E9.70477
G1 X14.937 Y11.012 E10.03560
G1 E8.03560 F2400.00000
G92 E0
G1 X13.312 Y1.072 F7800.000
G1 E2.00000 F2400.00000
G1 X13.678 Y1.438 E2.01775 F2340.000
G1 X14.129 Y1.438 E2.03321
G1 X14.312 Y1.621 E2.04208
G1 X14.312 Y11.879 E2.39380
G1 X14.129 Y12.062 E2.40267
G1 X2.871 Y12.062 E2.78867
G1 X2.688 Y11.879 E2.79754
G1 X2.688 Y1.621 E3.14926
G1 X2.871 Y1.438 E3.15813
G1 X3.322 Y1.438 E3.17359
G1 X3.688 Y1.072 E3.19134
G1 X3.688 Y-11.879 E3.63535
G1 X3.871 Y-12.062 E3.64422
G1 X13.129 Y-12.062 E3.96165
G1 X13.312 Y-11.879 E3.97052
G1 X13.312 Y1.012 E4.41248
G1 E2.41248 F2400.00000
G92 E0
G1 X2.001 Y1.695 F7800.000
G1 X2.001 Y1.695 F7800.000
G1 X0.000 Y1.546 F7800.000
G1 X-0.813 Y1.072 F7800.000
G1 E2.00000 F2400.00000
G1 X-0.813 Y12.656 E2.39716 F2340.000
G1 X-2.094 Y13.937 E2.45928
G1 X-14.906 Y13.937 E2.89852
G1 X-16.187 Y12.656 E2.96064
G1 X-16.187 Y0.844 E3.36560
G1 X-15.282 Y-0.061 E3.40947
G1 X-15.187 Y-0.290 E3.41799
G1 X-15.187 Y-12.656 E3.84193
G1 X-13.906 Y-13.937 E3.90405
G1 X-3.094 Y-13.937 E4.27472
G1 X-1.813 Y-12.656 E4.33684
G1 X-1.813 Y-0.290 E4.76078 F2340.000
G1 X-1.718 Y-0.061 E4.76930
G1 X-0.813 Y0.844 E4.81317
G1 X-0.813 Y1.012 E4.81891
G1 X-1.438 Y1.103 F7800.000
G1 X-1.438 Y12.397 E5.20612 F2340.000
G1 X-2.353 Y13.312 E5.25049
G1 X-14.647 Y13.312 E5.67199
G1 X-15.562 Y12.397 E5.71636
G1 X-15.562 Y1.103 E6.10357
G1 X-14.657 Y0.198 E6.14744
G1 X-14.562 Y-0.032 E6.15596
G1 X-14.562 Y-12.397 E6.57990
G1 X-13.647 Y-13.312 E6.62427
G1 X-3.353 Y-13.312 E6.97719
G1 X-2.438 Y-12.397 E7.02156 F2340.000
G1 X-2.438 Y-0.032 E7.44550
G1 X-2.343 Y0.198 E7.45402
G1 X-1.480 Y1.060 E7.49584
G1 X-2.063 Y1.362 F7800.000
G1 X-2.063 Y12.138 E7.86530 F2340.000
G1 X-2.612 Y12.687 E7.89192
G1 X-14.388 Y12.687 E8.29567
G1 X-14.937 Y12.138 E8.32229
G1 X-14.937 Y1.362 E8.69175
G1 X-14.388 Y0.813 E8.71838
G1 X-14.303 Y0.813 E8.72129
G1 X-13.937 Y0.447 E8.73903
G1 X-13.937 Y-12.138 E9.17049
G1 X-13.388 Y-12.687 E9.19712
G1 X-3.612 Y-12.687 E9.53229
G1 X-3.063 Y-12.138 E9.55892
G1 X-3.063 Y0.447 E9.99037 F2340.000
G1 X-2.697 Y0.813 E10.00812
G1 X-2.612 Y0.813 E10.01103
G1 X-2.105 Y1.319 E10.03560
G1 X-3.688 Y1.072 F7800.000
G1 X-3.322 Y1.438 E10.05335 F2340.000
G1 X-2.871 Y1.438 E10.06880
G1 X-2.688 Y1.621 E10.07768
G1 X-2.688 Y11.879 E10.42939
G1 X-2.871 Y12.062 E10.43827
G1 X-14.129 Y12.062 E10.82427
G1 X-14.312 Y11.879 E10.83314
G1 X-14.312 Y1.621 E11.18485
G1 X-14.129 Y1.438 E11.19373
G1 X-13.678 Y1.438 E11.20919
G1 X-13.312 Y1.072 E11.22693
G1 X-13.312 Y-11.879 E11.67094
G1 X-13.129 Y-12.062 E11.67982
G1 X-3.871 Y-12.062 E11.99725
G1 X-3.688 Y-11.879 E12.00612
G1 X-3.688 Y1.012 E12.44807
G1 E10.44807 F2400.00000
G92 E0
G1 X-14.999 Y1.695 F7800.000
G1 X-14.999 Y1.695 F7800.000
G1 X-17.148 Y1.535 F7800.000
G1 X-18.813 Y1.072 F7800.000
G1 E2.00000 F2400.00000
G1 X-18.813 Y9.710 E2.29615 F2340.000
G1 X-18.718 Y9.939 E2.30467
G1 X-17.813 Y10.844 E2.34854
G1 X-17.813 Y22.656 E2.75350
G1 X-19.094 Y23.937 E2.81562
G1 X-31.906 Y23.937 E3.25486
G1 X-33.187 Y22.656 E3.31698
G1 X-33.187 Y10.844 E3.72194
G1 X-32.282 Y9.939 E3.76581
G1 X-32.187 Y9.710 E3.77433
G1 X-32.187 Y-22.656 E4.88395
G1 X-30.906 Y-23.937 E4.94607
G1 X-20.094 Y-23.937 E5.31674
G1 X-18.813 Y-22.656 E5.37886
G1 X-18.813 Y1.012 E6.19027 F2340.000
G1 X-19.438 Y1.072 F7800.000
G1 X-19.438 Y9.968 E6.49529 F2340.000
G1 X-19.343 Y10.198 E6.50382
G1 X-18.438 Y11.103 E6.54769
G1 X-18.438 Y22.397 E6.93490
G1 X-19.353 Y23.312 E6.97927
G1 X-31.647 Y23.312 E7.40076
G1 X-32.562 Y22.397 E7.44513
G1 X-32.562 Y11.103 E7.83234
G1 X-31.657 Y10.198 E7.87621
G1 X-31.562 Y9.968 E7.88474
G1 X-31.562 Y-22.397 E8.99435
G1 X-30.647 Y-23.312 E9.03872
G1 X-20.353 Y-23.312 E9.39165
G1 X-19.438 Y-22.397 E9.43602 F2340.000
G1 X-19.438 Y1.012 E10.23856
G1 X-20.063 Y1.072 F7800.000
G1 X-20.063 Y10.447 E10.55998 F2340.000
G1 X-19.697 Y10.813 E10.57772
G1 X-19.612 Y10.813 E10.58063
G1 X-19.063 Y11.362 E10.60726
G1 X-19.063 Y22.138 E10.97672
G1 X-19.612 Y22.687 E11.00334
G1 X-31.388 Y22.687 E11.40709
G1 X-31.937 Y22.138 E11.43371
G1 X-31.937 Y11.362 E11.80317
G1 X-31.388 Y10.813 E11.82979
G1 X-31.303 Y10.813 E11.83270
G1 X-30.937 Y10.447 E11.85045
G1 X-30.937 Y-22.138 E12.96759
G1 X-30.388 Y-22.687 E12.99421
G1 X-20.612 Y-22.687 E13.32939
G1 X-20.063 Y-22.138 E13.35601
G1 X-20.063 Y1.012 E14.14968 F2340.000
G1 E12.14968 F2400.00000
G92 E0
G1 X-20.688 Y11.072 F7800.000
G1 E2.00000 F2400.00000
G1 X-20.322 Y11.438 E2.01775 F2340.000
G1 X-19.871 Y11.438 E2.03321
G1 X-19.688 Y11.621 E2.04208
G1 X-19.688 Y21.879 E2.39380
G1 X-19.871 Y22.062 E2.40267
G1 X-31.129 Y22.062 E2.78867
G1 X-31.312 Y21.879 E2.79754
G1 X-31.312 Y11.621 E3.14926
G1 X-31.129 Y11.438 E3.15813
G1 X-30.678 Y11.438 E3.17359
G1 X-30.312 Y11.072 E3.19134
G1 X-30.312 Y-21.879 E4.32103
G1 X-30.129 Y-22.062 E4.32990
G1 X-20.871 Y-22.062 E4.64733
G1 X-20.688 Y-21.879 E4.65620
G1 X-20.688 Y11.012 E5.78384
G1 E3.78384 F2400.00000
G92 E0
G1 X-12.650 Y2.100 F7800.000
G1 E2.00000 F2400.00000
G1 X-12.650 Y-11.400 E2.46283 F780.000
G1 X-4.350 Y-11.400 E2.74739
G1 X-4.350 Y2.100 E3.21023
G1 X-3.350 Y2.100 E3.24451
G1 X-3.350 Y11.400 E3.56335
G1 X-13.650 Y11.400 E3.91648
G1 X-13.650 Y2.100 E4.23532
G1 X-12.710 Y2.100 E4.26754
G1 X-12.250 Y2.100 F7800.000
G1 X-12.025 Y2.725 F7800.000
G1 X-12.025 Y-10.775 E4.73038 F1560.000
G1 X-4.975 Y-10.775 E4.97209
G1 X-4.975 Y2.725 E5.43492
G1 X-3.975 Y2.725 E5.46921
G1 X-3.975 Y10.775 E5.74520
G1 X-13.025 Y10.775 E6.05548
G1 X-13.025 Y2.725 E6.33147
G1 X-12.085 Y2.725 E6.36370
G1 X-12.000 Y2.750 F7800.000
G1 X-8.500 Y-1.050 F7800.000
G1 X-5.205 Y-7.148 F7800.000
G1 X-5.205 Y-7.352 F7800.000
G1 X-5.875 Y-9.855 F7800.000
G1 X-5.878 Y-9.308 F7800.000
G1 X-6.364 Y-10.150 E6.39706 F585.000
G1 X-5.600 Y-10.150 E6.42327
G1 X-5.600 Y-9.382 E6.44960
G1 X-5.820 Y-9.323 E6.45741
G1 X-9.684 Y-9.300 F7800.000
G1 X-7.316 Y-9.300 E6.53856 F585.000
G1 X-7.196 Y-9.092 E6.54680
G1 X-6.133 Y-7.250 E6.61972
G1 X-7.316 Y-5.200 E6.70087
G1 X-9.684 Y-5.200 E6.78203
G1 X-10.867 Y-7.250 E6.86318
G1 X-9.714 Y-9.248 E6.94228
G1 X-9.614 Y-9.694 F7800.000
G1 X-10.044 Y-9.925 F7800.000
G1 X-6.956 Y-9.925 E7.04817 F585.000
G1 X-6.655 Y-9.404 E7.06878
G1 X-5.411 Y-7.250 E7.15407
G1 X-6.956 Y-4.575 E7.25996
G1 X-10.044 Y-4.575 E7.36585
G1 X-11.589 Y-7.250 E7.47174
G1 X-10.074 Y-9.873 E7.57558
G1 X-10.636 Y-10.150 F7800.000
G1 X-11.122 Y-9.308 E7.60894 F585.000
G1 X-11.400 Y-9.382 E7.61880
G1 X-11.400 Y-10.150 E7.64514
G1 X-10.696 Y-10.150 E7.66929
G1 X-10.405 Y-3.950 F7800.000
G1 X-6.595 Y-3.950 E7.79992 F1560.000
G1 X-5.878 Y-5.192 E7.84910
G1 X-5.600 Y-5.118 E7.85896
G1 X-5.600 Y3.350 E8.14927
G1 X-4.600 Y3.350 E8.18356
G1 X-4.600 Y5.850 E8.26927
G1 X-4.878 Y5.924 E8.27914
G1 X-6.595 Y2.950 E8.39688
G1 X-10.405 Y2.950 E8.52751
G1 X-12.122 Y5.925 E8.64526
G1 X-12.400 Y5.850 E8.65512
G1 X-12.400 Y3.350 E8.74084
G1 X-11.400 Y3.350 E8.77513
G1 X-11.400 Y-5.118 E9.06544
G1 X-11.122 Y-5.192 E9.07530
G1 X-10.435 Y-4.002 E9.12242
G1 X-6.135 Y2.750 F7800.000
G1 X-4.741 Y6.620 F7800.000
G1 X-5.902 Y9.550 F7800.000
G1 X-6.941 Y9.850 F7800.000
G1 X-6.595 Y9.550 F7800.000
G1 X-4.878 Y6.576 E9.24016 F585.000
G1 X-4.600 Y6.650 E9.25003
G1 X-4.600 Y10.150 E9.37003
G1 X-12.400 Y10.150 E9.63746
G1 X-12.400 Y6.650 E9.75746
G1 X-12.122 Y6.575 E9.76733
G1 X-10.405 Y9.550 E9.88507
G1 X-6.655 Y9.550 E10.01365
G1 X-7.316 Y8.300 F7800.000
G1 X-9.684 Y8.300 E10.09480 F585.000
G1 X-9.828 Y8.051 E10.10467
G1 X-10.867 Y6.250 E10.17596
G1 X-9.684 Y4.200 E10.25711
G1 X-7.316 Y4.200 E10.33827
G1 X-6.133 Y6.250 E10.41942
G1 X-7.286 Y8.248 E10.49852
G1 X-7.386 Y8.694 F7800.000
G1 X-6.956 Y8.925 F7800.000
G1 X-10.044 Y8.925 E10.60441 F585.000
G1 X-10.369 Y8.363 E10.62665
G1 X-11.589 Y6.250 E10.71030
G1 X-10.044 Y3.575 E10.81620
