; generated by Slic3r 1.2.9 on 2016-07-13 at 18:17:31

; external perimeters extrusion width = 0.40mm
; perimeters extrusion width = 0.48mm
; infill extrusion width = 0.48mm
; solid infill extrusion width = 0.48mm
; top infill extrusion width = 0.48mm
; support material extrusion width = 0.40mm

M107
M190 S70 ; set bed temperature
M104 S210 ; set temperature
G28 ; home all axes
G1 Z5 F5000 ; lift nozzle

M109 S210 ; wait for temperature to be reached
G21 ; set units to millimeters
G90 ; use absolute coordinates
M82 ; use absolute distances for extrusion
G92 E0
G1 Z0.350 F7800.000
G1 E-2.00000 F2400.00000
G92 E0
G1 X0.000 Y16.625 F7800.000
G1 E2.00000 F2400.00000
G1 X-38.250 Y16.625 E3.31136 F2340.000
G1 X-40.509 Y16.228 E3.38999
G1 X-42.497 Y15.085 E3.46862
G1 X-43.976 Y13.332 E3.54725
G1 X-44.769 Y11.180 E3.62588
G1 X-44.875 Y10.000 E3.66649
G1 X-44.875 Y-10.000 E4.35217
G1 X-44.478 Y-12.259 E4.43080
G1 X-43.335 Y-14.247 E4.50943
G1 X-41.582 Y-15.726 E4.58805
G1 X-39.430 Y-16.519 E4.66668
G1 X-38.250 Y-16.625 E4.70729
G1 X38.250 Y-16.625 E7.33002
G1 X40.509 Y-16.228 E7.40865
G1 X42.497 Y-15.085 E7.48728 F2340.000
G1 X43.976 Y-13.332 E7.56591
G1 X44.769 Y-11.180 E7.64453
G1 X44.875 Y-10.000 E7.68514
G1 X44.875 Y10.000 E8.37082
G1 X44.478 Y12.259 E8.44945
G1 X43.335 Y14.247 E8.52808
G1 X41.582 Y15.726 E8.60671
G1 X39.430 Y16.519 E8.68534
G1 X38.250 Y16.625 E8.72595
G1 X0.060 Y16.625 E10.03526
G1 E8.03526 F2400.00000
G92 E0
G1 X0.000 Y13.437 F7800.000
G1 E2.00000 F2400.00000
G1 X-39.674 Y13.437 E3.36017 F2340.000
G1 X-41.687 Y11.424 E3.45778
G1 X-41.687 Y1.576 E3.79539
G1 X-40.369 Y0.259 E3.85927
G1 X-40.369 Y-0.259 E3.87702
G1 X-41.687 Y-1.576 E3.94090
G1 X-41.687 Y-11.424 E4.27850
G1 X-39.674 Y-13.437 E4.37611
G1 X39.674 Y-13.437 E7.09645
G1 X41.687 Y-11.424 E7.19407
G1 X41.687 Y-1.576 E7.53167 F2340.000
G1 X40.369 Y-0.259 E7.59555
G1 X40.369 Y0.259 E7.61330
G1 X41.687 Y1.576 E7.67718
G1 X41.687 Y11.424 E8.01478
G1 X39.674 Y13.437 E8.11240
G1 X0.060 Y13.437 E9.47051
G1 X0.000 Y12.812 F7800.000
G1 X-39.415 Y12.812 E10.82180 F2340.000
G1 X-41.062 Y11.165 E10.90167
G1 X-41.062 Y1.835 E11.22152
G1 X-39.486 Y0.259 E11.29796
G1 X-39.486 Y-0.259 E11.31570
G1 X-41.062 Y-1.835 E11.39214
G1 X-41.062 Y-11.165 E11.71199
G1 X-39.415 Y-12.812 E11.79185
G1 X39.415 Y-12.812 E14.49445
G1 X41.062 Y-11.165 E14.57431 F2340.000
G1 X41.062 Y-1.835 E14.89417
G1 X39.486 Y-0.259 E14.97060
G1 X39.486 Y0.259 E14.98835
G1 X41.062 Y1.835 E15.06478
G1 X41.062 Y11.165 E15.38463
G1 X39.415 Y12.812 E15.46450
G1 X0.060 Y12.812 E16.81374
G1 E14.81374 F2400.00000
G92 E0
G1 X39.493 Y11.828 F7800.000
G1 X40.250 Y2.586 F7800.000
G1 X39.735 Y0.929 F7800.000
G1 X39.184 Y0.000 F7800.000
G1 X38.664 Y0.000 F7800.000
G1 X0.000 Y-0.813 F7800.000
G1 E2.00000 F2400.00000
G1 X-39.156 Y-0.813 E3.34242 F2340.000
G1 X-40.437 Y-2.094 E3.40454
G1 X-40.437 Y-10.906 E3.70665
G1 X-39.156 Y-12.187 E3.76876
G1 X39.156 Y-12.187 E6.45361
G1 X40.437 Y-10.906 E6.51573
G1 X40.437 Y-2.094 E6.81783 F2340.000
G1 X39.156 Y-0.813 E6.87995
G1 X0.060 Y-0.813 E8.22032
G1 X0.000 Y-1.438 F7800.000
G1 X-38.897 Y-1.438 E9.55386 F2340.000
G1 X-39.812 Y-2.353 E9.59823
G1 X-39.812 Y-10.647 E9.88259
G1 X-38.897 Y-11.562 E9.92696
G1 X38.897 Y-11.562 E12.59406
G1 X39.812 Y-10.647 E12.63843 F2340.000
G1 X39.812 Y-2.353 E12.92279
G1 X38.897 Y-1.438 E12.96716
G1 X0.060 Y-1.438 E14.29865
G1 X0.000 Y-2.063 F7800.000
G1 X-38.638 Y-2.063 E15.62332 F2340.000
G1 X-39.187 Y-2.612 E15.64994
G1 X-39.187 Y-10.388 E15.91655
G1 X-38.638 Y-10.937 E15.94317
G1 X38.638 Y-10.937 E18.59252
G1 X39.187 Y-10.388 E18.61914
G1 X39.187 Y-2.612 E18.88575 F2340.000
G1 X38.638 Y-2.063 E18.91238
G1 X0.060 Y-2.063 E20.23499
G1 E18.23499 F2400.00000
G92 E0
G1 X38.379 Y-2.688 F7800.000
G1 E2.00000 F2400.00000
G1 X-38.379 Y-2.688 E4.63160 F2340.000
G1 X-38.562 Y-2.871 E4.64047
G1 X-38.562 Y-10.129 E4.88934
G1 X-38.379 Y-10.312 E4.89821
G1 X38.379 Y-10.312 E7.52981
G1 X38.562 Y-10.129 E7.53868
G1 X38.562 Y-2.871 E7.78755
G1 X38.422 Y-2.730 E7.79436
G1 E5.79436 F2400.00000
G92 E0
G1 X38.664 Y-2.000 F7800.000
G1 X38.664 Y-2.000 F7800.000
G1 X38.664 Y0.000 F7800.000
G1 X38.379 Y0.813 F7800.000
G1 E2.00000 F2400.00000
G1 X39.156 Y0.813 E2.02662 F2340.000
G1 X40.437 Y2.094 E2.08874
G1 X40.437 Y10.906 E2.39085 F2340.000
G1 X39.156 Y12.187 E2.45296
G1 X-39.156 Y12.187 E5.13781
G1 X-40.437 Y10.906 E5.19993
G1 X-40.437 Y2.094 E5.50203
G1 X-39.156 Y0.813 E5.56415
G1 X38.319 Y0.813 E8.22032
G1 X38.379 Y1.438 F7800.000
G1 X38.897 Y1.438 E8.23806 F2340.000
G1 X39.812 Y2.353 E8.28243 F2340.000
G1 X39.812 Y10.647 E8.56679
G1 X38.897 Y11.562 E8.61116
G1 X-38.897 Y11.562 E11.27826
G1 X-39.812 Y10.647 E11.32263
G1 X-39.812 Y2.353 E11.60698
G1 X-38.897 Y1.438 E11.65135
G1 X38.319 Y1.438 E14.29865
G1 X38.379 Y2.063 F7800.000
G1 X38.638 Y2.063 E14.30752 F2340.000
G1 X39.187 Y2.612 E14.33414
G1 X39.187 Y10.388 E14.60075 F2340.000
G1 X38.638 Y10.937 E14.62737
G1 X-38.638 Y10.937 E17.27672
G1 X-39.187 Y10.388 E17.30334
G1 X-39.187 Y2.612 E17.56995
G1 X-38.638 Y2.063 E17.59658
G1 X38.319 Y2.063 E20.23499
G1 X38.379 Y2.688 F7800.000
G1 X38.562 Y2.871 E20.24387 F2340.000
G1 X38.562 Y10.129 E20.49273
G1 X38.379 Y10.312 E20.50160
G1 X-38.379 Y10.312 E23.13320
G1 X-38.562 Y10.129 E23.14208
G1 X-38.562 Y2.871 E23.39094
G1 X-38.379 Y2.688 E23.39981
G1 X38.319 Y2.688 E26.02936
G1 E24.02936 F2400.00000
G92 E0
G1 X-30.100 Y-7.684 F7800.000
G1 E2.00000 F2400.00000
G1 X-32.056 Y-8.813 E2.07744 F1170.000
G1 X-35.644 Y-8.813 E2.20044
G1 X-37.900 Y-7.510 E2.28976
G1 X-37.900 Y-9.650 E2.36311
G1 X37.900 Y-9.650 E4.96184
G1 X37.900 Y-7.510 E5.03520
G1 X35.550 Y-8.867 E5.12823
G1 X33.500 Y-7.684 E5.20938
G1 X33.500 Y-5.316 E5.29054
G1 X35.548 Y-4.134 E5.37163
G1 X37.900 Y-5.466 E5.46429
G1 X37.900 Y-3.350 E5.53683
G1 X-37.900 Y-3.350 E8.13556
G1 X-37.900 Y-5.490 E8.20891
G1 X-35.644 Y-4.187 E8.29823
G1 X-32.056 Y-4.187 E8.42123
G1 X-30.100 Y-5.316 E8.49867
G1 X-30.100 Y-7.624 E8.57777
G1 X-29.963 Y-8.059 F7800.000
G1 X-29.475 Y-8.044 F7800.000
G1 X-30.693 Y-8.747 E8.62596 F2340.000
G1 X-30.618 Y-9.025 E8.63583
G1 X34.018 Y-9.025 E10.85181
G1 X34.093 Y-8.747 E10.86167
G1 X32.875 Y-8.044 E10.90987
G1 X32.875 Y-4.956 E11.01576
G1 X34.093 Y-4.253 E11.06396
G1 X34.018 Y-3.975 E11.07382
G1 X-30.618 Y-3.975 E13.28980
G1 X-30.693 Y-4.253 E13.29967
G1 X-29.475 Y-4.956 E13.34786
G1 X-29.475 Y-7.984 E13.45170
G1 X-28.850 Y-8.400 F7800.000
G1 X32.250 Y-8.400 E15.54647 F2340.000
G1 X32.250 Y-4.600 E15.67676
G1 X-28.850 Y-4.600 E17.77153
G1 X-28.850 Y-8.340 E17.89977
G1 X-30.957 Y-8.967 F7800.000
G1 X-31.973 Y-9.231 E17.93574 F780.000
G1 X-35.728 Y-9.231 E18.06448
G1 X-35.941 Y-9.182 E18.07199
G1 X-35.941 Y-9.182 F7800.000
G1 X-37.588 Y-8.741 E18.19590 F780.000
G1 X-37.588 Y-4.259 F7800.000
G1 X-35.941 Y-3.818 E18.31981 F780.000
G1 X-35.941 Y-3.818 F7800.000
G1 X-35.728 Y-3.769 E18.32732 F780.000
G1 X-31.973 Y-3.769 E18.45606
G1 X-30.957 Y-4.033 E18.49203
G1 X-28.167 Y-4.978 F7800.000
G1 X-28.472 Y-5.283 E18.50683 F780.000
G1 X-28.472 Y-6.168 E18.53716
G1 X-27.282 Y-4.978 E18.59485
G1 X-26.398 Y-4.978 E18.62518
G1 X-28.472 Y-7.052 E18.72576
G1 X-28.472 Y-7.936 E18.75609
G1 X-25.514 Y-4.978 E18.89956
G1 X-24.630 Y-4.978 E18.92989
G1 X-27.673 Y-8.022 E19.07752
G1 X-26.789 Y-8.022 E19.10784
G1 X-23.746 Y-4.978 E19.25547
G1 X-22.862 Y-4.978 E19.28580
G1 X-25.905 Y-8.022 E19.43343
G1 X-25.021 Y-8.022 E19.46376
G1 X-21.977 Y-4.978 E19.61139
G1 X-21.093 Y-4.978 E19.64171
G1 X-24.136 Y-8.022 E19.78934
G1 X-23.252 Y-8.022 E19.81967
G1 X-20.209 Y-4.978 E19.96730
G1 X-19.325 Y-4.978 E19.99763
G1 X-22.368 Y-8.022 E20.14526
G1 X-21.484 Y-8.022 E20.17558
G1 X-18.441 Y-4.978 E20.32321
G1 X-17.556 Y-4.978 E20.35354
G1 X-20.600 Y-8.022 E20.50117
G1 X-19.716 Y-8.022 E20.53150
G1 X-16.672 Y-4.978 E20.67913
G1 X-15.788 Y-4.978 E20.70945
G1 X-18.831 Y-8.022 E20.85708
G1 X-17.947 Y-8.022 E20.88741
G1 X-14.904 Y-4.978 E21.03504
G1 X-14.020 Y-4.978 E21.06537
G1 X-17.063 Y-8.022 E21.21300
G1 X-16.179 Y-8.022 E21.24332
G1 X-13.136 Y-4.978 E21.39095
G1 X-12.251 Y-4.978 E21.42128
G1 X-15.295 Y-8.022 E21.56891
G1 X-14.411 Y-8.022 E21.59924
G1 X-11.367 Y-4.978 E21.74687
G1 X-10.483 Y-4.978 E21.77720
G1 X-13.526 Y-8.022 E21.92482
G1 X-12.642 Y-8.022 E21.95515
G1 X-9.599 Y-4.978 E22.10278
G1 X-8.715 Y-4.978 E22.13311
G1 X-11.758 Y-8.022 E22.28074
G1 X-10.874 Y-8.022 E22.31107
G1 X-7.831 Y-4.978 E22.45869
G1 X-6.946 Y-4.978 E22.48902
G1 X-9.990 Y-8.022 E22.63665
G1 X-9.105 Y-8.022 E22.66698
G1 X-6.062 Y-4.978 E22.81461
G1 X-5.178 Y-4.978 E22.84494
G1 X-8.221 Y-8.022 E22.99256
G1 X-7.337 Y-8.022 E23.02289
G1 X-4.294 Y-4.978 E23.17052
G1 X-3.410 Y-4.978 E23.20085
G1 X-6.453 Y-8.022 E23.34848
G1 X-5.569 Y-8.022 E23.37881
G1 X-2.526 Y-4.978 E23.52643
G1 X-1.641 Y-4.978 E23.55676
G1 X-4.685 Y-8.022 E23.70439
G1 X-3.800 Y-8.022 E23.73472
G1 X-0.757 Y-4.978 E23.88235
G1 X0.127 Y-4.978 E23.91268
G1 X-2.916 Y-8.022 E24.06030
G1 X-2.032 Y-8.022 E24.09063
G1 X1.011 Y-4.978 E24.23826
G1 X1.895 Y-4.978 E24.26859
G1 X-1.148 Y-8.022 E24.41622
G1 X-0.264 Y-8.022 E24.44655
G1 X2.780 Y-4.978 E24.59417
G1 X3.664 Y-4.978 E24.62450
G1 X0.620 Y-8.022 E24.77213
G1 X1.505 Y-8.022 E24.80246
G1 X4.548 Y-4.978 E24.95009
G1 X5.432 Y-4.978 E24.98042
G1 X2.389 Y-8.022 E25.12805
G1 X3.273 Y-8.022 E25.15837
G1 X6.316 Y-4.978 E25.30600
G1 X7.200 Y-4.978 E25.33633
G1 X4.157 Y-8.022 E25.48396
G1 X5.041 Y-8.022 E25.51429
G1 X8.085 Y-4.978 E25.66192
G1 X8.969 Y-4.978 E25.69224
G1 X5.925 Y-8.022 E25.83987
G1 X6.810 Y-8.022 E25.87020
G1 X9.853 Y-4.978 E26.01783
G1 X10.737 Y-4.978 E26.04816
G1 X7.694 Y-8.022 E26.19579
G1 X8.578 Y-8.022 E26.22611
G1 X11.621 Y-4.978 E26.37374
G1 X12.505 Y-4.978 E26.40407
G1 X9.462 Y-8.022 E26.55170
G1 X10.346 Y-8.022 E26.58203
G1 X13.390 Y-4.978 E26.72966
G1 X14.274 Y-4.978 E26.75998
G1 X11.231 Y-8.022 E26.90761
G1 X12.115 Y-8.022 E26.93794
G1 X15.158 Y-4.978 E27.08557
G1 X16.042 Y-4.978 E27.11590
G1 X12.999 Y-8.022 E27.26353
G1 X13.883 Y-8.022 E27.29385
G1 X16.926 Y-4.978 E27.44148
G1 X17.811 Y-4.978 E27.47181
G1 X14.767 Y-8.022 E27.61944
G1 X15.651 Y-8.022 E27.64977
G1 X18.695 Y-4.978 E27.79740
G1 X19.579 Y-4.978 E27.82773
G1 X16.536 Y-8.022 E27.97535
G1 X17.420 Y-8.022 E28.00568
G1 X20.463 Y-4.978 E28.15331
G1 X21.347 Y-4.978 E28.18364
G1 X18.304 Y-8.022 E28.33127
G1 X19.188 Y-8.022 E28.36160
G1 X22.231 Y-4.978 E28.50922
G1 X23.116 Y-4.978 E28.53955
G1 X20.072 Y-8.022 E28.68718
G1 X20.956 Y-8.022 E28.71751
G1 X24.000 Y-4.978 E28.86514
G1 X24.884 Y-4.978 E28.89547
G1 X21.841 Y-8.022 E29.04309
G1 X22.725 Y-8.022 E29.07342
G1 X25.768 Y-4.978 E29.22105
G1 X26.652 Y-4.978 E29.25138
G1 X23.609 Y-8.022 E29.39901
G1 X24.493 Y-8.022 E29.42934
G1 X27.536 Y-4.978 E29.57696
G1 X28.421 Y-4.978 E29.60729
G1 X25.377 Y-8.022 E29.75492
G1 X26.261 Y-8.022 E29.78525
G1 X29.305 Y-4.978 E29.93288
G1 X30.189 Y-4.978 E29.96321
G1 X27.146 Y-8.022 E30.11084
G1 X28.030 Y-8.022 E30.14116
G1 X31.073 Y-4.978 E30.28879
G1 X31.872 Y-5.064 E30.31634
G1 X28.914 Y-8.022 E30.45981
G1 X29.798 Y-8.022 E30.49014
G1 X31.872 Y-5.948 E30.59072
G1 X31.872 Y-6.832 E30.62105
G1 X30.682 Y-8.022 E30.67874
G1 X31.567 Y-8.022 E30.70907
G1 X31.872 Y-7.717 E30.72387
G1 X34.357 Y-8.967 F7800.000
G1 X35.521 Y-9.279 E30.76517 F780.000
G1 X35.579 Y-9.279 E30.76719
G1 X35.941 Y-9.182 E30.78002
G1 X35.941 Y-9.182 F7800.000
G1 X37.588 Y-8.741 E30.90393 F780.000
G1 X37.588 Y-4.252 F7800.000
G1 X35.944 Y-3.819 E31.02749 F780.000
G1 X35.944 Y-3.819 F7800.000
G1 X35.576 Y-3.722 E31.04052 F780.000
G1 X35.517 Y-3.722 E31.04255
G1 X34.357 Y-4.033 E31.08372
G1 E29.08372 F2400.00000
G92 E0
G1 X38.664 Y-2.000 F7800.000
G1 X38.664 Y-2.000 F7800.000
G1 X38.664 Y0.000 F7800.000
G1 X38.664 Y2.000 F7800.000
G1 X-30.100 Y5.316 F7800.000
G1 E2.00000 F2400.00000
G1 X-32.056 Y4.187 E2.07744 F1170.000
G1 X-35.644 Y4.187 E2.20044
G1 X-37.900 Y5.490 E2.28976
G1 X-37.900 Y3.350 E2.36311
G1 X37.900 Y3.350 E4.96184
G1 X37.900 Y5.490 E5.03520
G1 X35.550 Y4.133 E5.12823
G1 X33.500 Y5.316 E5.20938
G1 X33.500 Y7.684 E5.29054
G1 X35.548 Y8.866 E5.37163
G1 X37.900 Y7.534 E5.46429
G1 X37.900 Y9.650 E5.53683
G1 X-37.900 Y9.650 E8.13556
G1 X-37.900 Y7.510 E8.20891
G1 X-35.644 Y8.813 E8.29823
G1 X-32.056 Y8.813 E8.42123
G1 X-30.100 Y7.684 E8.49867
G1 X-30.100 Y5.376 E8.57777
G1 X-29.963 Y4.941 F7800.000
G1 X-29.475 Y4.956 F7800.000
G1 X-30.693 Y4.253 E8.62596 F2340.000
G1 X-30.618 Y3.975 E8.63583
G1 X34.018 Y3.975 E10.85181
G1 X34.093 Y4.253 E10.86167
G1 X32.875 Y4.956 E10.90987
G1 X32.875 Y8.044 E11.01576
G1 X34.093 Y8.747 E11.06396
G1 X34.018 Y9.025 E11.07382
G1 X-30.618 Y9.025 E13.28980
G1 X-30.693 Y8.747 E13.29967
G1 X-29.475 Y8.044 E13.34786
G1 X-29.475 Y5.016 E13.45170
G1 X-28.850 Y4.600 F7800.000
G1 X32.250 Y4.600 E15.54647 F2340.000
G1 X32.250 Y8.400 E15.67676
G1 X-28.850 Y8.400 E17.77153
G1 X-28.850 Y4.660 E17.89977
G1 X-30.957 Y4.033 F7800.000
G1 X-31.973 Y3.769 E17.93574 F780.000
G1 X-35.728 Y3.769 E18.06448
G1 X-35.941 Y3.818 E18.07199
G1 X-35.941 Y3.818 F7800.000
G1 X-37.588 Y4.259 E18.19590 F780.000
G1 X-37.588 Y8.741 F7800.000
G1 X-35.941 Y9.182 E18.31981 F780.000
G1 X-35.941 Y9.182 F7800.000
G1 X-35.728 Y9.231 E18.32732 F780.000
G1 X-31.973 Y9.231 E18.45606
G1 X-30.957 Y8.967 E18.49203
G1 X-28.167 Y8.022 F7800.000
G1 X-28.472 Y7.717 E18.50683 F780.000
G1 X-28.472 Y6.832 E18.53716
G1 X-27.282 Y8.022 E18.59485
G1 X-26.398 Y8.022 E18.62518
G1 X-28.472 Y5.948 E18.72576
G1 X-28.472 Y5.064 E18.75609
G1 X-25.514 Y8.022 E18.89956
G1 X-24.630 Y8.022 E18.92989
G1 X-27.673 Y4.978 E19.07752
G1 X-26.789 Y4.978 E19.10784
G1 X-23.746 Y8.022 E19.25547
G1 X-22.862 Y8.022 E19.28580
G1 X-25.905 Y4.978 E19.43343
G1 X-25.021 Y4.978 E19.46376
G1 X-21.977 Y8.022 E19.61139
G1 X-21.093 Y8.022 E19.64171
G1 X-24.136 Y4.978 E19.78934
G1 X-23.252 Y4.978 E19.81967
G1 X-20.209 Y8.022 E19.96730
G1 X-19.325 Y8.022 E19.99763
G1 X-22.368 Y4.978 E20.14526
G1 X-21.484 Y4.978 E20.17558
G1 X-18.441 Y8.022 E20.32321
G1 X-17.556 Y8.022 E20.35354
G1 X-20.600 Y4.978 E20.50117
G1 X-19.716 Y4.978 E20.53150
G1 X-16.672 Y8.022 E20.67913
G1 X-15.788 Y8.022 E20.70945
G1 X-18.831 Y4.978 E20.85708
G1 X-17.947 Y4.978 E20.88741
G1 X-14.904 Y8.022 E21.03504
G1 X-14.020 Y8.022 E21.06537
G1 X-17.063 Y4.978 E21.21300
G1 X-16.179 Y4.978 E21.24332
G1 X-13.136 Y8.022 E21.39095
G1 X-12.251 Y8.022 E21.42128
G1 X-15.295 Y4.978 E21.56891
G1 X-14.411 Y4.978 E21.59924
G1 X-11.367 Y8.022 E21.74687
G1 X-10.483 Y8.022 E21.77720
G1 X-13.526 Y4.978 E21.92482
G1 X-12.642 Y4.978 E21.95515
G1 X-9.599 Y8.022 E22.10278
G1 X-8.715 Y8.022 E22.13311
G1 X-11.758 Y4.978 E22.28074
G1 X-10.874 Y4.978 E22.31107
G1 X-7.831 Y8.022 E22.45869
G1 X-6.946 Y8.022 E22.48902
G1 X-9.990 Y4.978 E22.63665
G1 X-9.105 Y4.978 E22.66698
G1 X-6.062 Y8.022 E22.81461
G1 X-5.178 Y8.022 E22.84494
G1 X-8.221 Y4.978 E22.99256
G1 X-7.337 Y4.978 E23.02289
G1 X-4.294 Y8.022 E23.17052
G1 X-3.410 Y8.022 E23.20085
G1 X-6.453 Y4.978 E23.34848
G1 X-5.569 Y4.978 E23.37881
G1 X-2.526 Y8.022 E23.52643
G1 X-1.641 Y8.022 E23.55676
G1 X-4.685 Y4.978 E23.70439
G1 X-3.800 Y4.978 E23.73472
G1 X-0.757 Y8.022 E23.88235
G1 X0.127 Y8.022 E23.91268
G1 X-2.916 Y4.978 E24.06030
G1 X-2.032 Y4.978 E24.09063
G1 X1.011 Y8.022 E24.23826
G1 X1.895 Y8.022 E24.26859
G1 X-1.148 Y4.978 E24.41622
G1 X-0.264 Y4.978 E24.44655
G1 X2.780 Y8.022 E24.59417
G1 X3.664 Y8.022 E24.62450
G1 X0.620 Y4.978 E24.77213
G1 X1.505 Y4.978 E24.80246
G1 X4.548 Y8.022 E24.95009
G1 X5.432 Y8.022 E24.98042
G1 X2.389 Y4.978 E25.12805
G1 X3.273 Y4.978 E25.15837
G1 X6.316 Y8.022 E25.30600
G1 X7.200 Y8.022 E25.33633
G1 X4.157 Y4.978 E25.48396
G1 X5.041 Y4.978 E25.51429
G1 X8.085 Y8.022 E25.66192
G1 X8.969 Y8.022 E25.69224
G1 X5.925 Y4.978 E25.83987
G1 X6.810 Y4.978 E25.87020
G1 X9.853 Y8.022 E26.01783
G1 X10.737 Y8.022 E26.04816
G1 X7.694 Y4.978 E26.19579
G1 X8.578 Y4.978 E26.22611
G1 X11.621 Y8.022 E26.37374
G1 X12.505 Y8.022 E26.40407
G1 X9.462 Y4.978 E26.55170
G1 X10.346 Y4.978 E26.58203
G1 X13.390 Y8.022 E26.72966
G1 X14.274 Y8.022 E26.75998
G1 X11.231 Y4.978 E26.90761
G1 X12.115 Y4.978 E26.93794
G1 X15.158 Y8.022 E27.08557
