; generated by Slic3r 1.2.9 on 2016-10-23 at 11:02:58

; external perimeters extrusion width = 0.40mm
; perimeters extrusion width = 0.67mm
; infill extrusion width = 0.67mm
; solid infill extrusion width = 0.67mm
; top infill extrusion width = 0.67mm
; support material extrusion width = 0.40mm

M107
M190 S70 ; set bed temperature
M104 S210 ; set temperature
G28 ; home all axes
G1 Z5 F5000 ; lift nozzle

M109 S210 ; wait for temperature to be reached
G21 ; set units to millimeters
G90 ; use absolute coordinates
M82 ; use absolute distances for extrusion
G92 E0
G1 Z0.350 F7800.000
G1 E-2.00000 F2400.00000
G92 E0
G1 X22.396 Y-22.396 F7800.000
G1 E2.00000 F2400.00000
G1 X83.279 Y38.486 E4.95188 F2340.000
G1 X84.595 Y40.364 E5.03051
G1 X85.193 Y42.578 E5.10914
G1 X84.999 Y44.864 E5.18777
G1 X84.038 Y46.946 E5.26640
G1 X83.279 Y47.855 E5.30701
G1 X78.105 Y53.019 E5.55761
G1 X67.101 Y63.027 E6.06756
G1 X44.896 Y81.241 E7.05219
G1 X42.898 Y82.366 E7.13082
G1 X40.635 Y82.743 E7.20944
G1 X38.380 Y82.326 E7.28807
G1 X36.010 Y80.803 E7.38467
G1 X-83.279 Y-38.486 E13.16838
G1 X-84.595 Y-40.364 E13.24701
G1 X-85.193 Y-42.578 E13.32564
G1 X-84.999 Y-44.864 E13.40426
G1 X-84.038 Y-46.946 E13.48289
G1 X-83.279 Y-47.855 E13.52350
G1 X-78.329 Y-52.805 E13.76349
G1 X-67.753 Y-63.063 E14.26864
G1 X-67.258 Y-63.497 E14.29118
G1 X-44.812 Y-81.308 E15.27356
G1 X-42.796 Y-82.401 E15.35219
G1 X-40.528 Y-82.741 E15.43081
G1 X-38.280 Y-82.288 E15.50944
G1 X-36.010 Y-80.803 E15.60244 F2340.000
G1 X22.354 Y-22.439 E18.43221
G1 E16.43221 F2400.00000
G92 E0
G1 X-49.081 Y-69.928 F7800.000
G1 E2.00000 F2400.00000
G1 X-49.081 Y-72.592 E2.09136 F2340.000
G1 X-42.118 Y-79.555 E2.42896
G1 X-39.271 Y-79.555 E2.52657
G1 X82.031 Y41.747 E8.40790
G1 X82.031 Y44.594 E8.50551
G1 X75.068 Y51.557 E8.84311
G1 X72.221 Y51.557 E8.94073
G1 X72.058 Y51.394 E8.94864
G1 X71.286 Y51.714 E8.97727
G1 X71.286 Y54.378 E9.06863
G1 X64.323 Y61.341 E9.40623
G1 X61.476 Y61.341 E9.50384
G1 X60.357 Y60.222 E9.55811
G1 X59.585 Y60.542 E9.58674
G1 X59.585 Y62.405 E9.65064
G1 X52.622 Y69.368 E9.98824
G1 X49.447 Y69.368 E10.09710
G1 X49.081 Y69.735 E10.11485
G1 X49.081 Y72.592 E10.21282
G1 X42.118 Y79.555 E10.55042
G1 X39.271 Y79.555 E10.64804
G1 X-82.031 Y-41.747 E16.52936
G1 X-82.031 Y-44.594 E16.62698
G1 X-75.068 Y-51.557 E16.96458
G1 X-71.893 Y-51.557 E17.07344
G1 X-71.527 Y-51.923 E17.09118
G1 X-71.527 Y-54.781 E17.18916
G1 X-64.564 Y-61.744 E17.52676
G1 X-61.717 Y-61.744 E17.62437
G1 X-60.598 Y-60.625 E17.67864
G1 X-59.826 Y-60.944 E17.70727
G1 X-59.826 Y-62.808 E17.77117
G1 X-52.863 Y-69.771 E18.10877
G1 X-50.016 Y-69.771 E18.20638
G1 X-49.853 Y-69.608 E18.21430
G1 X-49.137 Y-69.905 E18.24087
G1 X-48.456 Y-70.004 F7800.000
G1 X-48.456 Y-72.333 E18.32073 F2340.000
G1 X-41.859 Y-78.930 E18.64059
G1 X-39.530 Y-78.930 E18.72045
G1 X81.406 Y42.006 E24.58403 F2340.000
G1 X81.406 Y44.335 E24.66390
G1 X74.809 Y50.932 E24.98375
G1 X72.480 Y50.932 E25.06362
G1 X-48.414 Y-69.961 E30.92514
G1 X-47.831 Y-70.263 F7800.000
G1 X-47.831 Y-72.075 E30.98726 F2340.000
G1 X-41.600 Y-78.306 E31.28936
G1 X-39.789 Y-78.306 E31.35148
G1 X-39.078 Y-77.595 E31.38594
G1 X80.782 Y42.265 E37.19731 F2340.000
G1 X80.782 Y44.076 E37.25943
G1 X74.551 Y50.307 E37.56153
G1 X72.739 Y50.307 E37.62365
G1 X-47.789 Y-70.220 E43.46743
G1 X-47.206 Y-70.522 F7800.000
G1 X-47.206 Y-71.816 E43.51180 F2340.000
G1 X-41.342 Y-77.681 E43.79615
G1 X-40.047 Y-77.681 E43.84052
G1 X80.157 Y42.523 E49.66861 F2340.000
G1 X80.157 Y43.818 E49.71298
G1 X74.292 Y49.683 E49.99733
G1 X72.998 Y49.683 E50.04170
G1 X-47.164 Y-70.479 E55.86773
G1 X-46.582 Y-70.780 F7800.000
G1 X-46.582 Y-71.557 E55.89435 F2340.000
G1 X-41.083 Y-77.056 E56.16096
G1 X-40.306 Y-77.056 E56.18758
G1 X-39.962 Y-76.711 E56.20429
G1 X79.532 Y42.782 E61.99792 F2340.000
G1 X79.532 Y43.559 E62.02454
G1 X74.033 Y49.058 E62.29115
G1 X73.256 Y49.058 E62.31777
G1 X-46.539 Y-70.738 E68.12605
G1 X-45.957 Y-71.039 F7800.000
G1 X-45.957 Y-71.298 E68.13492 F2340.000
G1 X-40.824 Y-76.431 E68.38378
G1 X-40.565 Y-76.431 E68.39266
G1 X78.907 Y43.041 E74.18524
G1 X78.907 Y43.300 E74.19412
G1 X73.774 Y48.433 E74.44298
G1 X73.515 Y48.433 E74.45185
G1 X-45.914 Y-70.997 E80.24238
G1 E78.24238 F2400.00000
G92 E0
G1 X-46.492 Y-70.602 F7800.000
G1 X-46.492 Y-70.602 F7800.000
G1 X-48.442 Y-68.652 F7800.000
G1 X-49.062 Y-67.934 F7800.000
G1 E2.00000 F2400.00000
G1 X70.661 Y51.790 E7.80479 F2340.000
G1 X70.661 Y54.119 E7.88465
G1 X64.064 Y60.716 E8.20451
G1 X61.735 Y60.716 E8.28437
G1 X-59.201 Y-60.220 E14.14795
G1 X-59.201 Y-62.549 E14.22782
G1 X-52.604 Y-69.146 E14.54767
G1 X-50.275 Y-69.146 E14.62754
G1 X-49.105 Y-67.976 E14.68427 F2340.000
G1 X-49.504 Y-67.492 F7800.000
G1 X70.037 Y52.049 E20.48018 F2340.000
G1 X70.037 Y53.861 E20.54230
G1 X63.806 Y60.091 E20.84441
G1 X61.994 Y60.091 E20.90653
G1 X-58.576 Y-60.479 E26.75236
G1 X-58.576 Y-62.290 E26.81447
G1 X-52.345 Y-68.521 E27.11658
G1 X-50.534 Y-68.521 E27.17870
G1 X-49.823 Y-67.811 E27.21316
G1 X-49.546 Y-67.534 E27.22656 F2340.000
G1 X-49.946 Y-67.050 F7800.000
G1 X69.412 Y52.308 E33.01360 F2340.000
G1 X69.412 Y53.602 E33.05797
G1 X63.547 Y59.467 E33.34233
G1 X62.253 Y59.467 E33.38670
G1 X-57.951 Y-60.737 E39.21478
G1 X-57.951 Y-62.032 E39.25915
G1 X-52.087 Y-67.897 E39.54351
G1 X-50.792 Y-67.897 E39.58788
G1 X-49.988 Y-67.092 E39.62686 F2340.000
G1 X-50.388 Y-66.608 F7800.000
G1 X68.787 Y52.566 E45.40503 F2340.000
G1 X68.787 Y53.343 E45.43165
G1 X63.288 Y58.842 E45.69826
G1 X62.511 Y58.842 E45.72488
G1 X-57.327 Y-60.996 E51.53521
G1 X-57.327 Y-61.773 E51.56184
G1 X-51.828 Y-67.272 E51.82845
G1 X-51.051 Y-67.272 E51.85507
G1 X-50.707 Y-66.927 E51.87178
G1 X-50.430 Y-66.651 E51.88518 F2340.000
G1 X-51.310 Y-66.647 F7800.000
G1 X68.162 Y52.825 E57.67776 F2340.000
G1 X68.162 Y53.084 E57.68664
G1 X63.029 Y58.217 E57.93550
G1 X62.770 Y58.217 E57.94437
G1 X-56.702 Y-61.255 E63.73696
G1 X-56.702 Y-61.514 E63.74583
G1 X-51.569 Y-66.647 E63.99470
G1 X-51.370 Y-66.647 E64.00151
G1 E62.00151 F2400.00000
G92 E0
G1 X-57.237 Y-61.951 F7800.000
G1 X-60.516 Y-61.518 F7800.000
G1 X-59.839 Y-60.171 F7800.000
G1 X-59.614 Y-59.833 F7800.000
G1 X-58.987 Y-59.068 F7800.000
G1 X-59.407 Y-58.550 F7800.000
G1 E2.00000 F2400.00000
G1 X58.960 Y59.817 E7.73902 F2340.000
G1 X58.960 Y62.147 E7.81889
G1 X52.364 Y68.744 E8.13874
G1 X50.034 Y68.744 E8.21861
G1 X-70.902 Y-52.193 E14.08219
G1 X-70.902 Y-54.522 E14.16205
G1 X-64.305 Y-61.119 E14.48191
G1 X-61.976 Y-61.119 E14.56177
G1 X-59.449 Y-58.593 E14.68427 F2340.000
G1 X-59.849 Y-58.108 F7800.000
G1 X58.336 Y60.076 E20.41442 F2340.000
G1 X58.336 Y61.888 E20.47654
G1 X52.105 Y68.119 E20.77864
G1 X50.293 Y68.119 E20.84076
G1 X-70.277 Y-52.451 E26.68659
G1 X-70.277 Y-54.263 E26.74871
G1 X-64.046 Y-60.494 E27.05081
G1 X-62.234 Y-60.494 E27.11293
G1 X-61.524 Y-59.783 E27.14739
G1 X-59.891 Y-58.151 E27.22656 F2340.000
G1 X-60.290 Y-57.666 F7800.000
G1 X57.711 Y60.335 E32.94783 F2340.000
G1 X57.711 Y61.629 E32.99220
G1 X51.846 Y67.494 E33.27656
G1 X50.552 Y67.494 E33.32093
G1 X-69.652 Y-52.710 E39.14901
G1 X-69.652 Y-54.004 E39.19338
G1 X-63.788 Y-59.869 E39.47774
G1 X-62.493 Y-59.869 E39.52211
G1 X-60.333 Y-57.709 E39.62686 F2340.000
G1 X-60.732 Y-57.225 F7800.000
G1 X57.086 Y60.594 E45.33926 F2340.000
G1 X57.086 Y61.370 E45.36588
G1 X51.587 Y66.869 E45.63249
G1 X50.810 Y66.869 E45.65911
G1 X-69.028 Y-52.969 E51.46945
G1 X-69.028 Y-53.746 E51.49607
G1 X-63.529 Y-59.244 E51.76268
G1 X-62.752 Y-59.244 E51.78930
G1 X-62.408 Y-58.900 E51.80601
G1 X-60.775 Y-57.267 E51.88518 F2340.000
G1 E49.88518 F2400.00000
G92 E0
G1 X-63.011 Y-58.620 F7800.000
G1 E2.00000 F2400.00000
G1 X56.461 Y60.852 E7.79259 F2340.000
G1 X56.461 Y61.111 E7.80146
G1 X51.328 Y66.244 E8.05032
G1 X51.069 Y66.244 E8.05920
G1 X-68.403 Y-53.228 E13.85178
G1 X-68.403 Y-53.487 E13.86066
G1 X-63.270 Y-58.620 E14.10952
G1 X-63.071 Y-58.620 E14.11634
G1 E12.11634 F2400.00000
G92 E0
G1 X-68.938 Y-53.924 F7800.000
G1 X-73.526 Y-53.556 F7800.000
G1 X-71.967 Y-51.967 F7800.000
G1 X-71.228 Y-51.123 F7800.000
G1 X-70.929 Y-50.800 F7800.000
G1 X-71.589 Y-50.041 F7800.000
G1 E2.00000 F2400.00000
G1 X48.456 Y70.004 E7.82039 F2340.000
G1 X48.456 Y72.333 E7.90025
G1 X41.859 Y78.930 E8.22011
G1 X39.530 Y78.930 E8.29997
G1 X-81.406 Y-42.006 E14.16355
G1 X-81.406 Y-44.335 E14.24342
G1 X-74.809 Y-50.932 E14.56327
G1 X-72.480 Y-50.932 E14.64314
G1 X-71.631 Y-50.084 E14.68427 F2340.000
G1 X-72.031 Y-49.600 F7800.000
G1 X-72.028 Y-49.597 E14.68441 F2340.000
G1 X47.831 Y70.263 E20.49578 F2340.000
G1 X47.831 Y72.075 E20.55790
G1 X41.600 Y78.305 E20.86001
G1 X39.789 Y78.305 E20.92212
G1 X-80.782 Y-42.265 E26.76795
G1 X-80.782 Y-44.076 E26.83007
G1 X-74.551 Y-50.307 E27.13218
G1 X-72.739 Y-50.307 E27.19430
G1 X-72.073 Y-49.642 E27.22656
G1 X-72.473 Y-49.158 F7800.000
G1 X47.206 Y70.522 E33.02919 F2340.000
G1 X47.206 Y71.816 E33.07356
G1 X41.342 Y77.681 E33.35792
G1 X40.047 Y77.681 E33.40229
G1 X-80.157 Y-42.523 E39.23037
G1 X-80.157 Y-43.818 E39.27474
G1 X-74.292 Y-49.683 E39.55910
G1 X-72.998 Y-49.683 E39.60347
G1 X-72.515 Y-49.200 E39.62686 F2340.000
G1 X-72.915 Y-48.716 F7800.000
G1 X-72.912 Y-48.713 E39.62700 F2340.000
G1 X46.582 Y70.780 E45.42062 F2340.000
G1 X46.582 Y71.557 E45.44725
G1 X41.083 Y77.056 E45.71386
G1 X40.306 Y77.056 E45.74048
G1 X-79.532 Y-42.782 E51.55081
G1 X-79.532 Y-43.559 E51.57743
G1 X-74.033 Y-49.058 E51.84404
G1 X-73.256 Y-49.058 E51.87067
G1 X-72.957 Y-48.758 E51.88518
G1 X-73.515 Y-48.433 F7800.000
G1 X45.957 Y71.039 E57.67776 F2340.000
G1 X45.957 Y71.298 E57.68664
G1 X40.824 Y76.431 E57.93550
G1 X40.565 Y76.431 E57.94437
G1 X-78.907 Y-43.041 E63.73696
G1 X-78.907 Y-43.300 E63.74583
G1 X-73.774 Y-48.433 E63.99470
G1 X-73.575 Y-48.433 E64.00151
G1 E62.00151 F2400.00000
G92 E0
G1 X-38.243 Y-67.044 F7800.000
G1 E2.00000 F2400.00000
G1 X-36.570 Y-68.717 E2.08115 F780.000
G1 X-37.154 Y-70.899 E2.15860
G1 X-39.691 Y-73.436 E2.28159
G1 X-42.207 Y-74.110 E2.37091
G1 X-40.694 Y-75.623 E2.44427
G1 X78.099 Y43.171 E8.20398
G1 X76.603 Y44.667 E8.27652
G1 X75.882 Y42.062 E8.36919
G1 X73.598 Y41.450 E8.45028
G1 X71.924 Y43.124 E8.53143
G1 X72.537 Y45.410 E8.61259
G1 X75.158 Y46.112 E8.70562
G1 X73.645 Y47.625 E8.77897
G1 X-45.149 Y-71.169 E14.53869
G1 X-43.636 Y-72.682 E14.61204
G1 X-42.962 Y-70.165 E14.70136
G1 X-40.425 Y-67.628 E14.82436
G1 X-38.301 Y-67.059 E14.89974
G1 X-37.916 Y-66.814 F7800.000
G1 X-38.057 Y-66.347 F7800.000
G1 X-35.873 Y-68.531 E15.00563 F1560.000
G1 X-36.236 Y-69.889 E15.05383
G1 X-35.987 Y-70.032 E15.06369
G1 X74.913 Y40.867 E20.44066
G1 X74.769 Y41.117 E20.45053
G1 X73.411 Y40.753 E20.49872
G1 X71.227 Y42.937 E20.60461
G1 X71.591 Y44.295 E20.65281
G1 X71.342 Y44.438 E20.66267
G1 X-39.558 Y-66.461 E26.03964
G1 X-39.414 Y-66.711 E26.04950
G1 X-38.115 Y-66.362 E26.09564
G1 X-37.866 Y-65.653 F7800.000
G1 X-35.179 Y-68.341 E26.22594 F1560.000
G1 X73.221 Y40.059 E31.48169
G1 X70.533 Y42.747 E31.61198
G1 X-37.824 Y-65.611 E36.86568
G1 X-37.248 Y-65.786 F7800.000
G1 X70.666 Y42.128 E42.59735 F780.000
G1 X71.150 Y41.644 E42.62306
G1 X-36.764 Y-66.270 E48.35474
G1 X-36.280 Y-66.754 E48.38045
G1 X71.634 Y41.160 E54.11212
G1 X72.118 Y40.676 E54.13783
G1 X-35.796 Y-67.238 E59.86950
G1 X-35.312 Y-67.722 E59.89521
G1 X72.602 Y40.192 E65.62689
G1 X75.111 Y41.148 F7800.000
G1 X76.151 Y41.749 E65.66806 F780.000
G1 X76.193 Y41.790 E65.67009
G1 X76.385 Y42.119 E65.68312
G1 X76.385 Y42.119 F7800.000
G1 X77.241 Y43.588 E65.80668 F780.000
G1 X74.067 Y46.761 F7800.000
G1 X72.590 Y45.909 E65.93059 F780.000
G1 X72.590 Y45.909 F7800.000
G1 X72.266 Y45.722 E65.94342 F780.000
G1 X72.225 Y45.680 E65.94544
G1 X71.622 Y44.637 E65.98673
G1 X-39.757 Y-66.742 F7800.000
G1 X-40.662 Y-67.273 E66.02271 F780.000
G1 X-43.317 Y-69.928 E66.15144
G1 X-43.433 Y-70.114 E66.15896
G1 X-43.433 Y-70.114 F7800.000
G1 X-44.285 Y-71.591 E66.28287 F780.000
G1 X-41.117 Y-74.760 F7800.000
G1 X-39.640 Y-73.907 E66.40678 F780.000
G1 X-39.640 Y-73.907 F7800.000
G1 X-39.454 Y-73.791 E66.41429 F780.000
G1 X-36.799 Y-71.136 E66.54303
G1 X-36.268 Y-70.231 E66.57900
G1 E64.57900 F2400.00000
G92 E0
G1 X-46.492 Y-70.602 F7800.000
G1 X-49.144 Y-69.503 F7800.000
G1 X-49.024 Y-69.336 F7800.000
G1 X-51.025 Y-67.334 F7800.000
G1 X-48.988 Y-57.260 F7800.000
G1 E2.00000 F2400.00000
G1 X-47.314 Y-58.933 E2.08115 F780.000
G1 X-47.899 Y-61.115 E2.15860
G1 X-50.436 Y-63.652 E2.28159
G1 X-52.952 Y-64.326 E2.37091
G1 X-51.439 Y-65.839 E2.44427
G1 X67.354 Y52.955 E8.20398
G1 X65.858 Y54.451 E8.27652
G1 X65.137 Y51.846 E8.36919
G1 X62.853 Y51.234 E8.45028
G1 X61.179 Y52.908 E8.53143
G1 X61.792 Y55.194 E8.61259
G1 X64.413 Y55.896 E8.70562
G1 X62.900 Y57.409 E8.77897
G1 X-55.894 Y-61.385 E14.53869
G1 X-54.381 Y-62.897 E14.61204
G1 X-53.707 Y-60.381 E14.70136
G1 X-51.170 Y-57.844 E14.82436
G1 X-49.046 Y-57.275 E14.89974
G1 X-48.661 Y-57.030 F7800.000
G1 X-48.802 Y-56.563 F7800.000
G1 X-46.618 Y-58.747 E15.00563 F1560.000
G1 X-46.981 Y-60.104 E15.05383
G1 X-46.732 Y-60.248 E15.06369
G1 X64.168 Y50.652 E20.44066
G1 X64.024 Y50.901 E20.45053
G1 X62.666 Y50.537 E20.49872
G1 X60.482 Y52.721 E20.60461
G1 X60.846 Y54.079 E20.65281
G1 X60.597 Y54.223 E20.66267
G1 X-50.303 Y-56.677 E26.03964
G1 X-50.159 Y-56.926 E26.04950
G1 X-48.860 Y-56.578 E26.09564
G1 X-48.611 Y-55.869 F7800.000
G1 X-45.924 Y-58.556 E26.22594 F1560.000
G1 X62.476 Y49.843 E31.48169
G1 X59.788 Y52.531 E31.61198
G1 X-48.569 Y-55.827 E36.86568
G1 X-47.993 Y-56.002 F7800.000
G1 X59.921 Y51.912 E42.59735 F780.000
G1 X60.405 Y51.428 E42.62306
G1 X-47.509 Y-56.486 E48.35474
G1 X-47.025 Y-56.970 E48.38045
G1 X60.889 Y50.944 E54.11212
G1 X61.373 Y50.460 E54.13783
G1 X-46.541 Y-57.454 E59.86950
G1 X-46.057 Y-57.938 E59.89521
G1 X61.857 Y49.976 E65.62689
G1 X64.366 Y50.932 F7800.000
G1 X65.406 Y51.533 E65.66806 F780.000
G1 X65.448 Y51.575 E65.67009
G1 X65.640 Y51.903 E65.68312
G1 X65.640 Y51.903 F7800.000
G1 X66.496 Y53.372 E65.80668 F780.000
G1 X63.322 Y56.546 F7800.000
G1 X61.845 Y55.693 E65.93059 F780.000
G1 X61.845 Y55.693 F7800.000
G1 X61.521 Y55.506 E65.94342 F780.000
G1 X61.480 Y55.464 E65.94544
G1 X60.877 Y54.421 E65.98673
G1 X-50.502 Y-56.958 F7800.000
G1 X-51.407 Y-57.489 E66.02271 F780.000
G1 X-54.062 Y-60.144 E66.15144
G1 X-54.178 Y-60.330 E66.15896
G1 X-54.178 Y-60.330 F7800.000
G1 X-55.030 Y-61.807 E66.28287 F780.000
G1 X-51.861 Y-64.975 F7800.000
G1 X-50.385 Y-64.123 E66.40678 F780.000
G1 X-50.385 Y-64.123 F7800.000
G1 X-50.199 Y-64.007 E66.41429 F780.000
G1 X-47.544 Y-61.352 E66.54303
G1 X-47.013 Y-60.447 E66.57900
G1 E64.57900 F2400.00000
G92 E0
G1 X-57.237 Y-60.818 F7800.000
G1 X-59.839 Y-60.171 F7800.000
G1 X-60.516 Y-61.518 F7800.000
G1 X-62.726 Y-59.307 F7800.000
G1 X-60.689 Y-49.232 F7800.000
G1 E2.00000 F2400.00000
G1 X-59.015 Y-50.906 E2.08115 F780.000
G1 X-59.600 Y-53.088 E2.15860
G1 X-62.137 Y-55.625 E2.28159
G1 X-64.653 Y-56.299 E2.37091
G1 X-63.140 Y-57.812 E2.44427
G1 X55.654 Y60.982 E8.20398
G1 X54.157 Y62.478 E8.27652
G1 X53.436 Y59.873 E8.36919
G1 X51.152 Y59.261 E8.45028
G1 X49.478 Y60.935 E8.53143
G1 X50.091 Y63.221 E8.61259
G1 X52.712 Y63.924 E8.70562
G1 X51.199 Y65.437 E8.77897
G1 X-67.595 Y-53.357 E14.53869
G1 X-66.082 Y-54.870 E14.61204
G1 X-65.408 Y-52.354 E14.70136
G1 X-62.871 Y-49.817 E14.82436
G1 X-60.747 Y-49.248 E14.89974
G1 X-60.362 Y-49.003 F7800.000
G1 X-60.503 Y-48.535 F7800.000
G1 X-58.318 Y-50.719 E15.00563 F1560.000
G1 X-58.682 Y-52.077 E15.05383
G1 X-58.433 Y-52.221 E15.06369
G1 X52.467 Y58.679 E20.44066
G1 X52.323 Y58.928 E20.45053
G1 X50.965 Y58.564 E20.49872
G1 X48.781 Y60.748 E20.60461
G1 X49.145 Y62.106 E20.65281
G1 X48.896 Y62.250 E20.66267
G1 X-62.004 Y-48.650 E26.03964
G1 X-61.860 Y-48.899 E26.04950
G1 X-60.560 Y-48.551 E26.09564
G1 X-60.312 Y-47.842 F7800.000
G1 X-57.625 Y-50.529 E26.22594 F1560.000
G1 X50.775 Y57.871 E31.48169
G1 X48.087 Y60.558 E31.61198
G1 X-60.270 Y-47.799 E36.86568
G1 X-59.694 Y-47.974 F7800.000
G1 X48.220 Y59.939 E42.59735 F780.000
G1 X48.704 Y59.455 E42.62306
G1 X-59.210 Y-48.458 E48.35474
G1 X-58.726 Y-48.943 E48.38045
G1 X49.188 Y58.971 E54.11212
