; generated by Slic3r 1.2.9 on 2016-02-29 at 19:34:49

; external perimeters extrusion width = 0.40mm
; perimeters extrusion width = 0.48mm
; infill extrusion width = 0.48mm
; solid infill extrusion width = 0.48mm
; top infill extrusion width = 0.48mm
; support material extrusion width = 0.40mm

M107
M190 S70 ; set bed temperature
M104 S210 ; set temperature
G28 ; home all axes
G1 Z5 F5000 ; lift nozzle

M109 S210 ; wait for temperature to be reached
G21 ; set units to millimeters
G90 ; use absolute coordinates
M82 ; use absolute distances for extrusion
G92 E0
G1 Z0.350 F7800.000
G1 E-2.00000 F2400.00000
G92 E0
G1 X12.133 Y28.811 F7800.000
G1 E2.00000 F2400.00000
G1 X-0.436 Y34.104 E2.46757 F1800.000
G1 X-3.007 Y34.624 E2.55751
G1 X-33.007 Y34.624 E3.58603
G1 X-35.266 Y34.227 E3.66466
G1 X-37.254 Y33.083 E3.74329
G1 X-38.733 Y31.331 E3.82192
G1 X-39.233 Y30.263 E3.86231
G1 X-43.273 Y19.155 E4.26757
G1 X-43.632 Y17.003 E4.34237
G1 X-43.632 Y-17.001 E5.50816
G1 X-43.264 Y-19.179 E5.58387
G1 X-43.233 Y-19.267 E5.58708
G1 X-39.233 Y-30.265 E5.98831
G1 X-38.088 Y-32.253 E6.06694
G1 X-36.334 Y-33.730 E6.14557
G1 X-34.182 Y-34.521 E6.22420
G1 X-33.007 Y-34.626 E6.26462
G1 X-3.007 Y-34.626 E7.29314
G1 X-0.436 Y-34.107 E7.38309
G1 X31.075 Y-20.834 E8.55533 F1800.000
G1 X32.537 Y-19.985 E8.61328
G1 X36.059 Y-17.282 E8.76549
G1 X37.282 Y-16.059 E8.82478
G1 X39.985 Y-12.537 E8.97700
G1 X40.849 Y-11.039 E9.03629
G1 X42.548 Y-6.937 E9.18850
G1 X42.996 Y-5.267 E9.24779
G1 X43.575 Y-0.865 E9.40001
G1 X43.575 Y0.865 E9.45930
G1 X42.996 Y5.266 E9.61151
G1 X42.548 Y6.937 E9.67080
G1 X40.849 Y11.039 E9.82302
G1 X39.985 Y12.536 E9.88231
G1 X37.282 Y16.059 E10.03452
G1 X36.059 Y17.282 E10.09382
G1 X32.537 Y19.984 E10.24603
G1 X31.075 Y20.834 E10.30399
G1 X12.189 Y28.788 E11.00657
G1 E9.00657 F2400.00000
G92 E0
G1 X10.890 Y25.865 F7800.000
G1 E2.00000 F2400.00000
G1 X-1.988 Y31.299 E2.47922 F1800.000
G1 X-2.663 Y31.436 E2.50282
G1 X-34.091 Y31.436 E3.58031
G1 X-35.867 Y30.192 E3.65463
G1 X-40.350 Y17.850 E4.10483
G1 X-40.444 Y17.287 E4.12437
G1 X-40.444 Y-17.301 E5.31020
G1 X-40.340 Y-17.892 E5.33076
G1 X-35.867 Y-30.195 E5.77957
G1 X-34.091 Y-31.438 E5.85389
G1 X-2.663 Y-31.438 E6.93138
G1 X-1.988 Y-31.302 E6.95498
G1 X25.727 Y-19.599 E7.98640 F1800.000
G1 X30.028 Y-17.818 E8.14600
G1 X30.417 Y-17.593 E8.16143
G1 X34.297 Y-14.616 E8.32907
G1 X34.615 Y-14.297 E8.34452
G1 X37.592 Y-10.417 E8.51218
G1 X37.818 Y-10.027 E8.52763
G1 X39.689 Y-5.509 E8.69529
G1 X39.806 Y-5.074 E8.71074
G1 X40.444 Y-0.225 E8.87839
G1 X40.444 Y0.225 E8.89385
G1 X39.806 Y5.074 E9.06150
G1 X39.689 Y5.509 E9.07695
G1 X37.818 Y10.027 E9.24460
G1 X37.592 Y10.417 E9.26005
G1 X34.615 Y14.297 E9.42771
G1 X34.297 Y14.615 E9.44316
G1 X30.417 Y17.592 E9.61080
G1 X30.028 Y17.817 E9.62623
G1 X25.732 Y19.597 E9.78564
G1 X10.946 Y25.842 E10.33594
G1 X10.647 Y25.289 F7800.000
G1 X-2.173 Y30.699 E10.81301 F1800.000
G1 X-2.726 Y30.811 E10.83232
G1 X-33.894 Y30.811 E11.90091
G1 X-35.347 Y29.793 E11.96172
G1 X-39.742 Y17.696 E12.40300
G1 X-39.819 Y17.236 E12.41898
G1 X-39.819 Y-17.247 E13.60118
G1 X-39.734 Y-17.730 E13.61800
G1 X-35.347 Y-29.796 E14.05817
G1 X-33.894 Y-30.813 E14.11898
G1 X-2.726 Y-30.813 E15.18756
G1 X-2.174 Y-30.702 E15.20687 F1800.000
G1 X25.486 Y-19.023 E16.23622
G1 X29.751 Y-17.256 E16.39447
G1 X30.069 Y-17.072 E16.40710
G1 X33.884 Y-14.145 E16.57194
G1 X34.145 Y-13.884 E16.58458
G1 X37.072 Y-10.069 E16.74943
G1 X37.256 Y-9.750 E16.76207
G1 X39.096 Y-5.308 E16.92692
G1 X39.192 Y-4.952 E16.93956
G1 X39.819 Y-0.184 E17.10441
G1 X39.819 Y0.184 E17.11705
G1 X39.192 Y4.951 E17.28190
G1 X39.096 Y5.307 E17.29453
G1 X37.256 Y9.750 E17.45938
G1 X37.072 Y10.069 E17.47202
G1 X34.145 Y13.884 E17.63687
G1 X33.884 Y14.145 E17.64952
G1 X30.069 Y17.071 E17.81435
G1 X29.751 Y17.256 E17.82698
G1 X25.490 Y19.021 E17.98509
G1 X10.703 Y25.266 E18.53542
G1 X10.404 Y24.714 F7800.000
G1 X-2.359 Y30.099 E19.01034 F1800.000
G1 X-2.788 Y30.186 E19.02536
G1 X-33.697 Y30.186 E20.08504
G1 X-34.827 Y29.394 E20.13234
G1 X-39.135 Y17.542 E20.56471
G1 X-39.194 Y17.184 E20.57714
G1 X-39.194 Y-17.192 E21.75569
G1 X-39.128 Y-17.568 E21.76877
G1 X-34.827 Y-29.397 E22.20030
G1 X-33.697 Y-30.189 E22.24759
G1 X-2.788 Y-30.189 E23.30728
G1 X-2.359 Y-30.102 E23.32230
G1 X25.245 Y-18.446 E24.34956 F1800.000
G1 X29.473 Y-16.694 E24.50648
G1 X29.721 Y-16.551 E24.51630
G1 X33.471 Y-13.674 E24.67833
G1 X33.674 Y-13.471 E24.68817
G1 X36.551 Y-9.721 E24.85021
G1 X36.694 Y-9.473 E24.86004
G1 X38.503 Y-5.106 E25.02208
G1 X38.577 Y-4.829 E25.03191
G1 X39.194 Y-0.143 E25.19396
G1 X39.194 Y0.143 E25.20379
G1 X38.577 Y4.829 E25.36583
G1 X38.503 Y5.106 E25.37566
G1 X36.694 Y9.473 E25.53770
G1 X36.551 Y9.721 E25.54753
G1 X33.674 Y13.471 E25.70957
G1 X33.471 Y13.674 E25.71940
G1 X29.721 Y16.551 E25.88144
G1 X29.473 Y16.694 E25.89125
G1 X25.248 Y18.444 E26.04807
G1 X10.460 Y24.690 E26.59843
G1 X10.161 Y24.138 F7800.000
G1 X-2.544 Y29.499 E27.07121 F1800.000
G1 X-2.851 Y29.561 E27.08194
G1 X-33.500 Y29.561 E28.13271
G1 X-34.307 Y28.996 E28.16650
G1 X-38.527 Y17.388 E28.58995
G1 X-38.569 Y17.132 E28.59883
G1 X-38.569 Y-17.138 E29.77373
G1 X-38.522 Y-17.406 E29.78307
G1 X-34.307 Y-28.998 E30.20596
G1 X-33.500 Y-29.564 E30.23975
G1 X-2.851 Y-29.564 E31.29053
G1 X-2.544 Y-29.502 E31.30125 F1800.000
G1 X25.004 Y-17.870 E32.32644
G1 X29.196 Y-16.133 E32.48203
G1 X29.373 Y-16.031 E32.48904
G1 X33.058 Y-13.203 E32.64827
G1 X33.203 Y-13.058 E32.65529
G1 X36.030 Y-9.374 E32.81453
G1 X36.133 Y-9.196 E32.82155
G1 X37.910 Y-4.905 E32.98078
G1 X37.963 Y-4.707 E32.98780
G1 X38.569 Y-0.103 E33.14704
G1 X38.569 Y0.102 E33.15406
G1 X37.963 Y4.707 E33.31329
G1 X37.910 Y4.905 E33.32031
G1 X36.133 Y9.196 E33.47955
G1 X36.030 Y9.373 E33.48657
G1 X33.203 Y13.058 E33.64580
G1 X33.058 Y13.203 E33.65283
G1 X29.373 Y16.030 E33.81205
G1 X29.196 Y16.132 E33.81907
G1 X25.006 Y17.868 E33.97458
G1 X10.217 Y24.115 E34.52497
G1 X9.919 Y23.562 F7800.000
G1 X-2.729 Y28.899 E34.99561 F1800.000
G1 X-2.913 Y28.936 E35.00204
G1 X-33.303 Y28.936 E36.04392
G1 X-33.787 Y28.597 E36.06419
G1 X-37.919 Y17.234 E36.47872
G1 X-37.945 Y17.080 E36.48405
G1 X-37.945 Y-17.083 E37.65531
G1 X-37.916 Y-17.244 E37.66092
G1 X-33.787 Y-28.600 E38.07516
G1 X-33.303 Y-28.939 E38.09543
G1 X-2.913 Y-28.939 E39.13731
G1 X-2.729 Y-28.902 E39.14375
G1 X24.762 Y-17.293 E40.16686 F1800.000
G1 X28.919 Y-15.571 E40.32111
G1 X29.026 Y-15.510 E40.32532
G1 X32.645 Y-12.732 E40.48174
G1 X32.732 Y-12.645 E40.48595
G1 X35.510 Y-9.026 E40.64238
G1 X35.571 Y-8.919 E40.64659
G1 X37.317 Y-4.704 E40.80302
G1 X37.349 Y-4.585 E40.80723
G1 X37.945 Y-0.062 E40.96366
G1 X37.945 Y0.061 E40.96787
G1 X37.349 Y4.585 E41.12429
G1 X37.317 Y4.704 E41.12851
G1 X35.571 Y8.919 E41.28493
G1 X35.510 Y9.025 E41.28914
G1 X32.732 Y12.645 E41.44557
G1 X32.645 Y12.732 E41.44978
G1 X29.026 Y15.509 E41.60621
G1 X28.919 Y15.571 E41.61041
G1 X24.763 Y17.292 E41.76463
G1 X9.974 Y23.539 E42.31505
G1 E40.31505 F2400.00000
G92 E0
G1 X-33.106 Y28.311 F7800.000
G1 E2.00000 F2400.00000
G1 X-33.267 Y28.198 E2.00676 F1800.000
G1 X-37.320 Y17.028 E2.41412
G1 X-37.320 Y-17.029 E3.58173
G1 X-33.267 Y-28.201 E3.98918
G1 X-33.106 Y-28.314 E3.99594
G1 X-2.915 Y-28.301 E5.03102
G1 X24.521 Y-16.717 E6.05205
G1 X28.642 Y-15.010 E6.20496
G1 X32.261 Y-12.233 E6.36136
G1 X35.009 Y-8.642 E6.51637
G1 X36.724 Y-4.503 E6.66999
G1 X37.320 Y-0.021 E6.82500
G1 X36.724 Y4.502 E6.98140
G1 X35.009 Y8.642 E7.13502
G1 X32.261 Y12.232 E7.29003
G1 X28.642 Y15.009 E7.44643
G1 X24.521 Y16.716 E7.59934
G1 X-2.915 Y28.299 E8.62034
G1 X-33.046 Y28.311 E9.65336
G1 X-32.762 Y27.649 F7800.000
G1 X-36.657 Y16.941 E10.04400 F900.000
G1 X-36.657 Y-16.940 E11.20557
G1 X-32.762 Y-27.651 E11.59633
G1 X-3.078 Y-27.651 E12.61403
G1 X24.267 Y-16.105 E13.63166
G1 X28.327 Y-14.423 E13.78234
G1 X31.776 Y-11.776 E13.93139
G1 X34.423 Y-8.327 E14.08044
G1 X36.087 Y-4.311 E14.22950
G1 X36.654 Y-0.000 E14.37855
G1 X36.087 Y4.310 E14.52761
G1 X34.423 Y8.327 E14.67666
G1 X31.776 Y11.776 E14.82571
G1 X28.327 Y14.423 E14.97477
G1 X24.267 Y16.105 E15.12544
G1 X-3.078 Y27.649 E16.14305
G1 X-32.702 Y27.649 E17.15868
G1 X-32.647 Y27.266 F7800.000
G1 X-32.325 Y27.024 F7800.000
G1 X-36.032 Y16.831 E17.53054 F1800.000
G1 X-36.032 Y-16.830 E18.68456
G1 X-32.324 Y-27.027 E19.05654
G1 X-3.204 Y-27.027 E20.05489
G1 X24.026 Y-15.529 E21.06826
G1 X28.012 Y-13.877 E21.21619
G1 X31.331 Y-11.331 E21.35960
G1 X33.877 Y-8.012 E21.50302
G1 X35.478 Y-4.147 E21.64643
G1 X36.024 Y-0.000 E21.78984
G1 X35.478 Y4.147 E21.93325
G1 X33.877 Y8.012 E22.07667
G1 X31.331 Y11.330 E22.22008
G1 X28.012 Y13.877 E22.36349
G1 X24.026 Y15.528 E22.51142
G1 X-3.205 Y27.024 E23.52476
G1 X-32.265 Y27.024 E24.52105
G1 X-31.887 Y26.399 F7800.000
G1 X-35.407 Y16.721 E24.87414 F1800.000
G1 X-35.407 Y-16.720 E26.02060
G1 X-31.887 Y-26.402 E26.37381
G1 X-3.331 Y-26.402 E27.35282
G1 X23.784 Y-14.952 E28.36192
G1 X27.697 Y-13.331 E28.50710
G1 X30.885 Y-10.885 E28.64487
G1 X33.331 Y-7.697 E28.78264
G1 X34.869 Y-3.984 E28.92041
G1 X35.394 Y-0.000 E29.05819
G1 X34.869 Y3.984 E29.19596
G1 X33.331 Y7.697 E29.33373
G1 X30.885 Y10.885 E29.47150
G1 X27.697 Y13.331 E29.60927
G1 X23.785 Y14.952 E29.75445
G1 X-3.331 Y26.399 E30.76353
G1 X-31.827 Y26.399 E31.74048
G1 X15.606 Y1.821 F7800.000
G1 X15.244 Y0.001 E31.80411 F450.000
G1 X15.606 Y-1.819 E31.86775
G1 X16.637 Y-3.363 E31.93138
G1 X18.180 Y-4.394 E31.99501
G1 X18.290 Y-4.416 E31.99885
G1 X20.001 Y-4.756 E32.05864 F450.000
G1 X21.821 Y-4.394 E32.12228
G1 X23.364 Y-3.363 E32.18591
G1 X24.395 Y-1.819 E32.24954
G1 X24.757 Y0.001 E32.31317
G1 X24.395 Y1.821 E32.37680
G1 X23.364 Y3.365 E32.44044
G1 X21.821 Y4.396 E32.50407
G1 X20.001 Y4.758 E32.56770
G1 X18.180 Y4.396 E32.63133
G1 X16.637 Y3.365 E32.69497
G1 X15.639 Y1.871 E32.75654
G1 X15.213 Y1.743 F7800.000
G1 X15.086 Y2.169 F7800.000
G1 X15.017 Y2.065 E32.76080 F450.000
G1 X14.607 Y0.001 E32.83296
G1 X15.017 Y-2.063 E32.90511
G1 X16.186 Y-3.813 E32.97727
G1 X17.936 Y-4.982 E33.04942
G1 X18.168 Y-5.028 E33.05752
G1 X20.001 Y-5.393 E33.12158 F450.000
G1 X22.065 Y-4.982 E33.19373
G1 X23.815 Y-3.813 E33.26589
G1 X24.984 Y-2.063 E33.33804
G1 X25.395 Y0.001 E33.41020
G1 X24.984 Y2.065 E33.48235
G1 X23.815 Y3.815 E33.55451
G1 X22.065 Y4.984 E33.62666
G1 X20.001 Y5.395 E33.69882
G1 X17.936 Y4.984 E33.77097
G1 X16.186 Y3.815 E33.84313
G1 X15.120 Y2.218 E33.90897
G1 X12.526 Y-2.504 F7800.000
G1 X12.526 Y2.500 E34.08053 F450.000
G1 X8.192 Y5.002 E34.25209
G1 X3.858 Y2.500 E34.42365
G1 X3.858 Y-2.504 E34.59522
G1 X8.192 Y-5.006 E34.76678
G1 X12.474 Y-2.534 E34.93628
G1 X12.920 Y-2.435 F7800.000
G1 X13.151 Y-2.865 F7800.000
G1 X13.151 Y2.861 E35.13258 F450.000
G1 X8.192 Y5.724 E35.32888
G1 X3.234 Y2.861 E35.52518
G1 X3.234 Y-2.865 E35.72148
G1 X8.192 Y-5.728 E35.91778
G1 X13.099 Y-2.895 E36.11203
G1 E34.11203 F2400.00000
G92 E0
G1 X-3.066 Y5.002 F7800.000
G1 E2.00000 F2400.00000
G1 X-7.400 Y2.500 E2.17156 F450.000
G1 X-7.400 Y-2.504 E2.34312
G1 X-3.066 Y-5.006 E2.51469
G1 X1.268 Y-2.504 E2.68625
G1 X1.268 Y2.500 E2.85781
G1 X-3.014 Y4.972 E3.02732
G1 X-3.323 Y5.309 F7800.000
G1 X-3.066 Y5.724 F7800.000
G1 X-8.025 Y2.861 E3.22362 F450.000
G1 X-8.025 Y-2.865 E3.41992
G1 X-3.066 Y-5.728 E3.61622
G1 X1.892 Y-2.865 E3.81252
G1 X1.892 Y2.861 E4.00882
G1 X-3.014 Y5.694 E4.20306
G1 E2.20306 F2400.00000
G92 E0
G1 X-21.249 Y2.500 F7800.000
G1 E2.00000 F2400.00000
G1 X-25.583 Y5.002 E2.17156 F450.000
G1 X-29.916 Y2.500 E2.34312
G1 X-29.916 Y-2.504 E2.51469
G1 X-25.583 Y-5.006 E2.68625
G1 X-21.249 Y-2.504 E2.85781
G1 X-21.249 Y2.440 E3.02732
G1 X-21.112 Y2.876 F7800.000
G1 X-20.624 Y2.861 F7800.000
G1 X-25.583 Y5.724 E3.22362 F450.000
G1 X-30.541 Y2.861 E3.41992
G1 X-30.541 Y-2.865 E3.61622
G1 X-25.583 Y-5.728 E3.81252
G1 X-20.624 Y-2.865 E4.00882
G1 X-20.624 Y2.801 E4.20306
G1 X-18.658 Y2.500 F7800.000
G1 X-18.658 Y-2.504 E4.37462 F450.000
G1 X-18.388 Y-2.660 E4.38532
G1 X-14.324 Y-5.006 E4.54618
G1 X-9.991 Y-2.504 E4.71775
G1 X-9.991 Y2.500 E4.88931
G1 X-14.324 Y5.002 E5.06087
G1 X-18.606 Y2.530 E5.23038
G1 X-19.052 Y2.431 F7800.000
G1 X-19.283 Y2.861 F7800.000
G1 X-19.283 Y-2.865 E5.42668 F450.000
G1 X-18.700 Y-3.201 E5.44974
G1 X-14.324 Y-5.728 E5.62298
G1 X-9.366 Y-2.865 E5.81928
G1 X-9.366 Y2.861 E6.01558
G1 X-14.324 Y5.724 E6.21188
G1 X-19.231 Y2.891 E6.40612
G1 X-14.324 Y6.445 F7800.000
G1 X-19.954 Y3.195 E6.62896 F1800.000
G1 X-25.583 Y6.445 E6.85180
G1 X-31.166 Y3.222 E7.07284
G1 X-31.166 Y-3.226 E7.29388
G1 X-25.583 Y-6.449 E7.51492
G1 X-19.954 Y-3.199 E7.73776
G1 X-14.324 Y-6.449 E7.96060
G1 X-8.695 Y-3.199 E8.18345
G1 X-3.066 Y-6.449 E8.40629
G1 X2.563 Y-3.199 E8.62914
G1 X8.192 Y-6.449 E8.85198
G1 X13.776 Y-3.226 E9.07302
G1 X13.776 Y-0.758 E9.15762
G1 X14.114 Y-0.725 E9.16927
G1 X14.429 Y-2.307 E9.22457
G1 X15.736 Y-4.264 E9.30525
G1 X17.693 Y-5.571 E9.38592
G1 X20.001 Y-6.030 E9.46660
G1 X22.309 Y-5.571 E9.54728
G1 X24.265 Y-4.264 E9.62796
G1 X25.573 Y-2.307 E9.70864
G1 X26.032 Y0.001 E9.78931
G1 X25.573 Y2.309 E9.86999
G1 X24.265 Y4.266 E9.95067
G1 X22.309 Y5.573 E10.03135
G1 X20.001 Y6.032 E10.11203
G1 X17.693 Y5.573 E10.19270
G1 X15.736 Y4.266 E10.27338
G1 X14.429 Y2.309 E10.35406
G1 X14.114 Y0.727 E10.40936
G1 X13.776 Y0.760 E10.42101
G1 X13.776 Y3.222 E10.50540
G1 X8.192 Y6.445 E10.72643
G1 X2.563 Y3.195 E10.94928
G1 X-3.066 Y6.445 E11.17213
G1 X-8.695 Y3.195 E11.39497
G1 X-14.273 Y6.415 E11.61576
G1 X-8.695 Y2.834 F7800.000
G1 X-8.695 Y-2.839 E12.02812 F600.000
G1 E10.02812 F2400.00000
G92 E0
G1 X-19.954 Y-2.839 F7800.000
G1 E2.00000 F2400.00000
G1 X-19.954 Y2.835 E2.41237 F600.000
G1 E0.41237 F2400.00000
G92 E0
G1 X2.563 Y2.834 F7800.000
G1 E2.00000 F2400.00000
G1 X2.563 Y-2.839 E2.41236 F600.000
G1 X2.752 Y-3.689 F7800.000
G1 X-19.582 Y-26.023 E3.49853 F600.000
G1 X-18.695 Y-26.023 E3.52902
G1 X3.314 Y-4.014 E4.59941
G1 X3.876 Y-4.338 E4.62173
G1 X-17.809 Y-26.023 E5.67635
G1 X-16.923 Y-26.023 E5.70683
G1 X4.438 Y-4.663 E6.74567
G1 X5.000 Y-4.987 E6.76798
G1 X-16.036 Y-26.023 E7.79104
G1 X-15.150 Y-26.023 E7.82152
G1 X5.562 Y-5.312 E8.82880
G1 X6.124 Y-5.636 E8.85112
G1 X-14.263 Y-26.023 E9.84261
G1 X-13.377 Y-26.023 E9.87310
G1 X6.686 Y-5.961 E10.84881
G1 X7.248 Y-6.285 E10.87113
G1 X-12.490 Y-26.023 E11.83106
G1 X-11.604 Y-26.023 E11.86155
G1 X7.810 Y-6.610 E12.80571
G1 X8.500 Y-6.806 E12.83038
G1 X-10.718 Y-26.023 E13.76498
G1 X-9.831 Y-26.023 E13.79547
G1 X10.597 Y-5.595 E14.78896
G1 X12.694 Y-4.384 F7800.000
G1 X-8.945 Y-26.023 E15.84135 F600.000
G1 X-8.058 Y-26.023 E15.87183
G1 X14.685 Y-3.280 E16.97792
G1 X15.040 Y-3.811 E16.99990
G1 X-7.172 Y-26.023 E18.08015
G1 X-6.285 Y-26.023 E18.11063
G1 X15.395 Y-4.343 E19.16504
G1 X15.874 Y-4.750 E19.18666
G1 X-5.399 Y-26.023 E20.22127
G1 X-4.512 Y-26.023 E20.25175
G1 X16.406 Y-5.105 E21.26909
G1 X16.937 Y-5.460 E21.29107
G1 X-3.626 Y-26.023 E22.29113
G1 X-2.136 Y-25.419 F7800.000
G1 X17.469 Y-5.815 E23.24457 F600.000
G1 X18.147 Y-6.023 E23.26896
G1 X-0.602 Y-24.772 E24.18079
G1 X0.931 Y-24.125 F7800.000
G1 X18.886 Y-6.171 E25.05400 F600.000
G1 X19.625 Y-6.318 E25.07992
G1 X2.465 Y-23.478 E25.91451
G1 X3.998 Y-22.831 F7800.000
G1 X20.480 Y-6.350 E26.71607 F600.000
G1 X21.586 Y-6.130 E26.75487
G1 X5.533 Y-22.183 E27.53561
G1 X7.067 Y-21.535 F7800.000
G1 X22.766 Y-5.836 E28.29911 F600.000
G1 X25.455 Y-13.784 F7800.000
G1 X33.784 Y-5.455 E28.70419 F600.000
G1 X33.157 Y-6.969 F7800.000
G1 X26.968 Y-13.158 E29.00518 F600.000
G1 X23.942 Y-14.411 F7800.000
G1 X34.411 Y-3.942 E29.51433 F600.000
G1 X34.618 Y-2.848 E29.55261
G1 X22.414 Y-15.053 E30.14614
G1 X20.879 Y-15.701 F7800.000
G1 X34.753 Y-1.828 E30.82085 F600.000
G1 X34.887 Y-0.807 E30.85626
G1 X19.345 Y-16.349 E31.61213
G1 X17.810 Y-16.997 F7800.000
G1 X35.002 Y0.195 E32.44826 F600.000
G1 X34.899 Y0.978 E32.47543
G1 X16.275 Y-17.645 E33.38118
G1 X14.741 Y-18.294 F7800.000
G1 X34.796 Y1.762 E34.35655 F600.000
G1 X34.693 Y2.545 E34.38372
G1 X13.206 Y-18.942 E35.42871
G1 X11.671 Y-19.590 F7800.000
G1 X34.590 Y3.328 E36.54332 F600.000
G1 X34.461 Y4.086 E36.56975
G1 X10.137 Y-20.238 E37.75274
G1 X8.602 Y-20.887 F7800.000
