; generated by Slic3r 1.2.9 on 2016-03-03 at 19:44:47

; external perimeters extrusion width = 0.40mm
; perimeters extrusion width = 0.48mm
; infill extrusion width = 0.48mm
; solid infill extrusion width = 0.48mm
; top infill extrusion width = 0.48mm

M107
M190 S70 ; set bed temperature
M104 S210 ; set temperature
G28 ; home all axes
G1 Z5 F5000 ; lift nozzle

M109 S210 ; wait for temperature to be reached
G21 ; set units to millimeters
G90 ; use absolute coordinates
M82 ; use absolute distances for extrusion
G92 E0
G1 Z0.350 F7800.000
G1 E-2.00000 F2400.00000
G92 E0
G1 X-48.622 Y-0.002 F7800.000
G1 E2.00000 F2400.00000
G1 X-48.620 Y-44.013 E3.50889 F2340.000
G1 X-48.222 Y-46.272 E3.58752
G1 X-47.079 Y-48.260 E3.66615
G1 X-45.326 Y-49.739 E3.74477
G1 X-43.174 Y-50.532 E3.82340
G1 X-41.994 Y-50.637 E3.86401
G1 X-29.876 Y-50.636 E4.27948
G1 X42.006 Y-50.629 E6.74386 F2340.000
G1 X44.265 Y-50.232 E6.82249
G1 X46.253 Y-49.088 E6.90112
G1 X47.732 Y-47.335 E6.97975
G1 X48.524 Y-45.183 E7.05838
G1 X48.630 Y-44.004 E7.09897
G1 X48.627 Y43.997 E10.11598
G1 X48.230 Y46.256 E10.19461
G1 X47.086 Y48.244 E10.27324
G1 X45.333 Y49.723 E10.35187
G1 X43.181 Y50.515 E10.43050
G1 X42.002 Y50.621 E10.47109
G1 X-41.998 Y50.619 E13.35095
G1 X-44.257 Y50.222 E13.42958
G1 X-46.245 Y49.079 E13.50821
G1 X-47.724 Y47.326 E13.58683
G1 X-48.517 Y45.174 E13.66546
G1 X-48.623 Y43.999 E13.70592
G1 X-48.622 Y0.058 E15.21238
G1 E13.21238 F2400.00000
G92 E0
G1 X-45.434 Y-0.002 F7800.000
G1 E2.00000 F2400.00000
G1 X-45.432 Y-45.436 E3.55768 F2340.000
G1 X-43.418 Y-47.449 E3.65530
G1 X-31.434 Y-47.448 E4.06615
G1 X43.429 Y-47.441 E6.63277 F2340.000
G1 X45.442 Y-45.427 E6.73038
G1 X45.439 Y45.420 E9.84499
G1 X43.425 Y47.433 E9.94260
G1 X-43.422 Y47.431 E12.92007
G1 X-45.435 Y45.418 E13.01769
G1 X-45.434 Y0.058 E14.57279
G1 X-44.809 Y-0.002 F7800.000
G1 X-44.807 Y-45.177 E16.12159 F2340.000
G1 X-43.159 Y-46.825 E16.20146
G1 X43.170 Y-46.816 E19.16118 F2340.000
G1 X44.817 Y-45.169 E19.24105
G1 X44.814 Y45.161 E22.33791
G1 X43.166 Y46.808 E22.41777
G1 X-43.163 Y46.806 E25.37749
G1 X-44.810 Y45.159 E25.45736
G1 X-44.809 Y0.058 E27.00359
G1 X-44.184 Y-0.002 F7800.000
G1 X-44.182 Y-44.919 E28.54352 F2340.000
G1 X-42.901 Y-46.200 E28.60564
G1 X-30.917 Y-46.198 E29.01650
G1 X42.911 Y-46.191 E31.54762 F2340.000
G1 X44.192 Y-44.910 E31.60973
G1 X44.189 Y44.902 E34.68885
G1 X42.908 Y46.183 E34.75096
G1 X-42.904 Y46.181 E37.69294
G1 X-44.185 Y44.900 E37.75506
G1 X-44.184 Y0.058 E39.29241
G1 X-43.559 Y-0.002 F7800.000
G1 X-43.557 Y-44.660 E40.82347 F2340.000
G1 X-42.642 Y-45.575 E40.86784
G1 X42.652 Y-45.566 E43.79207 F2340.000
G1 X43.567 Y-44.651 E43.83643
G1 X43.564 Y44.643 E46.89780
G1 X42.649 Y45.558 E46.94217
G1 X-42.645 Y45.557 E49.86640
G1 X-43.560 Y44.641 E49.91077
G1 X-43.559 Y0.058 E51.43925
G1 X-42.934 Y-0.002 F7800.000
G1 X-42.932 Y-44.401 E52.96143 F2340.000
G1 X-42.383 Y-44.950 E52.98805
G1 X-30.399 Y-44.949 E53.39892
G1 X42.394 Y-44.941 E55.89453 F2340.000
G1 X42.943 Y-44.392 E55.92115
G1 X42.939 Y44.385 E58.96477
G1 X42.390 Y44.934 E58.99139
G1 X-42.386 Y44.932 E61.89787
G1 X-42.936 Y44.383 E61.92450
G1 X-42.934 Y0.058 E63.44411
G1 E61.44411 F2400.00000
G92 E0
G1 X-42.311 Y44.124 F7800.000
G1 E2.00000 F2400.00000
G1 X-42.307 Y-44.142 E5.02610 F2340.000
G1 X-42.124 Y-44.325 E5.03497
G1 X42.135 Y-44.316 E7.92370
G1 X42.318 Y-44.133 E7.93258
G1 X42.314 Y44.126 E10.95845
G1 X42.131 Y44.309 E10.96732
G1 X-42.128 Y44.307 E13.85605
G1 X-42.268 Y44.166 E13.86287
G1 E11.86287 F2400.00000
G92 E0
G1 X-41.645 Y-43.662 F7800.000
G1 E2.00000 F2400.00000
G1 X41.655 Y-43.654 E4.85586 F1170.000
G1 X41.652 Y43.646 E7.84886
G1 X-41.648 Y43.644 E10.70471
G1 X-41.645 Y-43.602 E13.69588
G1 X-41.298 Y-43.462 F7800.000
G1 X-41.020 Y-43.037 F7800.000
G1 X41.030 Y-43.029 E16.50889 F2340.000
G1 X41.027 Y43.021 E19.45905
G1 X-41.023 Y43.020 E22.27206
G1 X-41.020 Y-42.977 E25.22038
G1 X-40.395 Y-42.412 F7800.000
G1 X40.405 Y-42.404 E27.99054 F2340.000
G1 X40.402 Y42.396 E30.89785
G1 X-40.398 Y42.395 E33.66801
G1 X-40.395 Y-42.352 E36.57348
G1 X7.532 Y-28.344 F7800.000
G1 X15.232 Y-28.343 E36.83747 F1170.000
G1 X15.225 Y28.344 E38.78093
G1 X7.525 Y28.344 E39.04492
G1 X7.532 Y-28.284 E40.98633
G1 X7.532 Y-28.744 F7800.000
G1 X6.907 Y-28.969 F7800.000
G1 X15.857 Y-28.968 E41.29316 F2340.000
G1 X15.850 Y28.969 E43.27948
G1 X6.900 Y28.968 E43.58631
G1 X6.907 Y-28.909 E45.57057
G1 X6.282 Y-29.594 F7800.000
G1 X16.482 Y-29.593 E45.92025 F2340.000
G1 X16.475 Y29.594 E47.94941
G1 X6.275 Y29.593 E48.29909
G1 X6.282 Y-29.534 E50.32620
G1 X-18.893 Y-28.345 F7800.000
G1 X-18.900 Y28.342 E52.26966 F1170.000
G1 X-26.600 Y28.341 E52.53365
G1 X-26.593 Y-28.346 E54.47712
G1 X-18.953 Y-28.345 E54.73905
G1 X-18.493 Y-28.345 F7800.000
G1 X-18.268 Y-28.970 F7800.000
G1 X-18.275 Y28.967 E56.72536 F2340.000
G1 X-27.225 Y28.966 E57.03219
G1 X-27.218 Y-28.971 E59.01851
G1 X-18.328 Y-28.970 E59.32329
G1 X-17.643 Y-29.595 F7800.000
G1 X-17.650 Y29.592 E61.35245 F2340.000
G1 X-27.850 Y29.591 E61.70213
G1 X-27.843 Y-29.596 E63.73129
G1 X-17.703 Y-29.595 E64.07891
G1 X-15.218 Y-28.345 F7800.000
G1 X-7.518 Y-28.345 E64.34290 F1170.000
G1 X-7.525 Y28.343 E66.28637
G1 X-15.225 Y28.342 E66.55035
G1 X-15.218 Y-28.285 E68.49176
G1 X-15.218 Y-28.745 F7800.000
G1 X-15.843 Y-28.970 F7800.000
G1 X-6.893 Y-28.969 E68.79860 F2340.000
G1 X-6.900 Y28.968 E70.78491
G1 X-15.850 Y28.967 E71.09174
G1 X-15.843 Y-28.910 E73.07600
G1 X-16.468 Y-29.595 F7800.000
G1 X-6.268 Y-29.594 E73.42568 F2340.000
G1 X-6.275 Y29.592 E75.45484
G1 X-16.475 Y29.592 E75.80453
G1 X-16.468 Y-29.535 E77.83163
G1 X-3.843 Y-28.344 F7800.000
G1 X3.857 Y-28.344 E78.09562 F1170.000
G1 X3.850 Y28.343 E80.03908
G1 X-3.850 Y28.343 E80.30307
G1 X-3.843 Y-28.284 E82.24448
G1 X-3.843 Y-28.744 F7800.000
G1 X-4.468 Y-28.969 F7800.000
G1 X4.482 Y-28.969 E82.55131 F2340.000
G1 X4.475 Y28.968 E84.53763
G1 X-4.475 Y28.968 E84.84446
G1 X-4.468 Y-28.909 E86.82872
G1 X-5.093 Y-29.594 F7800.000
G1 X5.107 Y-29.594 E87.17840 F2340.000
G1 X5.100 Y29.593 E89.20756
G1 X-5.100 Y29.593 E89.55724
G1 X-5.093 Y-29.534 E91.58434
G1 X18.907 Y-28.343 F7800.000
G1 X26.607 Y-28.343 E91.84833 F1170.000
G1 X26.600 Y28.345 E93.79180
G1 X18.900 Y28.344 E94.05578
G1 X18.907 Y-28.283 E95.99719
G1 X18.907 Y-28.743 F7800.000
G1 X18.282 Y-28.968 F7800.000
G1 X27.232 Y-28.967 E96.30403 F2340.000
G1 X27.225 Y28.970 E98.29034
G1 X18.275 Y28.969 E98.59717
G1 X18.282 Y-28.908 E100.58143
G1 X17.657 Y-29.593 F7800.000
G1 X27.857 Y-29.592 E100.93111 F2340.000
G1 X27.850 Y29.595 E102.96027
G1 X17.650 Y29.594 E103.30995
G1 X17.657 Y-29.533 E105.33706
G1 X17.070 Y-29.905 F7800.000
G1 X17.062 Y29.906 E109.68469 F780.000
G1 X5.687 Y29.906 F7800.000
G1 X5.695 Y-29.906 E114.03233 F780.000
G1 X-5.680 Y-29.907 F7800.000
G1 X-5.688 Y29.905 E118.37997 F780.000
G1 X-17.063 Y29.904 F7800.000
G1 X-17.055 Y-29.907 E122.72760 F780.000
G1 X-6.864 Y-29.973 F7800.000
G1 X-18.923 Y-42.032 E123.31541 F780.000
G1 X-19.812 Y-42.032 E123.34604
G1 X-7.753 Y-29.973 E123.93384
G1 X-8.641 Y-29.973 E123.96447
G1 X-20.700 Y-42.032 E124.55228
G1 X-21.589 Y-42.032 E124.58290
G1 X-9.530 Y-29.973 E125.17071
G1 X-10.419 Y-29.973 E125.20134
G1 X-22.477 Y-42.032 E125.78915
G1 X-23.366 Y-42.032 E125.81978
G1 X-11.307 Y-29.973 E126.40759
G1 X-12.196 Y-29.973 E126.43822
G1 X-24.255 Y-42.032 E127.02603
G1 X-25.143 Y-42.032 E127.05666
G1 X-13.084 Y-29.973 E127.64448
G1 X-13.973 Y-29.973 E127.67510
G1 X-26.032 Y-42.032 E128.26292
G1 X-26.920 Y-42.033 E128.29355
G1 X-14.861 Y-29.973 E128.88137
G1 X-16.062 Y-30.286 E128.92414
G1 X-27.809 Y-42.033 E129.49674
G1 X-28.697 Y-42.033 E129.52736
G1 X-16.951 Y-30.286 E130.09996
G1 X-17.839 Y-30.286 E130.13059
G1 X-29.586 Y-42.033 E130.70318
G1 X-30.474 Y-42.033 E130.73381
G1 X-18.415 Y-29.974 E131.32163
G1 X-19.304 Y-29.974 E131.35226
G1 X-31.363 Y-42.033 E131.94009
G1 X-32.252 Y-42.033 E131.97072
G1 X-20.192 Y-29.974 E132.55855
G1 X-21.081 Y-29.974 E132.58917
G1 X-33.140 Y-42.033 E133.17700
G1 X-34.029 Y-42.033 E133.20763
G1 X-21.969 Y-29.974 E133.79547
G1 X-22.858 Y-29.974 E133.82609
G1 X-34.917 Y-42.033 E134.41393
G1 X-35.806 Y-42.033 E134.44455
G1 X-23.746 Y-29.974 E135.03239
G1 X-24.635 Y-29.974 E135.06302
G1 X-36.694 Y-42.034 E135.65086
G1 X-37.583 Y-42.034 E135.68148
G1 X-25.523 Y-29.974 E136.26933
G1 X-26.412 Y-29.974 E136.29995
G1 X-38.472 Y-42.034 E136.88779
G1 X-39.360 Y-42.034 E136.91842
G1 X-27.300 Y-29.974 E137.50627
G1 X-28.189 Y-29.974 E137.53689
G1 X-40.017 Y-41.802 E138.11343
G1 X-40.017 Y-40.913 E138.14405
G1 X-28.221 Y-29.118 E138.71900
G1 X-28.222 Y-28.230 E138.74962
G1 X-40.017 Y-40.025 E139.32457
G1 X-40.017 Y-39.137 E139.35520
G1 X-28.222 Y-27.342 E139.93014
G1 X-28.222 Y-26.453 E139.96076
G1 X-40.017 Y-38.248 E140.53571
G1 X-40.017 Y-37.360 E140.56633
G1 X-28.222 Y-25.565 E141.14127
G1 X-28.222 Y-24.676 E141.17189
G1 X-40.017 Y-36.471 E141.74682
G1 X-40.017 Y-35.583 E141.77745
G1 X-28.222 Y-23.788 E142.35238
G1 X-28.222 Y-22.900 E142.38300
G1 X-40.017 Y-34.694 E142.95793
G1 X-40.017 Y-33.806 E142.98855
G1 X-28.222 Y-22.011 E143.56348
G1 X-28.222 Y-21.123 E143.59410
G1 X-40.017 Y-32.917 E144.16902
G1 X-40.017 Y-32.029 E144.19964
G1 X-28.223 Y-20.235 E144.77456
G1 X-28.223 Y-19.346 E144.80518
G1 X-40.017 Y-31.141 E145.38009
G1 X-40.017 Y-30.252 E145.41072
G1 X-28.223 Y-18.458 E145.98563
G1 X-28.223 Y-17.570 E146.01625
G1 X-40.017 Y-29.364 E146.59115
G1 X-40.017 Y-28.475 E146.62178
G1 X-28.223 Y-16.681 E147.19668
G1 X-28.223 Y-15.793 E147.22730
G1 X-40.017 Y-27.587 E147.80220
G1 X-40.017 Y-26.698 E147.83282
G1 X-28.223 Y-14.904 E148.40772
G1 X-28.223 Y-14.016 E148.43834
G1 X-40.017 Y-25.810 E149.01323
G1 X-40.017 Y-24.922 E149.04385
G1 X-28.223 Y-13.128 E149.61874
G1 X-28.223 Y-12.239 E149.64936
G1 X-40.017 Y-24.033 E150.22425
G1 X-40.017 Y-23.145 E150.25487
G1 X-28.224 Y-11.351 E150.82975
G1 X-28.224 Y-10.463 E150.86037
G1 X-40.017 Y-22.256 E151.43525
G1 X-40.017 Y-21.368 E151.46587
G1 X-28.224 Y-9.574 E152.04075
G1 X-28.224 Y-8.686 E152.07137
G1 X-40.017 Y-20.479 E152.64624
G1 X-40.017 Y-19.591 E152.67686
G1 X-28.224 Y-7.798 E153.25173
G1 X-28.224 Y-6.909 E153.28235
G1 X-40.017 Y-18.703 E153.85721
G1 X-40.017 Y-17.814 E153.88783
G1 X-28.224 Y-6.021 E154.46269
G1 X-28.224 Y-5.133 E154.49331
G1 X-40.017 Y-16.926 E155.06817
G1 X-40.018 Y-16.037 E155.09879
G1 X-28.224 Y-4.244 E155.67364
G1 X-28.225 Y-3.356 E155.70426
G1 X-40.018 Y-15.149 E156.27911
G1 X-40.018 Y-14.260 E156.30974
G1 X-28.225 Y-2.467 E156.88458
G1 X-28.225 Y-1.579 E156.91520
G1 X-40.018 Y-13.372 E157.49004
G1 X-40.018 Y-12.483 E157.52067
G1 X-28.225 Y-0.691 E158.09550
G1 X-28.225 Y0.198 E158.12612
G1 X-40.018 Y-11.595 E158.70096
G1 X-40.018 Y-10.707 E158.73158
G1 X-28.225 Y1.086 E159.30641
G1 X-28.225 Y1.974 E159.33703
G1 X-40.018 Y-9.818 E159.91186
G1 X-40.018 Y-8.930 E159.94248
G1 X-28.225 Y2.863 E160.51731
G1 X-28.225 Y3.751 E160.54793
G1 X-40.018 Y-8.041 E161.12275
G1 X-40.018 Y-7.153 E161.15337
G1 X-28.226 Y4.639 E161.72819
G1 X-28.226 Y5.528 E161.75880
G1 X-40.018 Y-6.264 E162.33362
G1 X-40.018 Y-5.376 E162.36424
G1 X-28.226 Y6.416 E162.93905
G1 X-28.226 Y7.305 E162.96967
G1 X-40.018 Y-4.488 E163.54447
G1 X-40.018 Y-3.599 E163.57510
G1 X-28.226 Y8.193 E164.14990
G1 X-28.226 Y9.081 E164.18052
G1 X-40.018 Y-2.711 E164.75532
G1 X-40.018 Y-1.822 E164.78594
G1 X-28.226 Y9.970 E165.36073
G1 X-28.226 Y10.858 E165.39135
G1 X-40.018 Y-0.934 E165.96615
G1 X-40.018 Y-0.045 E165.99677
G1 X-28.226 Y11.746 E166.57156
G1 X-28.227 Y12.635 E166.60218
G1 X-40.018 Y0.843 E167.17696
G1 X-40.018 Y1.731 E167.20758
G1 X-28.227 Y13.523 E167.78236
G1 X-28.227 Y14.411 E167.81298
G1 X-40.018 Y2.620 E168.38776
G1 X-40.018 Y3.508 E168.41838
G1 X-28.227 Y15.300 E168.99315
G1 X-28.227 Y16.188 E169.02377
G1 X-40.018 Y4.397 E169.59854
G1 X-40.018 Y5.285 E169.62917
G1 X-28.227 Y17.076 E170.20393
G1 X-28.227 Y17.965 E170.23455
G1 X-40.018 Y6.174 E170.80931
G1 X-40.018 Y7.062 E170.83994
G1 X-28.227 Y18.853 E171.41469
G1 X-28.227 Y19.742 E171.44531
G1 X-40.018 Y7.951 E172.02007
G1 X-40.018 Y8.839 E172.05069
G1 X-28.228 Y20.630 E172.62544
G1 X-28.228 Y21.518 E172.65606
G1 X-40.019 Y9.727 E173.23081
G1 X-40.019 Y10.616 E173.26143
G1 X-28.228 Y22.407 E173.83618
G1 X-28.228 Y23.295 E173.86680
G1 X-40.019 Y11.504 E174.44154
G1 X-40.019 Y12.393 E174.47216
G1 X-28.228 Y24.183 E175.04690
G1 X-28.228 Y25.072 E175.07752
G1 X-40.019 Y13.281 E175.65225
G1 X-40.019 Y14.170 E175.68287
G1 X-28.228 Y25.960 E176.25760
G1 X-28.228 Y26.848 E176.28822
G1 X-40.019 Y15.058 E176.86295
G1 X-40.019 Y15.946 E176.89357
G1 X-28.228 Y27.737 E177.46829
G1 X-28.228 Y28.625 E177.49891
G1 X-40.019 Y16.835 E178.07363
G1 X-40.019 Y17.723 E178.10425
G1 X-28.229 Y29.514 E178.67897
G1 X-40.020 Y41.711 F7800.000
G1 X-39.715 Y42.016 E178.69384 F780.000
G1 X-38.826 Y42.016 E178.72446
G1 X-40.020 Y40.823 E178.78264
G1 X-40.020 Y39.934 E178.81326
G1 X-37.938 Y42.016 E178.91474
G1 X-37.049 Y42.016 E178.94537
G1 X-40.020 Y39.046 E179.09016
G1 X-40.020 Y38.157 E179.12078
G1 X-36.161 Y42.016 E179.30888
G1 X-35.272 Y42.016 E179.33950
G1 X-40.020 Y37.269 E179.57091
G1 X-40.020 Y36.380 E179.60153
G1 X-34.384 Y42.016 E179.87625
G1 X-33.495 Y42.016 E179.90687
G1 X-40.019 Y35.492 E180.22489
G1 X-40.019 Y34.604 E180.25552
G1 X-32.607 Y42.016 E180.61685
G1 X-31.718 Y42.016 E180.64747
G1 X-40.019 Y33.715 E181.05211
G1 X-40.019 Y32.827 E181.08273
G1 X-30.830 Y42.016 E181.53068
G1 X-29.941 Y42.016 E181.56130
G1 X-40.019 Y31.938 E182.05255
G1 X-40.019 Y31.050 E182.08318
G1 X-29.053 Y42.016 E182.61774
G1 X-28.164 Y42.016 E182.64836
G1 X-40.019 Y30.161 E183.22623
G1 X-40.019 Y29.273 E183.25685
G1 X-27.276 Y42.016 E183.87803
G1 X-26.387 Y42.016 E183.90865
G1 X-40.019 Y28.385 E184.57314
G1 X-40.019 Y27.496 E184.60376
G1 X-25.499 Y42.016 E185.31155
G1 X-24.610 Y42.016 E185.34218
G1 X-40.019 Y26.608 E186.09327
G1 X-40.019 Y25.719 E186.12390
G1 X-23.722 Y42.016 E186.91830
G1 X-22.833 Y42.016 E186.94893
G1 X-40.019 Y24.831 E187.78664
G1 X-40.019 Y23.942 E187.81727
G1 X-21.945 Y42.016 E188.69829
G1 X-21.056 Y42.016 E188.72891
G1 X-40.019 Y23.054 E189.65324
G1 X-40.019 Y22.165 E189.68387
G1 X-20.168 Y42.016 E190.65150
G1 X-19.279 Y42.016 E190.68213
G1 X-40.019 Y21.277 E191.69307
G1 X-40.019 Y20.389 E191.72370
G1 X-18.391 Y42.017 E192.77795
G1 X-17.503 Y42.017 E192.80857
G1 X-40.019 Y19.500 E193.90613
G1 X-40.019 Y18.612 E193.93676
G1 X-16.614 Y42.017 E195.07763
G1 X-15.726 Y42.017 E195.10825
G1 X-27.772 Y29.970 E195.69547
G1 X-26.884 Y29.970 E195.72610
G1 X-14.837 Y42.017 E196.31332
G1 X-13.949 Y42.017 E196.34395
G1 X-25.995 Y29.970 E196.93117
G1 X-25.107 Y29.970 E196.96179
G1 X-13.060 Y42.017 E197.54901
G1 X-12.172 Y42.017 E197.57964
G1 X-24.218 Y29.970 E198.16685
G1 X-23.330 Y29.970 E198.19748
G1 X-11.283 Y42.017 E198.78470
G1 X-10.395 Y42.017 E198.81532
G1 X-22.441 Y29.970 E199.40253
G1 X-21.553 Y29.970 E199.43316
G1 X-9.506 Y42.017 E200.02037
G1 X-8.618 Y42.017 E200.05100
G1 X-20.664 Y29.970 E200.63821
G1 X-19.776 Y29.970 E200.66883
G1 X-7.729 Y42.017 E201.25604
G1 X-6.841 Y42.017 E201.28667
G1 X-18.887 Y29.970 E201.87387
G1 X-17.686 Y30.283 E201.91664
G1 X-5.952 Y42.017 E202.48862
G1 X-5.064 Y42.017 E202.51925
G1 X-16.798 Y30.283 E203.09122
G1 X-15.984 Y30.208 E203.11938
G1 X-4.175 Y42.017 E203.69501
G1 X-3.287 Y42.017 E203.72563
G1 X-15.333 Y29.970 E204.31283
G1 X-14.445 Y29.971 E204.34346
G1 X-2.398 Y42.017 E204.93066
G1 X-1.510 Y42.017 E204.96128
G1 X-13.556 Y29.971 E205.54848
G1 X-12.667 Y29.971 E205.57910
G1 X-0.621 Y42.017 E206.16630
G1 X0.267 Y42.017 E206.19692
G1 X-11.779 Y29.971 E206.78411
G1 X-10.890 Y29.971 E206.81474
G1 X1.156 Y42.017 E207.40193
G1 X2.044 Y42.017 E207.43255
G1 X-10.002 Y29.971 E208.01974
G1 X-9.113 Y29.971 E208.05037
G1 X2.933 Y42.017 E208.63756
G1 X3.821 Y42.017 E208.66818
G1 X-8.225 Y29.971 E209.25536
G1 X-7.336 Y29.971 E209.28599
G1 X4.710 Y42.017 E209.87317
G1 X5.598 Y42.017 E209.90380
G1 X-6.135 Y30.283 E210.47575
G1 X-5.247 Y30.284 E210.50638
G1 X6.487 Y42.017 E211.07833
G1 X7.375 Y42.017 E211.10895
G1 X-4.609 Y30.033 E211.69313
