; generated by Slic3r 1.2.9 on 2016-03-08 at 07:13:24

; external perimeters extrusion width = 0.40mm
; perimeters extrusion width = 0.48mm
; infill extrusion width = 0.48mm
; solid infill extrusion width = 0.48mm
; top infill extrusion width = 0.48mm

M107
M190 S70 ; set bed temperature
M104 S210 ; set temperature
G28 ; home all axes
G1 Z5 F5000 ; lift nozzle

M109 S210 ; wait for temperature to be reached
G21 ; set units to millimeters
G90 ; use absolute coordinates
M82 ; use absolute distances for extrusion
G92 E0
G1 Z0.350 F7800.000
G1 E-2.00000 F2400.00000
G92 E0
G1 X-2.346 Y-12.596 F7800.000
G1 E2.00000 F2400.00000
G1 X-0.368 Y-12.964 E2.06897 F1800.000
G1 X0.181 Y-13.043 E2.08800
G1 X2.011 Y-12.977 E2.15078
G1 X2.448 Y-12.900 E2.16599 F1800.000
G1 X4.555 Y-12.145 E2.24273
G1 X8.067 Y-10.162 E2.38098
G1 X9.844 Y-8.700 E2.45987
G1 X10.142 Y-8.351 E2.47562
G1 X11.311 Y-6.370 E2.55449
G1 X12.727 Y-2.594 E2.69275
G1 X13.148 Y-0.332 E2.77163
G1 X13.153 Y0.128 E2.78738
G1 X12.775 Y2.397 E2.86626
G1 X11.432 Y6.200 E3.00452
G1 X10.301 Y8.203 E3.08339
G1 X10.009 Y8.558 E3.09914
G1 X8.261 Y10.054 E3.17802
G1 X4.788 Y12.104 E3.31628
G1 X4.299 Y12.365 E3.33529
G1 X2.556 Y12.930 E3.39809
G1 X2.119 Y13.007 E3.41330
G1 X-0.119 Y13.017 E3.49004
G1 X-4.097 Y12.355 E3.62829
G1 X-4.640 Y12.241 E3.64732
G1 X-6.337 Y11.554 E3.71010
G1 X-6.721 Y11.332 E3.72532
G1 X-8.443 Y9.901 E3.80205
G1 X-11.065 Y6.837 E3.94031
G1 X-12.234 Y4.856 E4.01919
G1 X-12.395 Y4.426 E4.03494
G1 X-12.816 Y2.164 E4.11382
G1 X-12.855 Y-1.869 E4.25207
G1 X-12.477 Y-4.138 E4.33095
G1 X-12.324 Y-4.572 E4.34670
G1 X-11.193 Y-6.575 E4.42558
G1 X-8.631 Y-9.689 E4.56384
G1 X-8.272 Y-10.091 E4.58231
G1 X-6.816 Y-11.228 E4.64564
G1 X-6.432 Y-11.450 E4.66086
G1 X-4.333 Y-12.226 E4.73759
G1 X-2.405 Y-12.585 E4.80482
G1 E2.80482 F2400.00000
G92 E0
G1 X-2.601 Y-9.199 F7800.000
G1 E2.00000 F2400.00000
G1 X-1.845 Y-8.905 E2.02781 F1800.000
G1 X-1.501 Y-8.966 E2.03980
G1 X-1.021 Y-9.387 E2.06169
G1 X-0.040 Y-9.815 E2.09838
G1 X0.746 Y-9.896 E2.12546
G1 X1.223 Y-9.879 E2.14182
G1 X2.665 Y-9.625 E2.19204 F1800.000
G1 X3.936 Y-8.713 E2.24567
G1 X4.326 Y-8.002 E2.27348
G1 X4.629 Y-7.827 E2.28547
G1 X5.515 Y-7.847 E2.31584
G1 X6.940 Y-7.201 E2.36947
G1 X7.391 Y-6.663 E2.39356
G1 X7.894 Y-6.308 E2.41467
G1 X8.682 Y-4.389 E2.48579
G1 X8.473 Y-3.343 E2.52234
G1 X8.593 Y-3.014 E2.53434
G1 X9.284 Y-2.460 E2.56470
G1 X9.961 Y-1.050 E2.61834
G1 X9.961 Y-0.348 E2.64242
G1 X10.118 Y0.248 E2.66354
G1 X9.487 Y2.224 E2.73466
G1 X8.757 Y2.809 E2.76673
G1 X8.664 Y3.245 E2.78200
G1 X8.717 Y3.347 E2.78594
G1 X8.485 Y5.408 E2.85706
G1 X7.869 Y6.142 E2.88988
G1 X7.607 Y6.699 E2.91100
G1 X5.853 Y7.808 E2.98212
G1 X4.874 Y7.786 E3.01571
G1 X4.609 Y7.910 E3.02576
G1 X3.625 Y9.149 E3.07997
G1 X2.692 Y9.601 E3.11553
G1 X2.238 Y9.749 E3.13190
G1 X0.795 Y10.003 E3.18211
G1 X-0.711 Y9.581 E3.23575
G1 X-1.320 Y9.046 E3.26355
G1 X-1.665 Y8.985 E3.27555
G1 X-2.260 Y9.217 E3.29744
G1 X-3.328 Y9.284 E3.33413
G1 X-4.094 Y9.091 E3.36121
G1 X-4.536 Y8.912 E3.37757
G1 X-5.805 Y8.180 E3.42778
G1 X-6.688 Y6.888 E3.48141
G1 X-6.811 Y6.087 E3.50922
G1 X-7.035 Y5.819 E3.52122
G1 X-7.874 Y5.534 E3.55158
G1 X-8.993 Y4.441 E3.60522
G1 X-9.233 Y3.781 E3.62930
G1 X-9.584 Y3.275 E3.65041
G1 X-9.668 Y1.202 E3.72154
G1 X-9.182 Y0.402 E3.75362
G1 X-9.243 Y-0.039 E3.76888
G1 X-9.328 Y-0.117 E3.77283
G1 X-9.815 Y-2.133 E3.84394
G1 X-9.487 Y-3.033 E3.87677
G1 X-9.431 Y-3.647 E3.89789
G1 X-8.163 Y-5.288 E3.96901
G1 X-7.235 Y-5.602 E4.00258
G1 X-7.028 Y-5.810 E4.01264
G1 X-6.527 Y-7.310 E4.06686
G1 X-5.806 Y-8.055 E4.10242
G1 X-5.429 Y-8.348 E4.11878
G1 X-4.161 Y-9.080 E4.16899
G1 X-2.661 Y-9.195 E4.22057
G1 X-2.695 Y-8.565 F7800.000
G1 X-2.055 Y-8.316 E4.24413 F1800.000
G1 X-1.683 Y-8.193 E4.25757
G1 X-1.357 Y-8.260 E4.26894
G1 X-0.682 Y-8.853 E4.29978
G1 X0.121 Y-9.204 E4.32980
G1 X0.767 Y-9.270 E4.35206
G1 X1.157 Y-9.256 E4.36545 F1800.000
G1 X2.416 Y-9.034 E4.40930
G1 X3.457 Y-8.288 E4.45318
G1 X3.869 Y-7.563 E4.48179
G1 X3.943 Y-7.397 E4.48803
G1 X4.263 Y-7.194 E4.50100
G1 X5.386 Y-7.219 E4.53954
G1 X6.552 Y-6.691 E4.58342
G1 X6.969 Y-6.195 E4.60562
G1 X7.388 Y-5.896 E4.62326
G1 X8.032 Y-4.326 E4.68145
G1 X7.841 Y-3.301 E4.71722
G1 X7.790 Y-3.126 E4.72345
G1 X7.905 Y-2.765 E4.73643
G1 X8.782 Y-2.062 E4.77497
G1 X9.336 Y-0.908 E4.81885
G1 X9.336 Y-0.261 E4.84105
G1 X9.465 Y0.238 E4.85869
G1 X8.949 Y1.855 E4.91688
G1 X8.250 Y2.415 E4.94759
G1 X7.961 Y2.673 E4.96088
G1 X7.883 Y3.092 E4.97550
G1 X8.074 Y3.465 E4.98985
G1 X7.885 Y5.151 E5.04804
G1 X7.335 Y5.807 E5.07739
G1 X7.114 Y6.272 E5.09503
G1 X5.679 Y7.179 E5.15322
G1 X4.783 Y7.159 E5.18394
G1 X4.396 Y7.171 E5.19722
G1 X4.067 Y7.442 E5.21184
G1 X4.020 Y7.646 E5.21902
G1 X3.224 Y8.649 E5.26291
G1 X2.458 Y9.020 E5.29210
G1 X2.087 Y9.141 E5.30550
G1 X0.827 Y9.363 E5.34935
G1 X-0.406 Y9.018 E5.39323
G1 X-1.041 Y8.477 E5.42184
G1 X-1.168 Y8.346 E5.42808
G1 X-1.537 Y8.265 E5.44105
G1 X-2.396 Y8.599 E5.47266
G1 X-3.270 Y8.654 E5.50268
G1 X-3.900 Y8.496 E5.52493
G1 X-4.262 Y8.349 E5.53832
G1 X-5.369 Y7.710 E5.58217
G1 X-6.091 Y6.653 E5.62605
G1 X-6.231 Y5.830 E5.65466
G1 X-6.244 Y5.649 E5.66090
G1 X-6.474 Y5.349 E5.67388
G1 X-7.539 Y4.988 E5.71241
G1 X-8.454 Y4.093 E5.75630
G1 X-8.676 Y3.485 E5.77849
G1 X-8.968 Y3.061 E5.79613
G1 X-9.036 Y1.365 E5.85433
G1 X-8.574 Y0.606 E5.88478
G1 X-8.392 Y0.232 E5.89905
G1 X-8.469 Y-0.173 E5.91317
G1 X-8.765 Y-0.447 E5.92700
G1 X-9.163 Y-2.097 E5.98519
G1 X-8.870 Y-2.901 E6.01454
G1 X-8.822 Y-3.414 E6.03218
G1 X-7.784 Y-4.757 E6.09037
G1 X-6.935 Y-5.044 E6.12108
G1 X-6.575 Y-5.188 E6.13436
G1 X-6.359 Y-5.555 E6.14898
G1 X-6.385 Y-5.763 E6.15618
G1 X-5.980 Y-6.977 E6.20006
G1 X-5.387 Y-7.589 E6.22925
G1 X-5.079 Y-7.829 E6.24264
G1 X-3.971 Y-8.468 E6.28649
G1 X-2.755 Y-8.561 E6.32832
G1 E4.32832 F2400.00000
G92 E0
G1 X-8.138 Y-3.610 F7800.000
G1 X-8.353 Y-2.456 F7800.000
G1 X-8.515 Y-0.853 F7800.000
G1 X-8.536 Y-0.197 F7800.000
G1 X-8.534 Y-0.089 F7800.000
G1 X-7.532 Y-0.125 F7800.000
G1 X-7.615 Y-0.101 F7800.000
G1 E2.00000 F2400.00000
G1 X-7.968 Y-0.561 E2.01987 F1800.000
G1 X-8.202 Y-0.777 E2.03079
G1 X-8.512 Y-2.060 E2.07604
G1 X-8.253 Y-2.770 E2.10192
G1 X-8.212 Y-3.181 E2.11609
G1 X-7.405 Y-4.225 E2.16135
G1 X-6.536 Y-4.530 E2.19292
G1 X-6.015 Y-4.659 E2.21130
G1 X-5.753 Y-4.971 E2.22528
G1 X-5.728 Y-5.545 E2.24498
G1 X-5.747 Y-5.700 E2.25033
G1 X-5.432 Y-6.644 E2.28446
G1 X-4.969 Y-7.122 E2.30729
G1 X-4.729 Y-7.309 E2.31770
G1 X-3.782 Y-7.856 E2.35519
G1 X-2.790 Y-7.932 E2.38932
G1 X-2.079 Y-7.666 E2.41532
G1 X-1.598 Y-7.430 E2.43371
G1 X-1.196 Y-7.500 E2.44768
G1 X-0.866 Y-7.860 E2.46443
G1 X-0.342 Y-8.319 E2.48831
G1 X0.282 Y-8.592 E2.51166
G1 X0.788 Y-8.644 E2.52909
G1 X1.091 Y-8.633 E2.53950
G1 X2.168 Y-8.443 E2.57699
G1 X2.977 Y-7.863 E2.61111
G1 X3.321 Y-7.258 E2.63498
G1 X3.561 Y-6.716 E2.65529
G1 X3.914 Y-6.513 E2.66927
G1 X4.405 Y-6.572 E2.68622
G1 X5.258 Y-6.591 E2.71549
G1 X6.165 Y-6.180 E2.74962
G1 X6.546 Y-5.726 E2.76993
G1 X6.881 Y-5.485 E2.78410
G1 X7.382 Y-4.264 E2.82936
G1 X7.225 Y-3.420 E2.85878
G1 X7.060 Y-2.850 E2.87910
G1 X7.200 Y-2.467 E2.89307
G1 X7.614 Y-2.197 E2.91002
G1 X8.280 Y-1.663 E2.93930
G1 X8.711 Y-0.766 E2.97342
G1 X8.711 Y-0.173 E2.99374
G1 X8.812 Y0.227 E3.00790
G1 X8.411 Y1.485 E3.05316
G1 X7.699 Y2.069 E3.08474
G1 X7.254 Y2.368 E3.10312
G1 X7.114 Y2.751 E3.11710
G1 X7.287 Y3.299 E3.13680
G1 X7.432 Y3.582 E3.14772
G1 X7.285 Y4.894 E3.19297
G1 X6.800 Y5.472 E3.21885
G1 X6.620 Y5.844 E3.23302
G1 X5.504 Y6.550 E3.27828
G1 X4.584 Y6.539 E3.30985
G1 X4.050 Y6.482 E3.32824
G1 X3.697 Y6.686 E3.34221
G1 X3.477 Y7.217 E3.36191
G1 X3.443 Y7.369 E3.36726
G1 X2.823 Y8.148 E3.40139
G1 X2.224 Y8.439 E3.42422
G1 X1.935 Y8.533 E3.43463
G1 X0.859 Y8.723 E3.47212
G1 X-0.100 Y8.454 E3.50625
G1 X-0.630 Y8.003 E3.53011
G1 X-1.041 Y7.576 E3.55043
G1 X-1.442 Y7.505 E3.56440
G1 X-1.883 Y7.729 E3.58135
G1 X-2.532 Y7.982 E3.60523
G1 X-3.212 Y8.024 E3.62858
G1 X-3.705 Y7.900 E3.64601
G1 X-3.987 Y7.786 E3.65643
G1 X-4.934 Y7.240 E3.69391
G1 X-5.495 Y6.418 E3.72804
G1 X-5.612 Y5.732 E3.75190
G1 X-5.652 Y5.140 E3.77222
G1 X-5.914 Y4.828 E3.78619
G1 X-6.395 Y4.716 E3.80314
G1 X-7.204 Y4.442 E3.83241
G1 X-7.916 Y3.746 E3.86654
G1 X-8.118 Y3.189 E3.88686
G1 X-8.351 Y2.848 E3.90102
G1 X-8.404 Y1.528 E3.94628
G1 X-7.967 Y0.789 E3.97571
G1 X-7.615 Y0.307 E3.99619
G1 X-7.615 Y-0.041 E4.00810
G1 X-7.111 Y-0.469 F7800.000
G1 X-7.479 Y-0.960 E4.02914 F1800.000
G1 X-7.638 Y-1.107 E4.03658
G1 X-7.860 Y-2.024 E4.06891
G1 X-7.636 Y-2.638 E4.09131
G1 X-7.602 Y-2.948 E4.10200
G1 X-7.025 Y-3.694 E4.13433
G1 X-6.344 Y-3.934 E4.15911
G1 X-5.706 Y-4.096 E4.18167
G1 X-5.434 Y-4.128 E4.19107
G1 X-5.114 Y-4.541 E4.20897
G1 X-5.142 Y-4.751 E4.21624
G1 X-5.098 Y-5.450 E4.24025
G1 X-5.110 Y-5.637 E4.24667
G1 X-4.884 Y-6.312 E4.27105
G1 X-4.550 Y-6.656 E4.28751
G1 X-4.379 Y-6.790 E4.29495
G1 X-3.593 Y-7.244 E4.32607
G1 X-2.884 Y-7.298 E4.35045
G1 X-2.315 Y-7.086 E4.37125
G1 X-1.723 Y-6.799 E4.39382
G1 X-1.493 Y-6.649 E4.40322
G1 X-0.983 Y-6.760 E4.42112
G1 X-0.869 Y-6.939 E4.42838
G1 X-0.421 Y-7.419 E4.45091
G1 X-0.003 Y-7.786 E4.46997
G1 X0.443 Y-7.980 E4.48664
G1 X0.809 Y-8.018 E4.49925
G1 X1.025 Y-8.010 E4.50669 F1800.000
G1 X1.919 Y-7.853 E4.53781
G1 X2.497 Y-7.438 E4.56219
G1 X2.772 Y-6.953 E4.58131
G1 X3.045 Y-6.368 E4.60345
G1 X3.141 Y-6.051 E4.61478
G1 X3.576 Y-5.805 E4.63192
G1 X3.873 Y-5.880 E4.64242
G1 X4.462 Y-5.948 E4.66276
G1 X5.130 Y-5.963 E4.68566
G1 X5.778 Y-5.670 E4.71004
G1 X6.123 Y-5.258 E4.72847
G1 X6.375 Y-5.073 E4.73916
G1 X6.732 Y-4.201 E4.77149
G1 X6.609 Y-3.539 E4.79458
G1 X6.441 Y-2.915 E4.81672
G1 X6.311 Y-2.611 E4.82805
G1 X6.486 Y-2.143 E4.84519
G1 X6.762 Y-2.009 E4.85569
G1 X7.257 Y-1.683 E4.87603
G1 X7.778 Y-1.265 E4.89893
G1 X8.086 Y-0.624 E4.92331
G1 X8.086 Y-0.086 E4.94174
G1 X8.160 Y0.217 E4.95243
G1 X7.873 Y1.115 E4.98476
G1 X7.315 Y1.574 E5.00954
G1 X6.770 Y1.944 E5.03210
G1 X6.526 Y2.068 E5.04150
G1 X6.366 Y2.565 E5.05940
G1 X6.464 Y2.753 E5.06667
G1 X6.663 Y3.425 E5.09068
G1 X6.790 Y3.700 E5.10107
G1 X6.685 Y4.637 E5.13340
G1 X6.265 Y5.137 E5.15580
G1 X6.127 Y5.417 E5.16649
G1 X5.330 Y5.921 E5.19882
G1 X4.607 Y5.913 E5.22360
G1 X3.952 Y5.847 E5.24617
G1 X3.685 Y5.785 E5.25557
G1 X3.244 Y6.063 E5.27346
G1 X3.198 Y6.270 E5.28073
G1 X2.918 Y6.912 E5.30474
G1 X2.865 Y7.092 E5.31116
G1 X2.423 Y7.648 E5.33554
G1 X1.991 Y7.858 E5.35200
G1 X1.784 Y7.925 E5.35944
G1 X0.890 Y8.083 E5.39057
G1 X0.205 Y7.891 E5.41495
G1 X-0.219 Y7.529 E5.43406
G1 X-0.675 Y7.072 E5.45621
G1 X-0.874 Y6.808 E5.46754
G1 X-1.367 Y6.725 E5.48467
G1 X-1.620 Y6.897 E5.49517
G1 X-2.151 Y7.162 E5.51551
G1 X-2.669 Y7.364 E5.53456
G1 X-3.154 Y7.395 E5.55124
G1 X-3.511 Y7.305 E5.56385
G1 X-3.712 Y7.223 E5.57129
G1 X-4.498 Y6.770 E5.60241
G1 X-4.899 Y6.183 E5.62679
G1 X-4.992 Y5.633 E5.64590
G1 X-5.048 Y4.989 E5.66805
G1 X-5.030 Y4.659 E5.67938
G1 X-5.354 Y4.279 E5.69651
G1 X-5.659 Y4.247 E5.70702
G1 X-6.236 Y4.110 E5.72735
G1 X-6.869 Y3.896 E5.75026
G1 X-7.377 Y3.399 E5.77464
G1 X-7.561 Y2.894 E5.79307
G1 X-7.734 Y2.634 E5.80376
G1 X-7.772 Y1.692 E5.83609
G1 X-7.429 Y1.112 E5.85918
G1 X-7.058 Y0.583 E5.88132
G1 X-6.829 Y0.338 E5.89283
G1 X-6.849 Y-0.183 E5.91073
G1 X-7.008 Y-0.329 E5.91812
G1 X-7.075 Y-0.421 E5.92202
G1 X-6.606 Y-0.838 F7800.000
G1 X-6.936 Y-1.291 E5.94125 F1800.000
G1 X-7.075 Y-1.437 E5.94817
G1 X-7.208 Y-1.987 E5.96757
G1 X-7.019 Y-2.506 E5.98649
G1 X-6.992 Y-2.715 E5.99372
G1 X-6.646 Y-3.163 E6.01311
G1 X-6.152 Y-3.338 E6.03110
G1 X-5.588 Y-3.480 E6.05105
G1 X-5.082 Y-3.544 E6.06852
G1 X-4.831 Y-3.544 E6.07714
G1 X-4.460 Y-3.934 E6.09559
G1 X-4.514 Y-4.771 E6.12435
G1 X-4.472 Y-5.574 E6.15191
G1 X-4.337 Y-5.979 E6.16654
G1 X-4.132 Y-6.190 E6.17664
G1 X-4.029 Y-6.270 E6.18110
G1 X-3.404 Y-6.631 E6.20586
G1 X-2.978 Y-6.664 E6.22049
G1 X-2.552 Y-6.505 E6.23609
G1 X-2.028 Y-6.252 E6.25604
G1 X-1.600 Y-5.976 E6.27350
G1 X-1.407 Y-5.814 E6.28213
G1 X-0.872 Y-5.875 E6.30058
G1 X-0.375 Y-6.551 E6.32934
G1 X0.024 Y-6.978 E6.34939
G1 X0.336 Y-7.252 E6.36363
G1 X0.604 Y-7.369 E6.37363
G1 X0.960 Y-7.387 E6.38585
G1 X1.671 Y-7.262 E6.41061 F1800.000
G1 X2.017 Y-7.013 E6.42524
G1 X2.224 Y-6.649 E6.43961
G1 X2.465 Y-6.126 E6.45933
G1 X2.622 Y-5.639 E6.47688
G1 X2.677 Y-5.322 E6.48793
G1 X3.191 Y-5.031 E6.50817
G1 X3.482 Y-5.143 E6.51887
G1 X3.983 Y-5.263 E6.53652
G1 X4.519 Y-5.324 E6.55504
G1 X5.002 Y-5.335 E6.57159
G1 X5.391 Y-5.159 E6.58621
G1 X5.701 Y-4.789 E6.60275
G1 X5.868 Y-4.662 E6.60998
G1 X6.083 Y-4.138 E6.62937
G1 X5.993 Y-3.658 E6.64612
G1 X5.842 Y-3.103 E6.66585
G1 X5.648 Y-2.629 E6.68340
G1 X5.487 Y-2.350 E6.69444
G1 X5.693 Y-1.797 E6.71468
G1 X5.989 Y-1.696 E6.72539
G1 X6.449 Y-1.466 E6.74303
G1 X6.900 Y-1.168 E6.76155
G1 X7.276 Y-0.866 E6.77810
G1 X7.461 Y-0.481 E6.79273
G1 X7.461 Y0.001 E6.80927
G1 X7.507 Y0.207 E6.81649
G1 X7.335 Y0.746 E6.83588
G1 X6.930 Y1.079 E6.85387
G1 X6.449 Y1.406 E6.87382
G1 X5.996 Y1.639 E6.89129
G1 X5.759 Y1.725 E6.89991
G1 X5.545 Y2.219 E6.91837
G1 X5.882 Y2.987 E6.94712
G1 X6.067 Y3.633 E6.97016
G1 X6.148 Y3.817 E6.97708
G1 X6.085 Y4.380 E6.99648
G1 X5.730 Y4.802 E7.01540
G1 X5.633 Y4.990 E7.02263
G1 X5.155 Y5.292 E7.04202
G1 X4.631 Y5.287 E7.06001
G1 X4.052 Y5.228 E7.07996
G1 X3.555 Y5.116 E7.09743
G1 X3.319 Y5.029 E7.10605
G1 X2.837 Y5.269 E7.12451
G1 X2.601 Y6.074 E7.15326
G1 X2.287 Y6.814 E7.18082
G1 X2.022 Y7.148 E7.19545
G1 X1.757 Y7.277 E7.20555
G1 X1.633 Y7.317 E7.21001
G1 X0.922 Y7.442 E7.23477
G1 X0.511 Y7.327 E7.24940
G1 X0.192 Y7.055 E7.26376
G1 X-0.213 Y6.647 E7.28349
G1 X-0.527 Y6.242 E7.30104
G1 X-0.688 Y5.963 E7.31209
G1 X-1.270 Y5.866 E7.33233
G1 X-1.505 Y6.071 E7.34303
G1 X-1.934 Y6.355 E7.36067
G1 X-2.418 Y6.596 E7.37920
G1 X-2.805 Y6.747 E7.39343
G1 X-3.096 Y6.765 E7.40344
G1 X-3.437 Y6.661 E7.41566
G1 X-4.062 Y6.299 E7.44042
G1 X-4.303 Y5.947 E7.45504
G1 X-4.372 Y5.534 E7.46941
G1 X-4.420 Y4.961 E7.48914
G1 X-4.401 Y4.449 E7.50669
G1 X-4.344 Y4.132 E7.51773
G1 X-4.728 Y3.683 E7.53797
G1 X-5.040 Y3.689 E7.54868
G1 X-5.551 Y3.630 E7.56632
G1 X-6.076 Y3.504 E7.58484
G1 X-6.533 Y3.349 E7.60139
G1 X-6.839 Y3.051 E7.61601
G1 X-7.004 Y2.598 E7.63256
G1 X-7.117 Y2.420 E7.63978
G1 X-7.140 Y1.855 E7.65917
G1 X-6.891 Y1.435 E7.67592
G1 X-6.559 Y0.965 E7.69565
G1 X-6.187 Y0.557 E7.71457
G1 X-5.971 Y0.377 E7.72421
G1 X-5.971 Y-0.207 E7.74423
G1 X-6.229 Y-0.428 E7.75587
G1 X-6.571 Y-0.789 E7.77292
G1 X-6.267 Y-2.631 F7800.000
G1 X-5.960 Y-2.742 E7.78411 F1800.000
G1 X-5.470 Y-2.865 E7.80145
G1 X-5.040 Y-2.919 E7.81630
G1 X-4.679 Y-2.920 E7.82867
G1 X-4.018 Y-2.847 E7.85148
G1 X-3.590 Y-3.365 E7.87452
G1 X-3.789 Y-4.000 E7.89733
G1 X-3.857 Y-4.357 E7.90978
G1 X-3.886 Y-4.792 E7.92471
G1 X-3.835 Y-5.507 E7.94931
G1 X-3.789 Y-5.646 E7.95432
G1 X-3.679 Y-5.751 E7.95954
G1 X-3.214 Y-6.019 E7.97793
G1 X-3.073 Y-6.030 E7.98281
G1 X-2.788 Y-5.925 E7.99321
G1 X-2.333 Y-5.705 E8.01054
G1 X-1.969 Y-5.470 E8.02539
G1 X-1.705 Y-5.248 E8.03723
G1 X-1.505 Y-5.040 E8.04711
G1 X-1.308 Y-4.769 E8.05859
G1 X-0.583 Y-4.852 E8.08358
G1 X-0.316 Y-5.494 E8.10742
G1 X-0.139 Y-5.811 E8.11987
G1 X0.118 Y-6.163 E8.13481
G1 X0.469 Y-6.537 E8.15239
G1 X0.675 Y-6.718 E8.16180
G1 X0.764 Y-6.757 E8.16513
G1 X0.894 Y-6.764 E8.16958
G1 X1.422 Y-6.671 E8.18797
G1 X1.538 Y-6.588 E8.19285
G1 X1.675 Y-6.344 E8.20246
G1 X1.885 Y-5.885 E8.21977
G1 X2.017 Y-5.470 E8.23470
G1 X2.084 Y-5.113 E8.24715
G1 X2.103 Y-4.822 E8.25713
G1 X2.077 Y-4.459 E8.26960
G1 X2.764 Y-4.071 E8.29663
G1 X3.063 Y-4.281 E8.30915
G1 X3.323 Y-4.416 E8.31922
G1 X3.666 Y-4.544 E8.33177
G1 X4.092 Y-4.646 E8.34679
G1 X4.577 Y-4.700 E8.36350
G1 X4.874 Y-4.707 E8.37368
G1 X5.003 Y-4.648 E8.37856
G1 X5.278 Y-4.321 E8.39322
G1 X5.361 Y-4.250 E8.39697
G1 X5.433 Y-4.075 E8.40344
G1 X5.377 Y-3.777 E8.41385
G1 X5.242 Y-3.290 E8.43116
G1 X5.076 Y-2.888 E8.44609
G1 X4.898 Y-2.571 E8.45854
G1 X4.726 Y-2.337 E8.46851
G1 X4.473 Y-2.075 E8.48099
G1 X4.750 Y-1.337 E8.50802
G1 X5.113 Y-1.305 E8.52054
G1 X5.400 Y-1.241 E8.53060
G1 X5.745 Y-1.119 E8.54315
G1 X6.137 Y-0.923 E8.55818
G1 X6.543 Y-0.653 E8.57489
G1 X6.775 Y-0.467 E8.58507
G1 X6.836 Y-0.339 E8.58994
