; generated by Slic3r 1.2.9 on 2016-06-30 at 16:22:12

; external perimeters extrusion width = 0.40mm
; perimeters extrusion width = 0.48mm
; infill extrusion width = 0.48mm
; solid infill extrusion width = 0.48mm
; top infill extrusion width = 0.48mm
; support material extrusion width = 0.40mm

M107
M190 S70 ; set bed temperature
M104 S210 ; set temperature
G28 ; home all axes
G1 Z5 F5000 ; lift nozzle

M109 S210 ; wait for temperature to be reached
G21 ; set units to millimeters
G90 ; use absolute coordinates
M82 ; use absolute distances for extrusion
G92 E0
G1 Z0.350 F7800.000
G1 E-2.00000 F2400.00000
G92 E0
G1 X-0.148 Y-23.090 F7800.000
G1 E2.00000 F2400.00000
G1 X26.796 Y-23.263 E2.92377 F2340.000
G1 X27.446 Y-23.235 E2.94605
G1 X29.126 Y-23.081 E3.00391 F2340.000
G1 X30.687 Y-22.744 E3.05866
G1 X32.282 Y-22.191 E3.11652
G1 X33.717 Y-21.491 E3.17127
G1 X35.133 Y-20.573 E3.22913
G1 X36.359 Y-19.549 E3.28389
G1 X37.514 Y-18.319 E3.34174
G1 X38.459 Y-17.031 E3.39649
G1 X39.286 Y-15.561 E3.45434
G1 X39.896 Y-14.084 E3.50910
G1 X40.347 Y-12.458 E3.56696
G1 X40.586 Y-10.879 E3.62170
G1 X40.636 Y-8.876 E3.69040
G1 X40.299 Y9.207 E4.31047
G1 X40.151 Y10.481 E4.35445
G1 X39.795 Y12.131 E4.41230
G1 X39.272 Y13.640 E4.46706
G1 X38.532 Y15.156 E4.52492
G1 X37.663 Y16.496 E4.57966
G1 X36.582 Y17.792 E4.63752
G1 X35.417 Y18.885 E4.69228
G1 X34.057 Y19.884 E4.75013
G1 X32.665 Y20.667 E4.80489
G1 X31.105 Y21.311 E4.86274
G1 X29.566 Y21.738 E4.91750
G1 X27.898 Y21.990 E4.97535
G1 X27.241 Y22.056 E4.99796
G1 X9.959 Y22.922 E5.59121
G1 X-8.401 Y23.262 E6.22079
G1 X-26.979 Y22.873 E6.85785
G1 X-27.446 Y22.847 E6.87387
G1 X-29.126 Y22.692 E6.93174
G1 X-30.687 Y22.355 E6.98648
G1 X-32.282 Y21.803 E7.04434
G1 X-33.717 Y21.102 E7.09909
G1 X-35.133 Y20.184 E7.15695
G1 X-36.359 Y19.160 E7.21170
G1 X-37.514 Y17.930 E7.26956
G1 X-38.459 Y16.643 E7.32430
G1 X-39.286 Y15.172 E7.38216
G1 X-39.900 Y13.682 E7.43740
G1 X-40.347 Y12.070 E7.49477
G1 X-40.586 Y10.490 E7.54953
G1 X-40.635 Y8.804 E7.60738
G1 X-40.613 Y8.040 E7.63359
G1 X-39.006 Y-10.518 E8.27221
G1 X-38.881 Y-11.344 E8.30083
G1 X-38.525 Y-12.994 E8.35870
G1 X-38.002 Y-14.503 E8.41346
G1 X-37.262 Y-16.019 E8.47132
G1 X-36.393 Y-17.359 E8.52606
G1 X-35.311 Y-18.655 E8.58392
G1 X-34.147 Y-19.748 E8.63868
G1 X-32.787 Y-20.747 E8.69654
G1 X-31.395 Y-21.530 E8.75129
G1 X-29.849 Y-22.168 E8.80864
G1 X-28.296 Y-22.601 E8.86389
G1 X-26.627 Y-22.853 E8.92177
G1 X-25.681 Y-22.927 E8.95431
G1 X-0.208 Y-23.090 E9.82764
G1 E7.82764 F2400.00000
G92 E0
G1 X-3.198 Y-18.384 F7800.000
G1 E2.00000 F2400.00000
G1 X-1.801 Y-17.478 E2.05710 F2340.000
G1 X-1.482 Y-17.212 E2.07135
G1 X0.142 Y-15.483 E2.15267
G1 X0.704 Y-15.499 E2.17196
G1 X1.784 Y-16.792 E2.22970
G1 X2.087 Y-17.076 E2.24396
G1 X3.783 Y-18.321 E2.31607
G1 X4.145 Y-18.525 E2.33032
G1 X6.089 Y-19.327 E2.40243
G1 X6.490 Y-19.439 E2.41669
G1 X8.570 Y-19.753 E2.48881
G1 X8.985 Y-19.765 E2.50305
G1 X11.079 Y-19.572 E2.57516
G1 X11.486 Y-19.484 E2.58941
G1 X13.474 Y-18.796 E2.66152
G1 X13.847 Y-18.614 E2.67578
G1 X15.612 Y-17.470 E2.74789
G1 X15.931 Y-17.203 E2.76215
G1 X17.371 Y-15.670 E2.83426
G1 X17.628 Y-15.319 E2.84916
G1 X18.237 Y-15.300 E2.87003
G1 X19.745 Y-17.106 E2.95071
G1 X20.048 Y-17.391 E2.96496
G1 X21.744 Y-18.636 E3.03707
G1 X22.106 Y-18.840 E3.05133
G1 X24.051 Y-19.642 E3.12344
G1 X24.451 Y-19.753 E3.13769
G1 X26.531 Y-20.068 E3.20981
G1 X26.947 Y-20.080 E3.22406
G1 X28.822 Y-19.907 E3.28864
G1 X29.041 Y-19.887 E3.29616 F2340.000
G1 X29.447 Y-19.799 E3.31042
G1 X31.435 Y-19.111 E3.38253
G1 X31.808 Y-18.928 E3.39679
G1 X33.573 Y-17.784 E3.46889
G1 X33.893 Y-17.518 E3.48315
G1 X35.332 Y-15.985 E3.55526
G1 X35.579 Y-15.649 E3.56952
G1 X36.610 Y-13.816 E3.64163
G1 X36.768 Y-13.432 E3.65588
G1 X37.331 Y-11.405 E3.72799
G1 X37.393 Y-10.994 E3.74224
G1 X37.454 Y-8.892 E3.81436
G1 X37.416 Y-8.478 E3.82862
G1 X36.972 Y-6.422 E3.90072
G1 X36.836 Y-6.029 E3.91497
G1 X35.913 Y-4.139 E3.98708
G1 X35.687 Y-3.790 E4.00134
G1 X34.339 Y-2.176 E4.07345
G1 X34.036 Y-1.891 E4.08770
G1 X32.542 Y-0.795 E4.15123
G1 X32.561 Y-0.139 E4.17372
G1 X33.236 Y0.299 E4.20131
G1 X33.556 Y0.565 E4.21557
G1 X34.995 Y2.099 E4.28768
G1 X35.241 Y2.434 E4.30193
G1 X36.273 Y4.267 E4.37404
G1 X36.431 Y4.651 E4.38830
G1 X36.994 Y6.678 E4.46040
G1 X37.056 Y7.089 E4.47466
G1 X37.117 Y9.191 E4.54677
G1 X37.079 Y9.606 E4.56103
G1 X36.635 Y11.661 E4.63313
G1 X36.499 Y12.054 E4.64739
G1 X35.576 Y13.944 E4.71950
G1 X35.350 Y14.293 E4.73375
G1 X34.002 Y15.907 E4.80586
G1 X33.698 Y16.192 E4.82012
G1 X32.003 Y17.437 E4.89223
G1 X31.641 Y17.640 E4.90648
G1 X29.696 Y18.443 E4.97859
G1 X29.296 Y18.554 E4.99284
G1 X27.216 Y18.868 E5.06495
G1 X26.800 Y18.881 E5.07921
G1 X24.706 Y18.688 E5.15132
G1 X24.300 Y18.600 E5.16557
G1 X22.312 Y17.912 E5.23768
G1 X21.939 Y17.729 E5.25194
G1 X20.174 Y16.585 E5.32405
G1 X19.854 Y16.319 E5.33831
G1 X18.795 Y15.191 E5.39136
G1 X18.233 Y15.207 E5.41064
G1 X16.930 Y16.767 E5.48032
G1 X16.627 Y17.051 E5.49457
G1 X14.931 Y18.296 E5.56668
G1 X14.569 Y18.500 E5.58094
G1 X12.625 Y19.303 E5.65305
G1 X12.224 Y19.414 E5.66730
G1 X10.144 Y19.728 E5.73941
G1 X9.729 Y19.740 E5.75367
G1 X7.634 Y19.547 E5.82578
G1 X7.228 Y19.459 E5.84003
G1 X5.241 Y18.771 E5.91214
G1 X4.867 Y18.589 E5.92639
G1 X3.102 Y17.445 E5.99851
G1 X2.783 Y17.178 E6.01276
G1 X1.343 Y15.645 E6.08487
G1 X1.097 Y15.310 E6.09912
G1 X0.938 Y15.027 E6.11023
G1 X0.233 Y15.005 E6.13440
G1 X-0.082 Y15.492 E6.15429
G1 X-1.431 Y17.107 E6.22640
G1 X-1.734 Y17.391 E6.24066
G1 X-3.429 Y18.636 E6.31277
G1 X-3.792 Y18.840 E6.32702
G1 X-5.736 Y19.642 E6.39913
G1 X-6.136 Y19.754 E6.41339
G1 X-8.216 Y20.068 E6.48550
G1 X-8.632 Y20.080 E6.49975
G1 X-10.726 Y19.887 E6.57187
G1 X-11.133 Y19.799 E6.58612
G1 X-13.120 Y19.111 E6.65822
G1 X-13.494 Y18.928 E6.67248
G1 X-15.259 Y17.784 E6.74459
G1 X-15.578 Y17.518 E6.75885
G1 X-17.018 Y15.985 E6.83095
G1 X-17.264 Y15.650 E6.84521
G1 X-17.620 Y15.016 E6.87014
G1 X-18.273 Y14.956 E6.89262
G1 X-19.745 Y16.718 E6.97135
G1 X-20.049 Y17.003 E6.98560
G1 X-21.744 Y18.247 E7.05771
G1 X-22.106 Y18.451 E7.07197
G1 X-24.050 Y19.254 E7.14407
G1 X-24.451 Y19.365 E7.15833
G1 X-26.531 Y19.679 E7.23044
G1 X-26.947 Y19.691 E7.24470
G1 X-29.041 Y19.498 E7.31681
G1 X-29.447 Y19.411 E7.33106
G1 X-31.435 Y18.722 E7.40317
G1 X-31.808 Y18.540 E7.41742
G1 X-33.573 Y17.396 E7.48953
G1 X-33.893 Y17.129 E7.50379
G1 X-35.332 Y15.596 E7.57590
G1 X-35.578 Y15.261 E7.59015
G1 X-36.610 Y13.428 E7.66226
G1 X-36.768 Y13.044 E7.67651
G1 X-37.331 Y11.017 E7.74863
G1 X-37.393 Y10.606 E7.76288
G1 X-37.454 Y8.503 E7.83499
G1 X-37.416 Y8.089 E7.84924
G1 X-37.369 Y7.872 E7.85686
G1 X-36.972 Y6.033 E7.92135
G1 X-36.836 Y5.640 E7.93561
G1 X-35.913 Y3.750 E8.00772
G1 X-35.687 Y3.402 E8.02197
G1 X-34.339 Y1.787 E8.09408
G1 X-34.036 Y1.503 E8.10834
G1 X-32.340 Y0.258 E8.18045
G1 X-31.978 Y0.054 E8.19470
G1 X-31.576 Y-0.112 E8.20960
G1 X-31.507 Y-0.864 E8.23551
G1 X-31.966 Y-1.162 E8.25428
G1 X-32.285 Y-1.428 E8.26854
G1 X-33.725 Y-2.962 E8.34064
G1 X-33.971 Y-3.297 E8.35490
G1 X-35.002 Y-5.130 E8.42701
G1 X-35.161 Y-5.514 E8.44126
G1 X-35.221 Y-5.729 E8.44889
G1 X-35.724 Y-7.541 E8.51338
G1 X-35.786 Y-7.952 E8.52763
G1 X-35.847 Y-10.054 E8.59974
G1 X-35.809 Y-10.468 E8.61398
G1 X-35.365 Y-12.524 E8.68610
G1 X-35.229 Y-12.917 E8.70036
G1 X-34.306 Y-14.807 E8.77247
G1 X-34.080 Y-15.156 E8.78672
G1 X-32.731 Y-16.771 E8.85883
G1 X-32.428 Y-17.055 E8.87309
G1 X-30.733 Y-18.300 E8.94520
G1 X-30.370 Y-18.504 E8.95945
G1 X-28.426 Y-19.306 E9.03157
G1 X-28.026 Y-19.417 E9.04582
G1 X-25.946 Y-19.732 E9.11793
G1 X-25.530 Y-19.744 E9.13218
G1 X-23.436 Y-19.551 E9.20429
G1 X-23.029 Y-19.463 E9.21854
G1 X-21.042 Y-18.775 E9.29066
G1 X-20.668 Y-18.592 E9.30491
G1 X-18.903 Y-17.448 E9.37702
G1 X-18.584 Y-17.182 E9.39127
G1 X-17.142 Y-15.646 E9.46351
G1 X-16.580 Y-15.662 E9.48280
G1 X-15.629 Y-16.800 E9.53363
G1 X-15.326 Y-17.085 E9.54789
G1 X-13.630 Y-18.330 E9.62000
G1 X-13.268 Y-18.533 E9.63425
G1 X-11.529 Y-19.251 E9.69874
G1 X-11.324 Y-19.336 E9.70637
G1 X-10.923 Y-19.447 E9.72062
G1 X-8.843 Y-19.761 E9.79273
G1 X-8.428 Y-19.773 E9.80698
G1 X-6.333 Y-19.581 E9.87909
G1 X-5.927 Y-19.493 E9.89334
G1 X-3.939 Y-18.805 E9.96546
G1 X-3.566 Y-18.622 E9.97971
G1 X-3.249 Y-18.417 E9.99267
G1 E7.99267 F2400.00000
G92 E0
G1 X-10.765 Y-18.325 F7800.000
G1 X-16.874 Y-16.105 F7800.000
G1 X-16.854 Y-0.091 F7800.000
G1 X-25.000 Y0.079 F7800.000
G1 X-27.283 Y-0.117 F7800.000
G1 X-29.400 Y-0.305 F7800.000
G1 X-29.765 Y-0.332 F7800.000
G1 X-30.029 Y-0.350 F7800.000
G1 X-30.155 Y-0.360 F7800.000
G1 X-30.168 Y-0.741 F7800.000
G1 E2.00000 F2400.00000
G1 X-31.595 Y-1.666 E2.05830 F2340.000
G1 X-31.856 Y-1.884 E2.06996
G1 X-33.244 Y-3.362 E2.13948
G1 X-33.445 Y-3.636 E2.15114
G1 X-34.439 Y-5.403 E2.22066
G1 X-34.569 Y-5.718 E2.23232
G1 X-35.111 Y-7.672 E2.30184
G1 X-35.162 Y-8.008 E2.31350
G1 X-35.221 Y-10.035 E2.38302
G1 X-35.190 Y-10.373 E2.39468
G1 X-34.762 Y-12.356 E2.46420
G1 X-34.651 Y-12.677 E2.47586
G1 X-34.570 Y-12.843 E2.48220
G1 X-33.761 Y-14.499 E2.54538
G1 X-33.576 Y-14.785 E2.55704
G1 X-32.276 Y-16.341 E2.62656
G1 X-32.028 Y-16.574 E2.63823
G1 X-30.393 Y-17.774 E2.70775
G1 X-30.097 Y-17.940 E2.71941
G1 X-28.393 Y-18.644 E2.78260
G1 X-28.223 Y-18.714 E2.78893
G1 X-27.895 Y-18.805 E2.80059
G1 X-25.890 Y-19.108 E2.87011
G1 X-25.550 Y-19.118 E2.88177
G1 X-23.531 Y-18.932 E2.95129
G1 X-23.198 Y-18.860 E2.96295
G1 X-21.282 Y-18.197 E3.03247
G1 X-20.977 Y-18.047 E3.04413
G1 X-19.430 Y-17.045 E3.10732
G1 X-19.275 Y-16.945 E3.11365
G1 X-19.014 Y-16.727 E3.12531
G1 X-17.626 Y-15.248 E3.19483
G1 X-17.424 Y-14.974 E3.20649
G1 X-17.271 Y-14.702 E3.21721
G1 X-16.618 Y-14.642 E3.23970
G1 X-15.174 Y-16.371 E3.31694
G1 X-14.926 Y-16.604 E3.32861
G1 X-13.291 Y-17.803 E3.39812
G1 X-12.995 Y-17.970 E3.40979
G1 X-11.120 Y-18.744 E3.47931
G1 X-10.792 Y-18.835 E3.49097
G1 X-8.970 Y-19.110 E3.55416
G1 X-8.787 Y-19.138 E3.56049
G1 X-8.447 Y-19.148 E3.57215
G1 X-6.428 Y-18.962 E3.64167
G1 X-6.096 Y-18.890 E3.65333
G1 X-4.354 Y-18.287 E3.71652
G1 X-4.180 Y-18.226 E3.72285
G1 X-3.874 Y-18.077 E3.73451
G1 X-2.172 Y-16.974 E3.80403
G1 X-1.911 Y-16.756 E3.81569
G1 X-0.523 Y-15.278 E3.88521
G1 X-0.322 Y-15.004 E3.89687
G1 X-0.010 Y-14.450 E3.91868
G1 X0.694 Y-14.428 E3.94284
G1 X0.939 Y-14.806 E3.95829
G1 X2.239 Y-16.362 E4.02781
G1 X2.487 Y-16.595 E4.03948
G1 X3.976 Y-17.687 E4.10277
G1 X4.122 Y-17.795 E4.10900
G1 X4.419 Y-17.962 E4.12066
G1 X6.293 Y-18.735 E4.19018
G1 X6.621 Y-18.826 E4.20184
G1 X8.446 Y-19.102 E4.26514
G1 X8.626 Y-19.129 E4.27136
G1 X8.966 Y-19.139 E4.28302
G1 X10.985 Y-18.953 E4.35253
G1 X11.317 Y-18.882 E4.36420
G1 X13.233 Y-18.218 E4.43372
G1 X13.539 Y-18.069 E4.44538
G1 X15.241 Y-16.966 E4.51490
G1 X15.502 Y-16.748 E4.52656
G1 X16.890 Y-15.270 E4.59608
G1 X17.091 Y-14.995 E4.60775
G1 X17.604 Y-14.083 E4.64362
G1 X18.359 Y-14.105 E4.66952
G1 X18.716 Y-14.835 E4.69737
G1 X18.901 Y-15.121 E4.70903
G1 X20.201 Y-16.677 E4.77856
G1 X20.449 Y-16.910 E4.79022
G1 X21.937 Y-18.002 E4.85351
G1 X22.083 Y-18.110 E4.85974
G1 X22.380 Y-18.276 E4.87140
G1 X24.254 Y-19.050 E4.94092
G1 X24.582 Y-19.141 E4.95258
G1 X26.407 Y-19.417 E5.01588
G1 X26.587 Y-19.444 E5.02211
G1 X26.927 Y-19.454 E5.03376
G1 X28.946 Y-19.268 E5.10327
G1 X29.279 Y-19.196 E5.11494
G1 X31.195 Y-18.533 E5.18446
G1 X31.500 Y-18.383 E5.19612
G1 X33.202 Y-17.281 E5.26564
G1 X33.463 Y-17.062 E5.27731
G1 X34.851 Y-15.584 E5.34682
G1 X35.052 Y-15.310 E5.35849
G1 X36.047 Y-13.543 E5.42800
G1 X36.176 Y-13.228 E5.43967
G1 X36.719 Y-11.275 E5.50918
G1 X36.769 Y-10.938 E5.52085
G1 X36.828 Y-8.911 E5.59037
G1 X36.797 Y-8.572 E5.60203
G1 X36.369 Y-6.591 E5.67155
G1 X36.258 Y-6.269 E5.68321
G1 X35.368 Y-4.447 E5.75273
G1 X35.183 Y-4.162 E5.76439
G1 X33.883 Y-2.605 E5.83391
G1 X33.635 Y-2.373 E5.84557
G1 X32.001 Y-1.173 E5.91509
G1 X31.426 Y-0.849 E5.93771
G1 X31.403 Y-0.145 E5.96188
G1 X32.865 Y0.803 E6.02158
G1 X33.126 Y1.021 E6.03325
G1 X34.514 Y2.499 E6.10276
G1 X34.715 Y2.773 E6.11443
G1 X35.709 Y4.540 E6.18394
G1 X35.839 Y4.855 E6.19561
G1 X36.381 Y6.809 E6.26512
G1 X36.432 Y7.145 E6.27678
G1 X36.438 Y7.326 E6.28301
G1 X36.491 Y9.172 E6.34631
G1 X36.460 Y9.511 E6.35797
G1 X36.032 Y11.493 E6.42748
G1 X35.921 Y11.814 E6.43915
G1 X35.031 Y13.636 E6.50866
G1 X34.846 Y13.921 E6.52033
G1 X33.546 Y15.478 E6.58984
G1 X33.298 Y15.711 E6.60151
G1 X31.664 Y16.910 E6.67103
G1 X31.367 Y17.077 E6.68269
G1 X29.493 Y17.851 E6.75221
G1 X29.165 Y17.942 E6.76387
G1 X27.160 Y18.245 E6.83338
G1 X26.820 Y18.255 E6.84505
G1 X24.801 Y18.069 E6.91457
G1 X24.468 Y17.997 E6.92623
G1 X22.552 Y17.334 E6.99574
G1 X22.247 Y17.184 E7.00741
G1 X20.545 Y16.081 E7.07693
G1 X20.284 Y15.863 E7.08860
G1 X18.722 Y14.200 E7.16683
G1 X18.116 Y14.254 E7.18769
G1 X17.774 Y14.781 E7.20920
G1 X16.474 Y16.337 E7.27872
G1 X16.227 Y16.570 E7.29039
G1 X14.592 Y17.770 E7.35990
G1 X14.295 Y17.937 E7.37157
G1 X12.421 Y18.711 E7.44108
G1 X12.093 Y18.801 E7.45275
G1 X10.088 Y19.104 E7.52226
G1 X9.748 Y19.114 E7.53393
G1 X7.729 Y18.928 E7.60345
G1 X7.397 Y18.857 E7.61511
G1 X5.481 Y18.193 E7.68462
G1 X5.175 Y18.044 E7.69629
G1 X3.473 Y16.941 E7.76581
G1 X3.212 Y16.723 E7.77747
G1 X1.824 Y15.245 E7.84699
G1 X1.623 Y14.971 E7.85865
G1 X0.903 Y13.690 E7.90902
G1 X0.147 Y13.712 E7.93492
G1 X-0.401 Y14.835 E7.97777
G1 X-0.586 Y15.121 E7.98943
G1 X-1.886 Y16.677 E8.05895
G1 X-2.134 Y16.910 E8.07062
G1 X-3.769 Y18.110 E8.14014
G1 X-4.065 Y18.276 E8.15180
G1 X-5.939 Y19.050 E8.22131
G1 X-6.267 Y19.141 E8.23298
G1 X-8.272 Y19.444 E8.30250
G1 X-8.612 Y19.454 E8.31416
G1 X-10.631 Y19.268 E8.38368
G1 X-10.964 Y19.196 E8.39534
G1 X-12.880 Y18.533 E8.46486
G1 X-13.186 Y18.383 E8.47652
G1 X-14.887 Y17.281 E8.54604
G1 X-15.148 Y17.062 E8.55770
G1 X-16.536 Y15.584 E8.62722
G1 X-16.738 Y15.310 E8.63888
G1 X-17.624 Y13.735 E8.70085
G1 X-18.379 Y13.757 E8.72675
G1 X-18.716 Y14.447 E8.75307
G1 X-18.901 Y14.732 E8.76473
G1 X-20.201 Y16.288 E8.83425
G1 X-20.449 Y16.521 E8.84592
G1 X-21.935 Y17.612 E8.90910
G1 X-22.083 Y17.721 E8.91544
G1 X-22.380 Y17.888 E8.92710
G1 X-24.254 Y18.662 E8.99661
G1 X-24.582 Y18.753 E9.00828
G1 X-26.587 Y19.056 E9.07780
G1 X-26.927 Y19.065 E9.08946
G1 X-28.762 Y18.897 E9.15265
G1 X-28.946 Y18.880 E9.15898
G1 X-29.279 Y18.808 E9.17064
G1 X-31.195 Y18.144 E9.24015
G1 X-31.500 Y17.995 E9.25182
G1 X-33.202 Y16.892 E9.32134
G1 X-33.463 Y16.674 E9.33300
G1 X-34.851 Y15.196 E9.40252
G1 X-35.052 Y14.922 E9.41418
G1 X-35.143 Y14.761 E9.42051
G1 X-36.046 Y13.154 E9.48370
G1 X-36.176 Y12.840 E9.49536
G1 X-36.719 Y10.886 E9.56488
G1 X-36.769 Y10.550 E9.57654
G1 X-36.828 Y8.523 E9.64606
G1 X-36.797 Y8.184 E9.65772
G1 X-36.369 Y6.202 E9.72724
G1 X-36.258 Y5.881 E9.73890
G1 X-35.368 Y4.059 E9.80842
G1 X-35.183 Y3.773 E9.82008
G1 X-35.065 Y3.631 E9.82641
G1 X-33.883 Y2.217 E9.88960
G1 X-33.635 Y1.984 E9.90127
G1 X-32.001 Y0.784 E9.97078
G1 X-31.704 Y0.617 E9.98245
G1 X-30.237 Y0.012 E10.03687
G1 X-30.173 Y-0.681 E10.06072
G1 X-28.561 Y-0.719 F7800.000
G1 X-29.347 Y-0.992 E10.08925 F2340.000
G1 X-29.585 Y-1.108 E10.09833
G1 X-31.223 Y-2.170 E10.16525
G1 X-31.426 Y-2.339 E10.17432
G1 X-32.762 Y-3.762 E10.24125
G1 X-32.919 Y-3.975 E10.25032
G1 X-33.876 Y-5.677 E10.31725
G1 X-34.016 Y-6.063 E10.33133
G1 X-34.499 Y-7.802 E10.39322
G1 X-34.539 Y-8.064 E10.40229
G1 X-34.595 Y-10.015 E10.46922
G1 X-34.540 Y-10.422 E10.48330
G1 X-34.159 Y-12.187 E10.54519
G1 X-34.073 Y-12.437 E10.55426
G1 X-33.216 Y-14.191 E10.62119
G1 X-32.978 Y-14.526 E10.63527
G1 X-31.821 Y-15.911 E10.69716
G1 X-31.628 Y-16.092 E10.70624
G1 X-30.054 Y-17.248 E10.77316
G1 X-29.824 Y-17.377 E10.78223
G1 X-28.155 Y-18.066 E10.84412
G1 X-27.764 Y-18.193 E10.85821
G1 X-25.834 Y-18.485 E10.92514
G1 X-25.570 Y-18.492 E10.93420
G1 X-23.626 Y-18.313 E11.00113
G1 X-23.367 Y-18.258 E11.01020
G1 X-21.522 Y-17.619 E11.07713
G1 X-21.285 Y-17.503 E11.08620
G1 X-19.770 Y-16.521 E11.14809
G1 X-19.444 Y-16.271 E11.16217
G1 X-18.107 Y-14.848 E11.22910
G1 X-17.951 Y-14.635 E11.23817
G1 X-17.258 Y-13.403 E11.28663
G1 X-16.502 Y-13.425 E11.31253
G1 X-16.114 Y-14.221 E11.34290
