; generated by Slic3r 1.2.9 on 2016-02-28 at 05:47:24

; external perimeters extrusion width = 0.40mm
; perimeters extrusion width = 0.48mm
; infill extrusion width = 0.48mm
; solid infill extrusion width = 0.48mm
; top infill extrusion width = 0.48mm

M107
M190 S70 ; set bed temperature
M104 S210 ; set temperature
G28 ; home all axes
G1 Z5 F5000 ; lift nozzle

M109 S210 ; wait for temperature to be reached
G21 ; set units to millimeters
G90 ; use absolute coordinates
M82 ; use absolute distances for extrusion
G92 E0
G1 Z0.350 F7800.000
G1 E-2.00000 F2400.00000
G92 E0
G1 X9.180 Y43.247 F7800.000
G1 E2.00000 F2400.00000
G1 X-43.079 Y54.340 E3.83157 F1800.000
G1 X-43.947 Y54.465 E3.86163
G1 X-45.644 Y54.595 E3.91997
G1 X-46.582 Y54.601 E3.95215
G1 X-48.269 Y54.491 E4.01010
G1 X-49.195 Y54.364 E4.04215
G1 X-50.850 Y54.018 E4.10010
G1 X-51.749 Y53.762 E4.13216
G1 X-53.338 Y53.186 E4.19011
G1 X-54.193 Y52.807 E4.22217
G1 X-55.685 Y52.013 E4.28011
G1 X-56.477 Y51.516 E4.31217
G1 X-57.843 Y50.520 E4.37012
G1 X-58.558 Y49.917 E4.40218
G1 X-59.769 Y48.739 E4.46012
G1 X-61.112 Y46.880 E4.53875
G1 X-61.775 Y43.990 E4.64040
G1 X-61.775 Y-44.010 E7.65740
G1 X-61.378 Y-46.269 E7.73603
G1 X-59.764 Y-48.765 E7.83794
G1 X-58.577 Y-49.917 E7.89464
G1 X-57.878 Y-50.506 E7.92598
G1 X-56.544 Y-51.483 E7.98267
G1 X-55.771 Y-51.971 E8.01401
G1 X-54.315 Y-52.755 E8.07070
G1 X-53.483 Y-53.132 E8.10204
G1 X-51.933 Y-53.708 E8.15873
G1 X-51.057 Y-53.967 E8.19003
G1 X-49.441 Y-54.324 E8.24676
G1 X-48.537 Y-54.460 E8.27811
G1 X-46.889 Y-54.592 E8.33480
G1 X-45.926 Y-54.598 E8.36780
G1 X-44.217 Y-54.492 E8.42652 F1800.000
G1 X-43.264 Y-54.363 E8.45947
G1 X50.525 Y-34.491 E11.74632
G1 X52.652 Y-33.634 E11.82495
G1 X54.451 Y-31.985 E11.90863
G1 X60.451 Y-23.984 E12.25148
G1 X61.489 Y-21.939 E12.33011
G1 X61.776 Y-20.010 E12.39698
G1 X61.776 Y19.990 E13.76834
G1 X61.379 Y22.249 E13.84697
G1 X60.451 Y23.965 E13.91386
G1 X54.451 Y31.965 E14.25668
G1 X52.778 Y33.534 E14.33530
G1 X50.527 Y34.470 E14.41891
G1 X9.239 Y43.234 E15.86597
G1 X9.180 Y31.427 F7800.000
G1 X-13.389 Y31.427 E16.63973 F1800.000
G1 X-13.608 Y31.511 E16.64776
G1 X-14.920 Y32.710 E16.70870
G1 X-17.382 Y34.846 E16.82044
G1 X-19.898 Y36.917 E16.93218
G1 X-22.432 Y38.897 E17.04240
G1 X-25.051 Y40.836 E17.15413
G1 X-27.146 Y42.317 E17.24209
G1 X-30.434 Y44.511 E17.37762
G1 X-33.233 Y46.265 E17.49088
G1 X-36.000 Y47.902 E17.60110
G1 X-37.657 Y48.826 E17.66611
G1 X-38.001 Y49.052 E17.68022
G1 X-38.831 Y49.482 E17.71229
G1 X-39.587 Y49.926 E17.74232
G1 X-39.850 Y50.052 E17.75234
G1 X-41.693 Y50.748 E17.81987
G1 X-41.928 Y50.818 E17.82827
G1 X-43.828 Y51.241 E17.89500
G1 X-44.069 Y51.277 E17.90338
G1 X-46.009 Y51.426 E17.97009
G1 X-46.253 Y51.427 E17.97845
G1 X-48.182 Y51.302 E18.04472
G1 X-48.423 Y51.269 E18.05306
G1 X-50.311 Y50.874 E18.11919
G1 X-50.548 Y50.807 E18.12762
G1 X-52.366 Y50.148 E18.19393
G1 X-52.588 Y50.049 E18.20226
G1 X-54.295 Y49.141 E18.26852
G1 X-54.501 Y49.012 E18.27686
G1 X-56.062 Y47.873 E18.34313
G1 X-56.248 Y47.717 E18.35146
G1 X-58.045 Y45.969 E18.43739
G1 X-58.587 Y44.686 E18.48515
G1 X-58.587 Y-44.707 E21.54992
G1 X-58.044 Y-45.992 E21.59772
G1 X-56.272 Y-47.711 E21.68238
G1 X-56.090 Y-47.864 E21.69053
G1 X-54.565 Y-48.981 E21.75535
G1 X-54.364 Y-49.108 E21.76349
G1 X-52.699 Y-50.005 E21.82832
G1 X-52.483 Y-50.103 E21.83646
G1 X-50.711 Y-50.762 E21.90128
G1 X-50.483 Y-50.829 E21.90941
G1 X-48.637 Y-51.237 E21.97425
G1 X-48.402 Y-51.273 E21.98240
G1 X-46.514 Y-51.423 E22.04733
G1 X-46.124 Y-51.416 E22.06071
G1 X-44.290 Y-51.303 E22.12370 F1800.000
G1 X-44.042 Y-51.269 E22.13226
G1 X-42.097 Y-50.860 E22.20040
G1 X-41.857 Y-50.792 E22.20896
G1 X-40.008 Y-50.112 E22.27650
G1 X-38.846 Y-49.525 E22.32114
G1 X-36.033 Y-47.958 E22.43154
G1 X-33.189 Y-46.275 E22.54483
G1 X-30.428 Y-44.542 E22.65660
G1 X-27.363 Y-42.501 E22.78284
G1 X-25.044 Y-40.865 E22.88013
G1 X-22.461 Y-38.951 E22.99037
G1 X-19.892 Y-36.943 E23.10213
G1 X-17.377 Y-34.869 E23.21390
G1 X-14.916 Y-32.731 E23.32566
G1 X-13.606 Y-31.532 E23.38656
G1 X-13.387 Y-31.447 E23.39459
G1 X49.963 Y-31.447 E25.56648
G1 X51.414 Y-30.721 E25.62211
G1 X58.235 Y-21.625 E26.01190
G1 X58.588 Y-20.567 E26.05014
G1 X58.588 Y20.548 E27.45972
G1 X58.235 Y21.606 E27.49798
G1 X51.414 Y30.701 E27.88774
G1 X49.963 Y31.427 E27.94337
G1 X9.240 Y31.427 E29.33950
G1 X9.180 Y30.802 F7800.000
G1 X-13.632 Y30.802 E30.12158 F1800.000
G1 X-13.850 Y30.887 E30.12960
G1 X-15.333 Y32.241 E30.19845
G1 X-17.782 Y34.366 E30.30963
G1 X-20.286 Y36.427 E30.42082
G1 X-22.813 Y38.402 E30.53077
G1 X-25.419 Y40.332 E30.64195
G1 X-27.520 Y41.815 E30.73012
G1 X-30.777 Y43.988 E30.86433
G1 X-33.524 Y45.711 E30.97551
G1 X-36.315 Y47.363 E31.08671
G1 X-37.998 Y48.301 E31.15278
G1 X-38.312 Y48.509 E31.16567
G1 X-39.133 Y48.935 E31.19741
G1 X-39.880 Y49.373 E31.22709
G1 X-40.096 Y49.476 E31.23529
G1 X-41.893 Y50.155 E31.30115
G1 X-42.085 Y50.213 E31.30802
G1 X-43.942 Y50.626 E31.37323
G1 X-44.140 Y50.655 E31.38009
G1 X-46.035 Y50.801 E31.44527
G1 X-46.235 Y50.802 E31.45212
G1 X-48.119 Y50.680 E31.51687
G1 X-48.317 Y50.653 E31.52369
G1 X-50.162 Y50.267 E31.58833
G1 X-50.356 Y50.212 E31.59523
G1 X-52.133 Y49.568 E31.66002
G1 X-52.314 Y49.487 E31.66684
G1 X-53.982 Y48.600 E31.73159
G1 X-54.150 Y48.495 E31.73841
G1 X-55.676 Y47.381 E31.80316
G1 X-55.828 Y47.253 E31.80998
G1 X-57.519 Y45.609 E31.89082
G1 X-57.962 Y44.560 E31.92989
G1 X-57.962 Y-44.581 E34.98598
G1 X-57.518 Y-45.631 E35.02509
G1 X-55.852 Y-47.247 E35.10467
G1 X-54.213 Y-48.465 E35.17466
G1 X-52.422 Y-49.444 E35.24465
G1 X-50.513 Y-50.168 E35.31464
G1 X-48.523 Y-50.623 E35.38464
G1 X-46.486 Y-50.799 E35.45472
G1 X-46.287 Y-50.800 E35.46155
G1 X-44.351 Y-50.680 E35.52805 F1800.000
G1 X-44.148 Y-50.653 E35.53505
G1 X-42.248 Y-50.254 E35.60164
G1 X-42.052 Y-50.197 E35.60864
G1 X-40.242 Y-49.532 E35.67473
G1 X-39.146 Y-48.977 E35.71686
G1 X-36.341 Y-47.414 E35.82696
G1 X-33.518 Y-45.743 E35.93942
G1 X-30.770 Y-44.019 E36.05063
G1 X-27.696 Y-41.972 E36.17724
G1 X-25.413 Y-40.361 E36.27305
G1 X-22.836 Y-38.451 E36.38301
G1 X-20.281 Y-36.453 E36.49422
G1 X-17.778 Y-34.390 E36.60543
G1 X-15.329 Y-32.262 E36.71664
G1 X-13.849 Y-30.907 E36.78545
G1 X-13.630 Y-30.822 E36.79348
G1 X49.815 Y-30.822 E38.96864
G1 X51.003 Y-30.228 E39.01416
G1 X57.674 Y-21.332 E39.39541
G1 X57.963 Y-20.466 E39.42670
G1 X57.963 Y20.446 E40.82933
G1 X57.674 Y21.312 E40.86063
G1 X51.002 Y30.208 E41.24185
G1 X49.815 Y30.802 E41.28737
G1 X9.240 Y30.802 E42.67845
G1 X9.180 Y30.177 F7800.000
G1 X-13.874 Y30.177 E43.46884 F1800.000
G1 X-14.093 Y30.262 E43.47687
G1 X-15.745 Y31.771 E43.55361
G1 X-18.161 Y33.868 E43.66327
G1 X-20.674 Y35.937 E43.77488
G1 X-23.217 Y37.924 E43.88552
G1 X-25.788 Y39.827 E43.99518
G1 X-28.034 Y41.411 E44.08941
G1 X-31.143 Y43.480 E44.21742
G1 X-33.877 Y45.194 E44.32806
G1 X-36.630 Y46.823 E44.43773
G1 X-38.340 Y47.776 E44.50487
G1 X-38.623 Y47.966 E44.51654
G1 X-39.436 Y48.388 E44.54794
G1 X-40.174 Y48.821 E44.57728
G1 X-40.342 Y48.901 E44.58365
G1 X-42.242 Y49.608 E44.65317
G1 X-44.210 Y50.034 E44.72218
G1 X-46.216 Y50.177 E44.79115
G1 X-48.210 Y50.036 E44.85969
G1 X-50.164 Y49.617 E44.92819
G1 X-52.040 Y48.925 E44.99675
G1 X-53.800 Y47.977 E45.06528
G1 X-55.408 Y46.790 E45.13381
G1 X-56.992 Y45.250 E45.20956
G1 X-57.338 Y44.433 E45.23995
G1 X-57.338 Y-44.454 E48.28735
G1 X-56.992 Y-45.271 E48.31777
G1 X-55.432 Y-46.784 E48.39226
G1 X-53.861 Y-47.948 E48.45930
G1 X-52.145 Y-48.884 E48.52633
G1 X-50.316 Y-49.575 E48.59337
G1 X-48.409 Y-50.008 E48.66041
G1 X-46.458 Y-50.174 E48.72751
G1 X-46.201 Y-50.169 E48.73634
G1 X-44.255 Y-50.037 E48.80321 F1800.000
G1 X-42.399 Y-49.647 E48.86824
G1 X-40.476 Y-48.952 E48.93832
G1 X-39.446 Y-48.429 E48.97795
G1 X-36.648 Y-46.870 E49.08774
G1 X-33.846 Y-45.212 E49.19936
G1 X-31.112 Y-43.497 E49.31002
G1 X-28.030 Y-41.443 E49.43699
G1 X-25.782 Y-39.857 E49.53133
G1 X-23.211 Y-37.952 E49.64102
G1 X-20.669 Y-35.963 E49.75167
G1 X-18.178 Y-33.910 E49.86233
G1 X-15.742 Y-31.793 E49.97298
G1 X-14.091 Y-30.282 E50.04970
G1 X-13.873 Y-30.197 E50.05774
G1 X49.668 Y-30.197 E52.23616
G1 X50.591 Y-29.735 E52.27156
G1 X57.113 Y-21.038 E52.64428
G1 X57.338 Y-20.364 E52.66862
G1 X57.338 Y20.345 E54.06430
G1 X57.113 Y21.019 E54.08864
G1 X50.591 Y29.715 E54.46133
G1 X49.667 Y30.177 E54.49674
G1 X9.240 Y30.177 E55.88275
G1 X9.180 Y29.552 F7800.000
G1 X-14.117 Y29.552 E56.68146 F1800.000
G1 X-14.335 Y29.637 E56.68949
G1 X-16.158 Y31.302 E56.77413
G1 X-18.568 Y33.393 E56.88352
G1 X-21.062 Y35.447 E56.99430
G1 X-23.592 Y37.424 E57.10438
G1 X-26.157 Y39.323 E57.21377
G1 X-28.267 Y40.813 E57.30235
G1 X-31.478 Y42.953 E57.43463
G1 X-34.198 Y44.658 E57.54472
G1 X-36.945 Y46.283 E57.65411
G1 X-38.682 Y47.251 E57.72231
G1 X-38.934 Y47.424 E57.73276
G1 X-39.738 Y47.841 E57.76382
G1 X-40.468 Y48.269 E57.79282
G1 X-42.400 Y49.002 E57.86369
G1 X-44.280 Y49.413 E57.92965
G1 X-46.198 Y49.552 E57.99558
G1 X-48.104 Y49.420 E58.06109
G1 X-49.972 Y49.021 E58.12658
G1 X-51.766 Y48.363 E58.19210
G1 X-53.449 Y47.459 E58.25761
G1 X-54.988 Y46.327 E58.32311
G1 X-56.466 Y44.890 E58.39378
G1 X-56.713 Y44.306 E58.41549
G1 X-56.713 Y-44.327 E61.45420
G1 X-56.466 Y-44.911 E61.47593
G1 X-54.930 Y-46.390 E61.54902
G1 X-53.509 Y-47.431 E61.60941
G1 X-51.867 Y-48.324 E61.67349
G1 X-50.118 Y-48.982 E61.73757
G1 X-48.295 Y-49.393 E61.80165
G1 X-46.320 Y-49.550 E61.86956
G1 X-44.361 Y-49.421 E61.93686 F1800.000
G1 X-42.549 Y-49.040 E62.00034
G1 X-40.710 Y-48.372 E62.06742
G1 X-39.746 Y-47.880 E62.10454
G1 X-36.956 Y-46.326 E62.21402
G1 X-34.175 Y-44.680 E62.32481
G1 X-31.454 Y-42.974 E62.43492
G1 X-28.364 Y-40.914 E62.56226
G1 X-26.150 Y-39.352 E62.65512
G1 X-23.587 Y-37.452 E62.76453
G1 X-21.057 Y-35.474 E62.87463
G1 X-18.579 Y-33.431 E62.98473
G1 X-16.155 Y-31.324 E63.09483
G1 X-14.334 Y-29.657 E63.17946
G1 X-14.116 Y-29.572 E63.18749
G1 X49.520 Y-29.572 E65.36919
G1 X50.180 Y-29.242 E65.39447
G1 X56.553 Y-20.744 E65.75866
G1 X56.713 Y-20.263 E65.77604
G1 X56.713 Y20.244 E67.16477
G1 X56.553 Y20.725 E67.18216
G1 X50.180 Y29.222 E67.54632
G1 X49.520 Y29.552 E67.57160
G1 X9.240 Y29.552 E68.95256
G1 X9.180 Y28.927 F7800.000
G1 X-14.360 Y28.927 E69.75959 F1800.000
G1 X-14.578 Y29.012 E69.76761
G1 X-16.570 Y30.833 E69.86016
G1 X-18.974 Y32.919 E69.96928
G1 X-21.450 Y34.957 E70.07922
G1 X-23.968 Y36.924 E70.18876
G1 X-26.525 Y38.818 E70.29787
G1 X-28.641 Y40.311 E70.38666
G1 X-31.813 Y42.426 E70.51735
G1 X-34.520 Y44.122 E70.62688
G1 X-37.259 Y45.743 E70.73600
G1 X-39.024 Y46.727 E70.80525
G1 X-39.245 Y46.881 E70.81449
G1 X-40.040 Y47.294 E70.84522
G1 X-40.761 Y47.717 E70.87387
G1 X-42.557 Y48.397 E70.93973
G1 X-44.350 Y48.791 E71.00264
G1 X-46.179 Y48.927 E71.06554
G1 X-47.998 Y48.804 E71.12803
G1 X-49.780 Y48.426 E71.19050
G1 X-51.492 Y47.801 E71.25299
G1 X-53.099 Y46.941 E71.31547
G1 X-54.569 Y45.863 E71.37795
G1 X-55.940 Y44.530 E71.44352
G1 X-56.088 Y44.180 E71.45655
G1 X-56.088 Y-44.200 E74.48657
G1 X-55.940 Y-44.551 E74.49961
G1 X-54.544 Y-45.899 E74.56614
G1 X-53.157 Y-46.914 E74.62505
G1 X-51.590 Y-47.763 E74.68617
G1 X-49.920 Y-48.389 E74.74729
G1 X-48.181 Y-48.778 E74.80842
G1 X-46.278 Y-48.922 E74.87382
G1 X-44.467 Y-48.804 E74.93604 F1800.000
G1 X-42.700 Y-48.433 E74.99796
G1 X-40.944 Y-47.793 E75.06204
G1 X-40.045 Y-47.332 E75.09665
G1 X-37.264 Y-45.782 E75.20583
G1 X-34.503 Y-44.149 E75.31579
G1 X-31.797 Y-42.451 E75.42533
G1 X-28.697 Y-40.385 E75.55304
G1 X-26.519 Y-38.848 E75.64443
G1 X-23.962 Y-36.952 E75.75356
G1 X-21.445 Y-34.984 E75.86311
G1 X-18.980 Y-32.951 E75.97265
G1 X-16.568 Y-30.855 E76.08220
G1 X-14.577 Y-29.032 E76.17474
G1 X-14.359 Y-28.948 E76.18277
G1 X49.372 Y-28.947 E78.36773
G1 X49.768 Y-28.750 E78.38291
G1 X55.992 Y-20.450 E78.73855
G1 X56.088 Y-20.162 E78.74898
G1 X56.088 Y20.142 E80.13077
G1 X55.992 Y20.431 E80.14120
G1 X49.768 Y28.729 E80.49682
G1 X49.372 Y28.927 E80.51200
G1 X9.240 Y28.927 E81.88790
G1 X9.180 Y28.302 F7800.000
G1 X-14.602 Y28.302 E82.70324 F1800.000
G1 X-14.820 Y28.387 E82.71126
G1 X-16.983 Y30.364 E82.81171
G1 X-19.381 Y32.444 E82.92055
G1 X-21.838 Y34.468 E83.02967
G1 X-24.343 Y36.424 E83.13865
G1 X-26.894 Y38.313 E83.24749
G1 X-29.015 Y39.810 E83.33648
G1 X-32.149 Y41.898 E83.46558
G1 X-34.842 Y43.587 E83.57456
G1 X-37.574 Y45.203 E83.68340
G1 X-39.366 Y46.202 E83.75372
G1 X-39.556 Y46.338 E83.76174
G1 X-40.343 Y46.747 E83.79214
G1 X-41.055 Y47.164 E83.82045
G1 X-42.715 Y47.792 E83.88130
G1 X-44.420 Y48.170 E83.94116
G1 X-46.161 Y48.302 E84.00103
G1 X-47.891 Y48.188 E84.06048
G1 X-49.588 Y47.831 E84.11994
G1 X-51.218 Y47.239 E84.17940
G1 X-52.749 Y46.423 E84.23885
G1 X-54.149 Y45.400 E84.29831
G1 X-55.414 Y44.170 E84.35879
G1 X-55.463 Y44.053 E84.36313
G1 X-55.463 Y-44.074 E87.38447
G1 X-55.414 Y-44.190 E87.38882
G1 X-54.157 Y-45.407 E87.44879
G1 X-52.806 Y-46.397 E87.50621
G1 X-51.313 Y-47.203 E87.56438
G1 X-49.723 Y-47.795 E87.62255
G1 X-48.067 Y-48.163 E87.68071
G1 X-46.353 Y-48.300 E87.73964
G1 X-44.596 Y-48.191 E87.80000 F1800.000
G1 X-42.851 Y-47.826 E87.86113
G1 X-41.160 Y-47.205 E87.92288
G1 X-40.345 Y-46.784 E87.95433
G1 X-37.568 Y-45.236 E88.06333
G1 X-34.835 Y-43.619 E88.17219
G1 X-32.142 Y-41.930 E88.28118
G1 X-29.011 Y-39.842 E88.41022
G1 X-26.888 Y-38.343 E88.49930
G1 X-24.334 Y-36.450 E88.60829
G1 X-21.830 Y-34.492 E88.71729
G1 X-19.380 Y-32.472 E88.82614
G1 X-16.981 Y-30.386 E88.93513
G1 X-14.820 Y-28.408 E89.03558
G1 X-14.602 Y-28.323 E89.04361
G1 X49.225 Y-28.323 E91.23185
G1 X49.357 Y-28.257 E91.23690
G1 X55.431 Y-20.157 E91.58402
G1 X55.463 Y-20.060 E91.58749
G1 X55.463 Y20.041 E92.96233
G1 X55.431 Y20.137 E92.96581
G1 X49.357 Y28.236 E93.31289
G1 X49.225 Y28.302 E93.31795
G1 X9.240 Y28.302 E94.68879
G1 E92.68879 F2400.00000
G92 E0
G1 X-54.800 Y-19.688 F7800.000
G1 E2.00000 F2400.00000
G1 X-54.800 Y-43.862 E2.82880 F900.000
G1 X-53.737 Y-44.894 E2.87958
G1 X-52.442 Y-45.842 E2.93461
G1 X-51.029 Y-46.603 E2.98964
G1 X-49.525 Y-47.162 E3.04467
G1 X-47.958 Y-47.509 E3.09968
G1 X-46.333 Y-47.635 E3.15555
G1 X-44.674 Y-47.532 E3.21255
G1 X-43.023 Y-47.185 E3.27039 F900.000
G1 X-41.436 Y-46.602 E3.32836
G1 X-40.661 Y-46.201 E3.35827
G1 X-37.900 Y-44.663 E3.46664
G1 X-35.178 Y-43.053 E3.57505
G1 X-32.500 Y-41.373 E3.68345
G1 X-29.865 Y-39.624 E3.79186
G1 X-27.277 Y-37.807 E3.90026
G1 X-24.737 Y-35.924 E4.00866
G1 X-22.246 Y-33.977 E4.11707
G1 X-19.807 Y-31.965 E4.22547
G1 X-17.421 Y-29.890 E4.33388
G1 X-14.985 Y-27.660 E4.44710
G1 X48.976 Y-27.660 E6.63994
G1 X54.801 Y-19.893 E6.97278
G1 X54.801 Y19.874 E8.33615
G1 X48.976 Y27.640 E8.66897
G1 X-14.985 Y27.640 E10.86180
G1 X-17.422 Y29.867 E10.97500
G1 X-19.810 Y31.940 E11.08340
G1 X-22.251 Y33.949 E11.19179
G1 X-24.742 Y35.896 E11.30018
G1 X-27.283 Y37.777 E11.40858
G1 X-29.872 Y39.592 E11.51697
G1 X-32.506 Y41.340 E11.62536
G1 X-35.185 Y43.020 E11.73376
G1 X-37.906 Y44.630 E11.84215
G1 X-39.747 Y45.656 E11.91440
G1 X-39.898 Y45.770 E11.92091
G1 X-40.670 Y46.170 E11.95073
G1 X-41.353 Y46.571 E11.97788
G1 X-42.894 Y47.153 E12.03435
G1 X-44.506 Y47.512 E12.09098
G1 X-46.154 Y47.639 E12.14762
G1 X-47.791 Y47.532 E12.20386
G1 X-49.396 Y47.196 E12.26011
G1 X-50.939 Y46.637 E12.31635
G1 X-52.387 Y45.867 E12.37260
G1 X-53.713 Y44.900 E12.42884
G1 X-54.800 Y43.842 E12.48087
G1 X-54.800 Y-19.628 E14.65685
G1 X-54.454 Y-19.888 F7800.000
G1 X-54.176 Y-19.688 F7800.000
G1 X-54.176 Y-43.598 E15.47659 F1800.000
G1 X-53.333 Y-44.415 E15.51683
G1 X-52.108 Y-45.312 E15.56889
G1 X-50.771 Y-46.032 E15.62095
G1 X-49.348 Y-46.561 E15.67302
G1 X-47.866 Y-46.889 E15.72505
G1 X-46.329 Y-47.009 E15.77791
G1 X-44.758 Y-46.911 E15.83186
G1 X-43.196 Y-46.583 E15.88659 F1800.000
G1 X-41.688 Y-46.029 E15.94165
G1 X-40.957 Y-45.651 E15.96990
G1 X-38.211 Y-44.121 E16.07765
G1 X-35.504 Y-42.519 E16.18550
G1 X-32.839 Y-40.847 E16.29335
G1 X-30.218 Y-39.108 E16.40120
G1 X-27.643 Y-37.300 E16.50905
G1 X-25.116 Y-35.427 E16.61690
G1 X-22.638 Y-33.489 E16.72475
G1 X-20.211 Y-31.488 E16.83260
G1 X-17.837 Y-29.424 E16.94045
G1 X-15.228 Y-27.035 E17.06172
G1 X48.664 Y-27.035 E19.25218
G1 X54.176 Y-19.685 E19.56717
