; generated by Slic3r 1.2.9 on 2016-03-04 at 13:58:13

; external perimeters extrusion width = 0.40mm
; perimeters extrusion width = 0.48mm
; infill extrusion width = 0.48mm
; solid infill extrusion width = 0.48mm
; top infill extrusion width = 0.48mm

M107
M190 S70 ; set bed temperature
M104 S210 ; set temperature
G28 ; home all axes
G1 Z5 F5000 ; lift nozzle

M109 S210 ; wait for temperature to be reached
G21 ; set units to millimeters
G90 ; use absolute coordinates
M82 ; use absolute distances for extrusion
G92 E0
G1 Z0.350 F7800.000
G1 E-2.00000 F2400.00000
G92 E0
G1 X-17.391 Y-10.902 F7800.000
G1 E2.00000 F2400.00000
G1 X-14.989 Y-14.735 E2.15508 F1800.000
G1 X-14.744 Y-15.098 E2.17011
G1 X-13.371 Y-16.513 E2.23769
G1 X-12.580 Y-17.117 E2.27182
G1 X-10.601 Y-18.152 E2.34839
G1 X-1.996 Y-20.935 E2.65844
G1 X0.283 Y-21.252 E2.73732
G1 X1.312 Y-21.214 E2.77263
G1 X3.562 Y-20.733 E2.85151 F1800.000
G1 X11.942 Y-17.333 E3.16156
G1 X13.892 Y-16.111 E3.24044
G1 X14.656 Y-15.420 E3.27576
G1 X16.070 Y-13.605 E3.35464
G1 X20.304 Y-5.614 E3.66468
G1 X21.012 Y-3.425 E3.74357
G1 X21.154 Y-2.405 E3.77888
G1 X21.070 Y-0.106 E3.85776
G1 X19.081 Y9.128 E4.18159
G1 X18.266 Y10.962 E4.25040
G1 X17.728 Y11.800 E4.28453
G1 X16.223 Y13.450 E4.36109
G1 X9.089 Y19.007 E4.67114
G1 X8.734 Y19.265 E4.68618
G1 X6.961 Y20.126 E4.75375
G1 X6.011 Y20.422 E4.78788
G1 X3.797 Y20.718 E4.86445
G1 X-5.241 Y20.390 E5.17450
G1 X-7.491 Y19.908 E5.25338
G1 X-8.445 Y19.521 E5.28869
G1 X-10.394 Y18.299 E5.36757
G1 X-17.106 Y12.238 E5.67762
G1 X-18.520 Y10.423 E5.75650
G1 X-19.002 Y9.513 E5.79181
G1 X-19.710 Y7.324 E5.87069
G1 X-20.956 Y-1.634 E6.18074
G1 X-21.002 Y-2.070 E6.19577
G1 X-20.861 Y-4.036 E6.26335
G1 X-20.642 Y-5.007 E6.29748
G1 X-19.792 Y-7.072 E6.37405
G1 X-17.423 Y-10.851 E6.52695
G1 E4.52695 F2400.00000
G92 E0
G1 X-15.209 Y-6.900 F7800.000
G1 E2.00000 F2400.00000
G1 X-13.844 Y-7.442 E2.05034 F1800.000
G1 X-12.772 Y-7.713 E2.08826
G1 X-12.505 Y-8.129 E2.10519
G1 X-12.630 Y-8.806 E2.12880
G1 X-12.716 Y-9.123 E2.14006
G1 X-12.782 Y-10.209 E2.17738
G1 X-12.829 Y-10.585 E2.19034
G1 X-12.799 Y-11.815 E2.23255
G1 X-12.471 Y-12.795 E2.26795
G1 X-12.001 Y-13.453 E2.29571
G1 X-11.643 Y-13.822 E2.31333
G1 X-10.025 Y-15.056 E2.38309
G1 X-8.493 Y-15.373 E2.43672
G1 X-7.513 Y-15.129 E2.47133
G1 X-7.307 Y-15.099 E2.47848
G1 X-6.270 Y-14.747 E2.51601
G1 X-5.933 Y-14.663 E2.52793
G1 X-5.047 Y-14.235 E2.56166
G1 X-4.779 Y-14.132 E2.57152
G1 X-4.344 Y-14.289 E2.58736
G1 X-3.788 Y-15.295 E2.62678
G1 X-3.009 Y-16.367 E2.67220
G1 X-2.019 Y-17.490 E2.72353
G1 X-0.579 Y-18.101 E2.77716
G1 X0.633 Y-18.044 E2.81876
G1 X1.238 Y-18.186 E2.84007
G1 X3.228 Y-17.471 E2.91256
G1 X3.984 Y-16.432 E2.95661 F1800.000
G1 X4.123 Y-16.276 E2.96375
G1 X4.690 Y-15.340 E3.00129
G1 X4.895 Y-15.059 E3.01320
G1 X5.298 Y-14.162 E3.04694
G1 X5.438 Y-13.910 E3.05679
G1 X5.871 Y-13.751 E3.07263
G1 X6.945 Y-14.164 E3.11205
G1 X8.230 Y-14.485 E3.15748
G1 X9.710 Y-14.709 E3.20881
G1 X11.206 Y-14.251 E3.26244
G1 X12.098 Y-13.429 E3.30403
G1 X12.405 Y-13.267 E3.31592
G1 X13.385 Y-12.047 E3.36956
G1 X13.625 Y-11.019 E3.40576
G1 X13.666 Y-10.507 E3.42338
G1 X13.629 Y-9.722 E3.45030
G1 X13.416 Y-8.270 E3.50064
G1 X13.115 Y-7.205 E3.53856
G1 X13.341 Y-6.767 E3.55549
G1 X13.990 Y-6.536 E3.57909
G1 X14.308 Y-6.453 E3.59036
G1 X15.304 Y-5.955 E3.62854
G1 X15.551 Y-5.861 E3.63760
G1 X15.829 Y-5.708 E3.64846
G1 X16.323 Y-5.582 E3.66593
G1 X17.724 Y-3.999 E3.73842
G1 X17.914 Y-2.523 E3.78945
G1 X18.045 Y-2.202 E3.80133
G1 X18.012 Y-0.638 E3.85496
G1 X17.535 Y0.304 E3.89115
G1 X17.237 Y0.723 E3.90878
G1 X16.705 Y1.300 E3.93571
G1 X15.607 Y2.276 E3.98604
G1 X14.692 Y2.898 E4.02397
G1 X14.584 Y3.379 E4.04090
G1 X14.933 Y3.973 E4.06450
G1 X15.123 Y4.241 E4.07577
G1 X15.566 Y5.263 E4.11395
G1 X15.695 Y5.494 E4.12301
G1 X15.766 Y5.706 E4.13068
G1 X15.946 Y5.979 E4.14190
G1 X16.220 Y7.519 E4.19553
G1 X15.931 Y8.555 E4.23240
G1 X15.721 Y9.025 E4.25003
G1 X14.766 Y10.513 E4.31067
G1 X13.978 Y11.180 E4.34606
G1 X13.252 Y11.491 E4.37315
G1 X12.754 Y11.621 E4.39078
G1 X11.971 Y11.704 E4.41778
G1 X10.989 Y11.730 E4.45146
G1 X10.643 Y11.767 E4.46338
G1 X9.664 Y11.668 E4.49711
G1 X9.377 Y11.663 E4.50697
G1 X9.022 Y11.959 E4.52281
G1 X8.843 Y13.095 E4.56223
G1 X8.479 Y14.369 E4.60765
G1 X8.029 Y15.515 E4.64987
G1 X7.387 Y16.324 E4.68527
G1 X6.719 Y16.781 E4.71302
G1 X6.257 Y17.006 E4.73065
G1 X4.314 Y17.612 E4.80040
G1 X2.767 Y17.385 E4.85404
G1 X1.929 Y16.822 E4.88865
G1 X1.746 Y16.723 E4.89580
G1 X0.892 Y16.037 E4.93333
G1 X0.604 Y15.843 E4.94524
G1 X-0.082 Y15.137 E4.97898
G1 X-0.299 Y14.949 E4.98883
G1 X-0.761 Y14.948 E5.00467
G1 X-1.628 Y15.703 E5.04409
G1 X-2.727 Y16.444 E5.08952
G1 X-4.041 Y17.161 E5.14085
G1 X-5.603 Y17.242 E5.19448
G1 X-6.723 Y16.774 E5.23607
G1 X-7.340 Y16.700 E5.25739
G1 X-8.965 Y15.348 E5.32988
G1 X-9.320 Y14.113 E5.37392
G1 X-9.397 Y13.920 E5.38107
G1 X-9.610 Y12.846 E5.41860
G1 X-9.706 Y12.512 E5.43052
G1 X-9.813 Y11.262 E5.47350
G1 X-10.173 Y10.939 E5.49009
G1 X-10.858 Y10.945 E5.51359
G1 X-11.185 Y10.975 E5.52485
G1 X-12.292 Y10.848 E5.56303
G1 X-12.556 Y10.844 E5.57209
G1 X-12.869 Y10.795 E5.58295
G1 X-13.376 Y10.846 E5.60041
G1 X-15.234 Y9.838 E5.67291
G1 X-15.918 Y8.516 E5.72394
G1 X-16.150 Y8.259 E5.73582
G1 X-16.654 Y6.778 E5.78945
G1 X-16.528 Y5.730 E5.82565
G1 X-16.392 Y5.234 E5.84328
G1 X-16.089 Y4.509 E5.87020
G1 X-15.391 Y3.217 E5.92053
G1 X-14.744 Y2.320 E5.95846
G1 X-14.807 Y1.830 E5.97539
G1 X-15.338 Y1.392 E5.99899
G1 X-15.608 Y1.205 E6.01026
G1 X-16.374 Y0.396 E6.04844
G1 X-16.574 Y0.224 E6.05750
G1 X-16.714 Y0.049 E6.06518
G1 X-16.976 Y-0.147 E6.07639
G1 X-17.760 Y-1.501 E6.13002
G1 X-17.844 Y-2.573 E6.16689
G1 X-17.807 Y-3.086 E6.18452
G1 X-17.419 Y-4.811 E6.24516
G1 X-16.906 Y-5.708 E6.28056
G1 X-16.330 Y-6.248 E6.30765
G1 X-15.906 Y-6.540 E6.32527
G1 X-15.261 Y-6.870 E6.35014
G1 X-14.939 Y-6.334 F7800.000
G1 X-13.645 Y-6.847 E6.39786 F1800.000
G1 X-12.456 Y-7.158 E6.44001
G1 X-12.047 Y-7.210 E6.45414
G1 X-11.736 Y-7.744 E6.47533
G1 X-11.849 Y-8.016 E6.48542
G1 X-12.020 Y-8.946 E6.51784
G1 X-12.097 Y-9.226 E6.52779
G1 X-12.160 Y-10.267 E6.56354
G1 X-12.203 Y-10.616 E6.57559
G1 X-12.176 Y-11.706 E6.61298
G1 X-11.909 Y-12.508 E6.64195
G1 X-11.520 Y-13.052 E6.66488
G1 X-11.227 Y-13.354 E6.67930
G1 X-9.759 Y-14.473 E6.74258
G1 X-8.506 Y-14.732 E6.78646
G1 X-7.631 Y-14.515 E6.81735
G1 X-7.451 Y-14.488 E6.82358
G1 X-6.446 Y-14.146 E6.86000
G1 X-6.146 Y-14.071 E6.87061
G1 X-5.294 Y-13.660 E6.90303
G1 X-5.023 Y-13.556 E6.91297
G1 X-4.585 Y-13.274 E6.93084
G1 X-4.020 Y-13.459 E6.95122
G1 X-3.860 Y-13.876 E6.96651
G1 X-3.258 Y-14.960 E7.00905
G1 X-2.509 Y-15.989 E7.05266
G1 X-1.645 Y-16.970 E7.09751
G1 X-0.466 Y-17.470 E7.14139
G1 X0.698 Y-17.416 E7.18134
G1 X1.208 Y-17.533 E7.19928
G1 X2.836 Y-16.948 E7.25859 F1800.000
G1 X3.499 Y-16.037 E7.29719
G1 X3.619 Y-15.901 E7.30343
G1 X4.170 Y-14.993 E7.33985
G1 X4.352 Y-14.743 E7.35045
G1 X4.740 Y-13.880 E7.38288
G1 X4.880 Y-13.627 E7.39282
G1 X5.035 Y-13.129 E7.41068
G1 X5.586 Y-12.907 E7.43106
G1 X5.977 Y-13.123 E7.44636
G1 X7.135 Y-13.567 E7.48890
G1 X8.370 Y-13.874 E7.53251
G1 X9.663 Y-14.070 E7.57736
G1 X10.887 Y-13.695 E7.62124
G1 X11.744 Y-12.905 E7.66118
G1 X12.007 Y-12.764 E7.67142
G1 X12.809 Y-11.767 E7.71530
G1 X13.006 Y-10.922 E7.74502
G1 X13.040 Y-10.503 E7.75944
G1 X13.005 Y-9.772 E7.78455
G1 X12.802 Y-8.395 E7.83227
G1 X12.476 Y-7.209 E7.87441
G1 X12.317 Y-6.829 E7.88855
G1 X12.624 Y-6.293 E7.90974
G1 X12.916 Y-6.255 E7.91982
G1 X13.807 Y-5.938 E7.95224
G1 X14.088 Y-5.864 E7.96220
G1 X15.055 Y-5.381 E7.99926
G1 X15.277 Y-5.296 E8.00742
G1 X15.497 Y-5.162 E8.01626
G1 X15.982 Y-5.024 E8.03354
G1 X17.129 Y-3.729 E8.09285
G1 X17.306 Y-2.350 E8.14050
G1 X17.417 Y-2.073 E8.15074
G1 X17.390 Y-0.794 E8.19461
G1 X16.999 Y-0.020 E8.22433
G1 X16.755 Y0.323 E8.23876
G1 X16.258 Y0.861 E8.26386
G1 X15.217 Y1.785 E8.31158
G1 X14.206 Y2.484 E8.35373
G1 X13.839 Y2.673 E8.36787
G1 X13.730 Y3.281 E8.38906
G1 X13.929 Y3.498 E8.39914
G1 X14.408 Y4.313 E8.43156
G1 X14.576 Y4.550 E8.44151
G1 X15.006 Y5.542 E8.47858
G1 X15.122 Y5.750 E8.48673
G1 X15.204 Y5.994 E8.49557
G1 X15.356 Y6.229 E8.50514
G1 X15.580 Y7.489 E8.54902
G1 X15.342 Y8.343 E8.57941
G1 X15.170 Y8.727 E8.59383
G1 X14.291 Y10.097 E8.64965
G1 X13.646 Y10.643 E8.67861
G1 X13.049 Y10.898 E8.70087
G1 X12.642 Y11.004 E8.71530
G1 X11.918 Y11.081 E8.74025
G1 X10.948 Y11.106 E8.77352
G1 X10.641 Y11.139 E8.78412
G1 X9.700 Y11.043 E8.81654
G1 X9.410 Y11.038 E8.82649
G1 X8.902 Y10.923 E8.84435
G1 X8.434 Y11.290 E8.86473
G1 X8.426 Y11.736 E8.88002
G1 X8.231 Y12.962 E8.92256
G1 X7.880 Y14.184 E8.96617
G1 X7.482 Y15.200 E9.00356
G1 X6.956 Y15.861 E9.03253
G1 X6.405 Y16.240 E9.05546
G1 X6.026 Y16.423 E9.06988
G1 X4.264 Y16.973 E9.13316
G1 X2.998 Y16.788 E9.17704
G1 X2.250 Y16.285 E9.20793
G1 X2.090 Y16.198 E9.21417
G1 X1.263 Y15.532 E9.25059
G1 X1.006 Y15.360 E9.26118
G1 X0.347 Y14.682 E9.29361
G1 X0.127 Y14.492 E9.30355
G1 X-0.188 Y14.077 E9.32142
G1 X-0.782 Y14.057 E9.34180
G1 X-1.075 Y14.394 E9.35709
G1 X-2.012 Y15.207 E9.39963
G1 X-3.067 Y15.918 E9.44325
G1 X-4.215 Y16.544 E9.48810
G1 X-5.493 Y16.611 E9.53197
G1 X-6.568 Y16.161 E9.57192
G1 X-7.088 Y16.097 E9.58986
G1 X-8.418 Y14.990 E9.64917
G1 X-8.729 Y13.908 E9.68777
G1 X-8.796 Y13.739 E9.69401
G1 X-9.002 Y12.697 E9.73043
G1 X-9.088 Y12.400 E9.74103
G1 X-9.205 Y11.059 E9.78717
G1 X-9.185 Y10.650 E9.80121
G1 X-9.615 Y10.254 E9.82123
G1 X-10.156 Y10.314 E9.83990
G1 X-10.890 Y10.320 E9.86509
G1 X-11.179 Y10.347 E9.87504
G1 X-12.254 Y10.223 E9.91211
G1 X-12.491 Y10.220 E9.92026
G1 X-12.744 Y10.169 E9.92910
G1 X-13.247 Y10.205 E9.94637
G1 X-14.767 Y9.380 E10.00569
G1 X-15.406 Y8.145 E10.05335
G1 X-15.604 Y7.923 E10.06358
G1 X-16.017 Y6.711 E10.10746
G1 X-15.913 Y5.851 E10.13718
G1 X-15.802 Y5.445 E10.15160
G1 X-15.519 Y4.769 E10.17671
G1 X-14.857 Y3.545 E10.22443
G1 X-14.146 Y2.542 E10.26657
G1 X-13.866 Y2.240 E10.28071
G1 X-13.972 Y1.631 E10.30190
G1 X-14.232 Y1.495 E10.31198
G1 X-14.962 Y0.892 E10.34441
G1 X-15.200 Y0.727 E10.35436
G1 X-15.944 Y-0.058 E10.39142
G1 X-16.124 Y-0.213 E10.39958
G1 X-16.284 Y-0.415 E10.40842
G1 X-16.507 Y-0.583 E10.41798
G1 X-17.148 Y-1.691 E10.46186
G1 X-17.217 Y-2.574 E10.49225
G1 X-17.187 Y-2.994 E10.50667
G1 X-16.830 Y-4.583 E10.56250
G1 X-16.410 Y-5.316 E10.59146
G1 X-15.936 Y-5.760 E10.61372
G1 X-15.590 Y-5.999 E10.62815
G1 X-14.991 Y-6.305 E10.65120
G1 X-14.670 Y-5.769 F7800.000
G1 X-13.447 Y-6.253 E10.69630 F1800.000
G1 X-12.331 Y-6.544 E10.73583
G1 X-11.222 Y-6.685 E10.77415
G1 X-10.907 Y-7.176 E10.79417
G1 X-11.158 Y-7.979 E10.82299
G1 X-11.246 Y-8.194 E10.83098
G1 X-11.411 Y-9.087 E10.86209
G1 X-11.477 Y-9.330 E10.87072
G1 X-11.537 Y-10.325 E10.90491
G1 X-11.577 Y-10.648 E10.91605
G1 X-11.554 Y-11.597 E10.94862
G1 X-11.346 Y-12.221 E10.97115
G1 X-11.038 Y-12.650 E10.98926
G1 X-10.811 Y-12.885 E11.00048
G1 X-9.493 Y-13.890 E11.05728
G1 X-8.518 Y-14.092 E11.09141
G1 X-7.596 Y-13.878 E11.12387
G1 X-6.621 Y-13.546 E11.15918
G1 X-6.358 Y-13.480 E11.16847
G1 X-5.541 Y-13.085 E11.19958
G1 X-5.306 Y-12.995 E11.20821
G1 X-4.663 Y-12.582 E11.23441
G1 X-4.243 Y-12.360 E11.25071
G1 X-3.725 Y-12.547 E11.26959
G1 X-3.294 Y-13.608 E11.30886
G1 X-2.728 Y-14.626 E11.34879
G1 X-2.010 Y-15.611 E11.39058
G1 X-1.270 Y-16.451 E11.42895
G1 X-0.353 Y-16.839 E11.46308
G1 X0.763 Y-16.787 E11.50138
G1 X1.178 Y-16.880 E11.51596
G1 X2.444 Y-16.425 E11.56209
G1 X3.013 Y-15.643 E11.59524 F1800.000
G1 X3.116 Y-15.526 E11.60057
G1 X3.650 Y-14.645 E11.63588
G1 X3.809 Y-14.426 E11.64517
G1 X4.181 Y-13.598 E11.67628
G1 X4.303 Y-13.378 E11.68491
G1 X4.530 Y-12.649 E11.71111
G1 X4.709 Y-12.208 E11.72741
G1 X5.226 Y-12.019 E11.74629
G1 X6.239 Y-12.554 E11.78556
G1 X7.326 Y-12.970 E11.82549
G1 X8.510 Y-13.263 E11.86728
G1 X9.616 Y-13.431 E11.90566
G1 X10.568 Y-13.139 E11.93979
G1 X11.389 Y-12.382 E11.97807
G1 X11.609 Y-12.262 E11.98666
G1 X12.232 Y-11.486 E12.02079
G1 X12.387 Y-10.826 E12.04403
G1 X12.413 Y-10.500 E12.05525
G1 X12.380 Y-9.821 E12.07854
G1 X12.188 Y-8.520 E12.12364
G1 X11.882 Y-7.408 E12.16317
G1 X11.455 Y-6.363 E12.20188
G1 X11.725 Y-5.857 E12.22154
G1 X12.538 Y-5.675 E12.25009
G1 X12.769 Y-5.644 E12.25807
G1 X13.624 Y-5.340 E12.28918
G1 X13.867 Y-5.276 E12.29782
G1 X14.806 Y-4.807 E12.33377
G1 X15.003 Y-4.732 E12.34102
G1 X15.252 Y-4.580 E12.35102
G1 X15.642 Y-4.466 E12.36493
G1 X16.534 Y-3.459 E12.41106
G1 X16.698 Y-2.177 E12.45535
G1 X16.789 Y-1.944 E12.46394
G1 X16.768 Y-0.949 E12.49806
G1 X16.462 Y-0.344 E12.52130
G1 X16.272 Y-0.077 E12.53252
G1 X15.811 Y0.421 E12.55581
G1 X14.827 Y1.295 E12.60092
G1 X13.878 Y1.950 E12.64045
G1 X12.880 Y2.476 E12.67916
G1 X12.761 Y3.038 E12.69882
G1 X13.267 Y3.699 E12.72737
G1 X13.424 Y3.871 E12.73535
G1 X13.883 Y4.654 E12.76646
G1 X14.029 Y4.860 E12.77510
G1 X14.446 Y5.822 E12.81105
G1 X14.549 Y6.006 E12.81829
G1 X14.642 Y6.283 E12.82829
G1 X14.765 Y6.478 E12.83621
G1 X14.940 Y7.458 E12.87034
G1 X14.752 Y8.130 E12.89425
G1 X14.619 Y8.429 E12.90547
G1 X13.816 Y9.681 E12.95647
G1 X13.314 Y10.105 E12.97899
G1 X12.846 Y10.305 E12.99643
G1 X12.530 Y10.388 E13.00765
G1 X11.866 Y10.458 E13.03055
G1 X10.908 Y10.482 E13.06340
G1 X10.638 Y10.510 E13.07269
G1 X9.735 Y10.419 E13.10380
G1 X9.484 Y10.414 E13.11243
G1 X8.738 Y10.246 E13.13863
G1 X8.267 Y10.181 E13.15493
G1 X7.845 Y10.534 E13.17381
G1 X7.802 Y11.679 E13.21309
G1 X7.619 Y12.829 E13.25301
G1 X7.281 Y14.000 E13.29481
G1 X6.934 Y14.885 E13.32738
G1 X6.525 Y15.399 E13.34991
G1 X6.090 Y15.698 E13.36802
G1 X5.795 Y15.841 E13.37923
G1 X4.214 Y16.334 E13.43603
G1 X3.229 Y16.190 E13.47016
G1 X2.435 Y15.673 E13.50263
G1 X1.633 Y15.028 E13.53794
G1 X1.408 Y14.877 E13.54722
G1 X0.775 Y14.226 E13.57833
G1 X0.585 Y14.061 E13.58697
G1 X0.123 Y13.453 E13.61317
G1 X-0.196 Y13.100 E13.62947
G1 X-0.747 Y13.099 E13.64834
G1 X-1.515 Y13.949 E13.68762
G1 X-2.395 Y14.712 E13.72754
G1 X-3.407 Y15.392 E13.76934
G1 X-4.390 Y15.928 E13.80771
G1 X-5.384 Y15.979 E13.84184
G1 X-6.414 Y15.549 E13.88013
G1 X-6.836 Y15.494 E13.89471
G1 X-7.870 Y14.633 E13.94084
G1 X-8.138 Y13.704 E13.97400
G1 X-8.195 Y13.559 E13.97933
G1 X-8.395 Y12.549 E14.01464
G1 X-8.469 Y12.288 E14.02392
G1 X-8.579 Y11.043 E14.06679
G1 X-8.535 Y9.922 E14.10524
G1 X-8.962 Y9.539 E14.12490
G1 X-10.047 Y9.680 E14.16239
G1 X-10.923 Y9.695 E14.19243
G1 X-11.174 Y9.718 E14.20107
G1 X-12.216 Y9.599 E14.23702
G1 X-12.427 Y9.595 E14.24426
G1 X-12.713 Y9.538 E14.25426
G1 X-13.118 Y9.564 E14.26817
G1 X-14.300 Y8.923 E14.31431
G1 X-14.894 Y7.775 E14.35860
G1 X-15.059 Y7.587 E14.36718
G1 X-15.379 Y6.644 E14.40131
G1 X-15.299 Y5.971 E14.42455
G1 X-15.212 Y5.656 E14.43577
G1 X-14.949 Y5.030 E14.45906
G1 X-14.323 Y3.872 E14.50416
G1 X-13.655 Y2.932 E14.54370
G1 X-12.897 Y2.096 E14.58241
G1 X-12.978 Y1.528 E14.60207
G1 X-13.679 Y1.080 E14.63061
G1 X-13.885 Y0.971 E14.63859
G1 X-14.585 Y0.393 E14.66970
G1 X-14.792 Y0.249 E14.67834
G1 X-15.513 Y-0.512 E14.71430
G1 X-15.673 Y-0.650 E14.72154
G1 X-15.855 Y-0.878 E14.73154
G1 X-16.037 Y-1.019 E14.73946
G1 X-16.536 Y-1.881 E14.77359
G1 X-16.590 Y-2.576 E14.79750
G1 X-16.567 Y-2.903 E14.80872
G1 X-16.240 Y-4.354 E14.85972
G1 X-15.914 Y-4.924 E14.88224
G1 X-15.543 Y-5.272 E14.89969
G1 X-15.274 Y-5.458 E14.91090
G1 X-14.722 Y-5.739 E14.93214
G1 X-14.400 Y-5.203 F7800.000
G1 X-13.248 Y-5.659 E14.97462 F1800.000
G1 X-12.206 Y-5.930 E15.01154
G1 X-11.344 Y-6.039 E15.04133
G1 X-10.756 Y-6.049 E15.06149
G1 X-10.276 Y-6.094 E15.07800
G1 X-9.953 Y-6.651 E15.10007
G1 X-10.353 Y-7.499 E15.13223
G1 X-10.570 Y-8.192 E15.15711
G1 X-10.644 Y-8.372 E15.16379
G1 X-10.801 Y-9.227 E15.19358
G1 X-10.857 Y-9.433 E15.20091
G1 X-10.914 Y-10.383 E15.23353
G1 X-10.951 Y-10.679 E15.24376
G1 X-10.931 Y-11.488 E15.27151
G1 X-10.783 Y-11.934 E15.28760
G1 X-10.557 Y-12.249 E15.30089
G1 X-10.395 Y-12.417 E15.30891
G1 X-9.227 Y-13.307 E15.35923
G1 X-8.531 Y-13.451 E15.38360
G1 X-7.740 Y-13.267 E15.41143
G1 X-6.796 Y-12.945 E15.44563
G1 X-6.571 Y-12.889 E15.45361
G1 X-5.788 Y-12.511 E15.48340
G1 X-5.589 Y-12.434 E15.49072
G1 X-4.978 Y-12.041 E15.51561
