; generated by Slic3r 1.2.9 on 2016-03-04 at 13:58:53

; external perimeters extrusion width = 0.40mm
; perimeters extrusion width = 0.48mm
; infill extrusion width = 0.48mm
; solid infill extrusion width = 0.48mm
; top infill extrusion width = 0.48mm

M107
M190 S70 ; set bed temperature
M104 S210 ; set temperature
G28 ; home all axes
G1 Z5 F5000 ; lift nozzle

M109 S210 ; wait for temperature to be reached
G21 ; set units to millimeters
G90 ; use absolute coordinates
M82 ; use absolute distances for extrusion
G92 E0
G1 Z0.350 F7800.000
G1 E-2.00000 F2400.00000
G92 E0
G1 X-21.022 Y0.000 F7800.000
G1 E2.00000 F2400.00000
G1 X-21.022 Y-20.234 E2.69372 F1800.000
G1 X-20.861 Y-21.688 E2.74386
G1 X-20.642 Y-22.659 E2.77799
G1 X-19.792 Y-24.724 E2.85455
G1 X-14.989 Y-32.387 E3.16460
G1 X-14.744 Y-32.750 E3.17963
G1 X-13.371 Y-34.166 E3.24721
G1 X-12.580 Y-34.769 E3.28134
G1 X-10.601 Y-35.805 E3.35791
G1 X-1.996 Y-38.587 E3.66796
G1 X0.283 Y-38.904 E3.74684
G1 X1.312 Y-38.866 E3.78215
G1 X3.562 Y-38.385 E3.86103 F1800.000
G1 X11.942 Y-34.985 E4.17108
G1 X13.892 Y-33.763 E4.24996
G1 X14.656 Y-33.073 E4.28527
G1 X16.070 Y-31.258 E4.36415
G1 X20.304 Y-23.266 E4.67420
G1 X21.012 Y-21.077 E4.75309
G1 X21.154 Y-20.057 E4.78840
G1 X21.217 Y-19.145 E4.81976
G1 X21.217 Y16.160 E6.03013
G1 X21.070 Y17.546 E6.07793
G1 X19.081 Y26.780 E6.40177
G1 X18.266 Y28.614 E6.47058
G1 X17.728 Y29.452 E6.50470
G1 X16.223 Y31.102 E6.58127
G1 X9.089 Y36.659 E6.89132
G1 X8.734 Y36.917 E6.90635
G1 X6.961 Y37.778 E6.97393
G1 X6.011 Y38.074 E7.00806
G1 X3.797 Y38.370 E7.08463
G1 X-5.241 Y38.042 E7.39468
G1 X-7.491 Y37.560 E7.47356
G1 X-8.445 Y37.173 E7.50887
G1 X-10.394 Y35.951 E7.58775
G1 X-17.106 Y29.890 E7.89780
G1 X-18.520 Y28.075 E7.97668
G1 X-19.002 Y27.165 E8.01199
G1 X-19.710 Y24.976 E8.09087
G1 X-20.956 Y16.018 E8.40092
G1 X-21.002 Y15.582 E8.41595
G1 X-21.022 Y15.070 E8.43354
G1 X-21.022 Y0.060 E8.94813
G1 E6.94813 F2400.00000
G92 E0
G1 X1.162 Y-0.514 F7800.000
G1 E2.00000 F2400.00000
G1 X1.325 Y-1.268 E2.02645 F1800.000
G1 X0.892 Y-1.615 E2.04546
G1 X0.604 Y-1.809 E2.05738
G1 X-0.082 Y-2.515 E2.09111
G1 X-0.299 Y-2.703 E2.10097
G1 X-0.761 Y-2.704 E2.11681
G1 X-1.628 Y-1.949 E2.15623
G1 X-2.727 Y-1.208 E2.20166
G1 X-4.041 Y-0.491 E2.25299
G1 X-5.603 Y-0.410 E2.30661
G1 X-6.723 Y-0.878 E2.34821
G1 X-7.340 Y-0.952 E2.36952
G1 X-8.965 Y-2.304 E2.44201
G1 X-9.320 Y-3.539 E2.48605
G1 X-9.397 Y-3.733 E2.49320
G1 X-9.610 Y-4.807 E2.53074
G1 X-9.706 Y-5.140 E2.54265
G1 X-9.813 Y-6.390 E2.58564
G1 X-10.173 Y-6.713 E2.60222
G1 X-10.858 Y-6.708 E2.62572
G1 X-11.185 Y-6.677 E2.63699
G1 X-12.292 Y-6.804 E2.67516
G1 X-12.556 Y-6.808 E2.68423
G1 X-12.869 Y-6.857 E2.69508
G1 X-13.376 Y-6.806 E2.71255
G1 X-15.234 Y-7.814 E2.78504
G1 X-15.918 Y-9.136 E2.83607
G1 X-16.150 Y-9.393 E2.84795
G1 X-16.654 Y-10.874 E2.90158
G1 X-16.528 Y-11.922 E2.93778
G1 X-16.392 Y-12.418 E2.95541
G1 X-16.089 Y-13.143 E2.98233
G1 X-15.391 Y-14.435 E3.03267
G1 X-14.744 Y-15.332 E3.07060
G1 X-14.807 Y-15.822 E3.08752
G1 X-15.338 Y-16.260 E3.11113
G1 X-15.608 Y-16.447 E3.12239
G1 X-16.374 Y-17.256 E3.16057
G1 X-16.574 Y-17.429 E3.16964
G1 X-16.714 Y-17.603 E3.17731
G1 X-16.976 Y-17.799 E3.18853
G1 X-17.760 Y-19.153 E3.24216
G1 X-17.844 Y-20.225 E3.27903
G1 X-17.807 Y-20.738 E3.29665
G1 X-17.419 Y-22.463 E3.35730
G1 X-16.906 Y-23.360 E3.39270
G1 X-16.330 Y-23.900 E3.41978
G1 X-15.906 Y-24.192 E3.43741
G1 X-15.209 Y-24.552 E3.46433
G1 X-13.844 Y-25.094 E3.51466
G1 X-12.772 Y-25.365 E3.55259
G1 X-12.505 Y-25.781 E3.56952
G1 X-12.630 Y-26.458 E3.59312
G1 X-12.716 Y-26.775 E3.60439
G1 X-12.782 Y-27.862 E3.64171
G1 X-12.829 Y-28.237 E3.65467
G1 X-12.799 Y-29.468 E3.69688
G1 X-12.471 Y-30.447 E3.73228
G1 X-12.001 Y-31.105 E3.76003
G1 X-11.643 Y-31.475 E3.77766
G1 X-10.025 Y-32.708 E3.84742
G1 X-8.493 Y-33.025 E3.90105
G1 X-7.513 Y-32.782 E3.93566
G1 X-7.307 Y-32.751 E3.94281
G1 X-6.270 Y-32.399 E3.98034
G1 X-5.933 Y-32.315 E3.99226
G1 X-5.047 Y-31.887 E4.02599
G1 X-4.779 Y-31.784 E4.03585
G1 X-4.344 Y-31.941 E4.05169
G1 X-3.788 Y-32.947 E4.09111
G1 X-3.009 Y-34.019 E4.13653
G1 X-2.019 Y-35.142 E4.18786
G1 X-0.579 Y-35.753 E4.24149
G1 X0.633 Y-35.696 E4.28309
G1 X1.238 Y-35.838 E4.30440
G1 X3.228 Y-35.123 E4.37689
G1 X3.984 Y-34.084 E4.42093
G1 X4.123 Y-33.929 E4.42808
G1 X4.690 Y-32.992 E4.46562
G1 X4.895 Y-32.711 E4.47753
G1 X5.298 Y-31.814 E4.51127
G1 X5.438 Y-31.562 E4.52112
G1 X5.871 Y-31.403 E4.53696
G1 X6.945 Y-31.816 E4.57638
G1 X8.230 Y-32.137 E4.62181
G1 X9.710 Y-32.361 E4.67314
G1 X11.206 Y-31.903 E4.72677
G1 X12.098 Y-31.081 E4.76836
G1 X12.405 Y-30.919 E4.78025
G1 X13.385 Y-29.699 E4.83389
G1 X13.625 Y-28.671 E4.87008
G1 X13.666 Y-28.159 E4.88771
G1 X13.629 Y-27.375 E4.91463
G1 X13.416 Y-25.922 E4.96497
G1 X13.115 Y-24.857 E5.00289
G1 X13.341 Y-24.419 E5.01982
G1 X13.990 Y-24.188 E5.04342
G1 X14.308 Y-24.105 E5.05469
G1 X15.304 Y-23.607 E5.09287
G1 X15.551 Y-23.513 E5.10193
G1 X15.829 Y-23.360 E5.11279
G1 X16.323 Y-23.235 E5.13026
G1 X17.724 Y-21.652 E5.20275
G1 X17.914 Y-20.175 E5.25377
G1 X18.045 Y-19.854 E5.26566
G1 X18.012 Y-18.290 E5.31928
G1 X17.535 Y-17.348 E5.35548
G1 X17.237 Y-16.929 E5.37311
G1 X16.705 Y-16.352 E5.40004
G1 X15.607 Y-15.377 E5.45037
G1 X14.692 Y-14.754 E5.48830
G1 X14.584 Y-14.273 E5.50523
G1 X14.933 Y-13.679 E5.52883
G1 X15.123 Y-13.411 E5.54010
G1 X15.566 Y-12.389 E5.57827
G1 X15.695 Y-12.159 E5.58734
G1 X15.766 Y-11.947 E5.59501
G1 X15.946 Y-11.673 E5.60623
G1 X16.220 Y-10.133 E5.65986
G1 X15.931 Y-9.097 E5.69673
G1 X15.721 Y-8.628 E5.71436
G1 X14.766 Y-7.139 E5.77500
G1 X13.978 Y-6.472 E5.81039
G1 X13.252 Y-6.161 E5.83748
G1 X12.754 Y-6.031 E5.85511
G1 X11.971 Y-5.948 E5.88211
G1 X10.989 Y-5.922 E5.91579
G1 X10.643 Y-5.885 E5.92770
G1 X9.664 Y-5.984 E5.96144
G1 X9.377 Y-5.989 E5.97130
G1 X9.022 Y-5.693 E5.98714
G1 X8.843 Y-4.557 E6.02656
G1 X8.479 Y-3.283 E6.07198
G1 X8.029 Y-2.137 E6.11419
G1 X7.387 Y-1.329 E6.14960
G1 X6.719 Y-0.871 E6.17735
G1 X6.257 Y-0.646 E6.19498
G1 X4.314 Y-0.040 E6.26473
G1 X3.977 Y-0.090 E6.27642
G1 X3.548 Y0.621 E6.30487
G1 X3.984 Y1.220 E6.33028
G1 X4.123 Y1.376 E6.33743
G1 X4.690 Y2.312 E6.37496
G1 X4.895 Y2.593 E6.38688
G1 X5.298 Y3.491 E6.42062
G1 X5.438 Y3.742 E6.43047
G1 X5.871 Y3.901 E6.44631
G1 X6.945 Y3.488 E6.48573
G1 X8.230 Y3.167 E6.53116
G1 X9.710 Y2.943 E6.58249
G1 X11.206 Y3.401 E6.63612
G1 X12.098 Y4.223 E6.67771
G1 X12.405 Y4.386 E6.68960
G1 X13.385 Y5.605 E6.74323
G1 X13.625 Y6.633 E6.77943
G1 X13.666 Y7.145 E6.79706
G1 X13.629 Y7.930 E6.82398
G1 X13.416 Y9.382 E6.87431
G1 X13.115 Y10.447 E6.91224
G1 X13.341 Y10.886 E6.92917
G1 X13.990 Y11.116 E6.95277
G1 X14.308 Y11.200 E6.96404
G1 X15.304 Y11.697 E7.00222
G1 X15.551 Y11.791 E7.01128
G1 X15.829 Y11.944 E7.02214
G1 X16.323 Y12.070 E7.03961
G1 X17.724 Y13.653 E7.11210
G1 X17.914 Y15.129 E7.16312
G1 X18.045 Y15.450 E7.17501
G1 X18.012 Y17.014 E7.22863
G1 X17.535 Y17.956 E7.26483
G1 X17.237 Y18.375 E7.28246
G1 X16.705 Y18.952 E7.30938
G1 X15.607 Y19.928 E7.35972
G1 X14.692 Y20.550 E7.39765
G1 X14.584 Y21.031 E7.41458
G1 X14.933 Y21.625 E7.43818
G1 X15.123 Y21.893 E7.44945
G1 X15.566 Y22.915 E7.48762
G1 X15.695 Y23.146 E7.49669
G1 X15.766 Y23.358 E7.50436
G1 X15.946 Y23.631 E7.51558
G1 X16.220 Y25.171 E7.56921
G1 X15.931 Y26.207 E7.60608
G1 X15.721 Y26.677 E7.62371
G1 X14.766 Y28.166 E7.68435
G1 X13.978 Y28.833 E7.71974
G1 X13.252 Y29.143 E7.74683
G1 X12.754 Y29.273 E7.76446
G1 X11.971 Y29.356 E7.79146
G1 X10.989 Y29.382 E7.82514
G1 X10.643 Y29.419 E7.83705
G1 X9.664 Y29.320 E7.87079
G1 X9.377 Y29.315 E7.88065
G1 X9.022 Y29.611 E7.89649
G1 X8.843 Y30.747 E7.93591
G1 X8.479 Y32.021 E7.98133
G1 X8.029 Y33.167 E8.02354
G1 X7.387 Y33.976 E8.05895
G1 X6.719 Y34.433 E8.08670
G1 X6.257 Y34.658 E8.10433
G1 X4.314 Y35.264 E8.17408
G1 X2.767 Y35.038 E8.22771
G1 X1.929 Y34.474 E8.26233
G1 X1.746 Y34.375 E8.26948
G1 X0.892 Y33.689 E8.30701
G1 X0.604 Y33.495 E8.31892
G1 X-0.082 Y32.790 E8.35266
G1 X-0.299 Y32.601 E8.36251
G1 X-0.761 Y32.600 E8.37835
G1 X-1.628 Y33.355 E8.41777
G1 X-2.727 Y34.096 E8.46320
G1 X-4.041 Y34.813 E8.51453
G1 X-5.603 Y34.894 E8.56816
G1 X-6.723 Y34.426 E8.60975
G1 X-7.340 Y34.352 E8.63106
G1 X-8.965 Y33.000 E8.70355
G1 X-9.320 Y31.765 E8.74760
G1 X-9.397 Y31.572 E8.75475
G1 X-9.610 Y30.498 E8.79228
G1 X-9.706 Y30.164 E8.80419
G1 X-9.813 Y28.914 E8.84718
G1 X-10.173 Y28.591 E8.86377
G1 X-10.858 Y28.597 E8.88726
G1 X-11.185 Y28.627 E8.89853
G1 X-12.292 Y28.500 E8.93671
G1 X-12.556 Y28.496 E8.94577
G1 X-12.869 Y28.448 E8.95662
G1 X-13.376 Y28.498 E8.97409
G1 X-15.234 Y27.490 E9.04658
G1 X-15.918 Y26.168 E9.09761
G1 X-16.150 Y25.911 E9.10950
G1 X-16.654 Y24.430 E9.16313
G1 X-16.528 Y23.382 E9.19932
G1 X-16.392 Y22.886 E9.21695
G1 X-16.089 Y22.162 E9.24388
G1 X-15.391 Y20.870 E9.29421
G1 X-14.744 Y19.972 E9.33214
G1 X-14.807 Y19.482 E9.34907
G1 X-15.338 Y19.044 E9.37267
G1 X-15.608 Y18.857 E9.38394
G1 X-16.374 Y18.048 E9.42212
G1 X-16.574 Y17.876 E9.43118
G1 X-16.714 Y17.701 E9.43885
G1 X-16.976 Y17.505 E9.45007
G1 X-17.760 Y16.152 E9.50370
G1 X-17.844 Y15.079 E9.54057
G1 X-17.807 Y14.567 E9.55820
G1 X-17.419 Y12.841 E9.61884
G1 X-16.906 Y11.944 E9.65424
G1 X-16.330 Y11.404 E9.68132
G1 X-15.906 Y11.112 E9.69895
G1 X-15.209 Y10.752 E9.72587
G1 X-13.844 Y10.211 E9.77621
G1 X-12.772 Y9.939 E9.81414
G1 X-12.505 Y9.523 E9.83106
G1 X-12.630 Y8.846 E9.85467
G1 X-12.716 Y8.529 E9.86593
G1 X-12.782 Y7.443 E9.90325
G1 X-12.829 Y7.068 E9.91621
G1 X-12.799 Y5.837 E9.95842
G1 X-12.471 Y4.857 E9.99382
G1 X-12.001 Y4.199 E10.02158
G1 X-11.643 Y3.830 E10.03920
G1 X-10.025 Y2.596 E10.10896
G1 X-8.493 Y2.279 E10.16259
G1 X-7.513 Y2.523 E10.19720
G1 X-7.307 Y2.553 E10.20435
G1 X-6.270 Y2.906 E10.24189
G1 X-5.933 Y2.989 E10.25380
G1 X-5.047 Y3.417 E10.28754
G1 X-4.779 Y3.520 E10.29739
G1 X-4.344 Y3.363 E10.31323
G1 X-3.788 Y2.357 E10.35265
G1 X-3.009 Y1.285 E10.39808
G1 X-2.019 Y0.162 E10.44940
G1 X-0.579 Y-0.449 E10.50304
G1 X0.633 Y-0.392 E10.54463
G1 X1.104 Y-0.499 E10.56118
G1 X1.986 Y-1.538 F7800.000
G1 X1.263 Y-2.120 E10.59299 F1800.000
G1 X1.006 Y-2.292 E10.60359
G1 X0.347 Y-2.970 E10.63601
G1 X0.127 Y-3.160 E10.64596
G1 X-0.188 Y-3.575 E10.66382
G1 X-0.782 Y-3.595 E10.68420
G1 X-1.075 Y-3.258 E10.69949
G1 X-2.012 Y-2.445 E10.74203
G1 X-3.067 Y-1.734 E10.78565
G1 X-4.215 Y-1.108 E10.83050
G1 X-5.493 Y-1.042 E10.87438
G1 X-6.568 Y-1.491 E10.91432
G1 X-7.088 Y-1.555 E10.93226
G1 X-8.418 Y-2.662 E10.99157
G1 X-8.729 Y-3.744 E11.03017
G1 X-8.796 Y-3.913 E11.03641
G1 X-9.002 Y-4.955 E11.07283
G1 X-9.088 Y-5.252 E11.08344
G1 X-9.205 Y-6.593 E11.12957
G1 X-9.185 Y-7.002 E11.14362
G1 X-9.615 Y-7.398 E11.16364
G1 X-10.156 Y-7.338 E11.18230
G1 X-10.890 Y-7.332 E11.20749
G1 X-11.179 Y-7.306 E11.21744
G1 X-12.254 Y-7.429 E11.25451
G1 X-12.491 Y-7.432 E11.26266
G1 X-12.744 Y-7.483 E11.27150
G1 X-13.247 Y-7.447 E11.28877
G1 X-14.767 Y-8.272 E11.34809
G1 X-15.406 Y-9.507 E11.39575
G1 X-15.604 Y-9.729 E11.40598
G1 X-16.017 Y-10.941 E11.44986
G1 X-15.913 Y-11.802 E11.47958
G1 X-15.802 Y-12.207 E11.49400
G1 X-15.519 Y-12.883 E11.51911
G1 X-14.857 Y-14.107 E11.56683
G1 X-14.146 Y-15.110 E11.60898
G1 X-13.866 Y-15.413 E11.62311
G1 X-13.972 Y-16.021 E11.64430
G1 X-14.232 Y-16.157 E11.65439
G1 X-14.962 Y-16.760 E11.68681
G1 X-15.200 Y-16.925 E11.69676
G1 X-15.944 Y-17.710 E11.73383
G1 X-16.124 Y-17.865 E11.74198
G1 X-16.284 Y-18.067 E11.75082
G1 X-16.507 Y-18.235 E11.76038
G1 X-17.148 Y-19.343 E11.80426
G1 X-17.217 Y-20.227 E11.83465
G1 X-17.187 Y-20.646 E11.84908
G1 X-16.830 Y-22.235 E11.90490
G1 X-16.410 Y-22.968 E11.93386
G1 X-15.936 Y-23.412 E11.95612
G1 X-15.590 Y-23.651 E11.97055
G1 X-14.939 Y-23.987 E11.99565
G1 X-13.645 Y-24.499 E12.04337
G1 X-12.456 Y-24.810 E12.08552
G1 X-12.047 Y-24.862 E12.09965
G1 X-11.736 Y-25.397 E12.12084
G1 X-11.849 Y-25.668 E12.13093
G1 X-12.020 Y-26.598 E12.16335
G1 X-12.097 Y-26.878 E12.17330
G1 X-12.160 Y-27.919 E12.20905
G1 X-12.203 Y-28.268 E12.22111
G1 X-12.176 Y-29.359 E12.25850
G1 X-11.909 Y-30.160 E12.28746
G1 X-11.520 Y-30.704 E12.31039
G1 X-11.227 Y-31.006 E12.32482
G1 X-9.759 Y-32.125 E12.38809
G1 X-8.506 Y-32.384 E12.43197
G1 X-7.631 Y-32.167 E12.46286
G1 X-7.451 Y-32.141 E12.46910
G1 X-6.446 Y-31.798 E12.50552
G1 X-6.146 Y-31.724 E12.51612
G1 X-5.294 Y-31.312 E12.54854
G1 X-5.023 Y-31.208 E12.55848
G1 X-4.585 Y-30.926 E12.57635
G1 X-4.020 Y-31.111 E12.59673
G1 X-3.860 Y-31.528 E12.61202
G1 X-3.258 Y-32.613 E12.65456
G1 X-2.509 Y-33.641 E12.69817
G1 X-1.645 Y-34.623 E12.74302
G1 X-0.466 Y-35.122 E12.78690
G1 X0.698 Y-35.068 E12.82685
G1 X1.208 Y-35.185 E12.84479
G1 X2.836 Y-34.600 E12.90411 F1800.000
G1 X3.499 Y-33.689 E12.94270
G1 X3.619 Y-33.553 E12.94894
G1 X4.170 Y-32.645 E12.98536
G1 X4.352 Y-32.395 E12.99597
G1 X4.740 Y-31.532 E13.02839
G1 X4.880 Y-31.279 E13.03833
G1 X5.035 Y-30.781 E13.05620
G1 X5.586 Y-30.559 E13.07658
G1 X5.977 Y-30.776 E13.09187
G1 X7.135 Y-31.219 E13.13441
G1 X8.370 Y-31.526 E13.17802
G1 X9.663 Y-31.722 E13.22287
G1 X10.887 Y-31.347 E13.26675
G1 X11.744 Y-30.558 E13.30669
G1 X12.007 Y-30.416 E13.31693
G1 X12.809 Y-29.419 E13.36081
G1 X13.006 Y-28.575 E13.39054
G1 X13.040 Y-28.155 E13.40496
G1 X13.005 Y-27.424 E13.43006
G1 X12.802 Y-26.047 E13.47778
G1 X12.476 Y-24.862 E13.51992
G1 X12.317 Y-24.481 E13.53406
G1 X12.624 Y-23.945 E13.55525
G1 X12.916 Y-23.907 E13.56534
G1 X13.807 Y-23.590 E13.59776
G1 X14.088 Y-23.516 E13.60771
G1 X15.055 Y-23.033 E13.64477
G1 X15.277 Y-22.948 E13.65293
G1 X15.497 Y-22.814 E13.66177
G1 X15.982 Y-22.676 E13.67905
G1 X17.129 Y-21.381 E13.73836
G1 X17.306 Y-20.002 E13.78602
G1 X17.417 Y-19.725 E13.79625
G1 X17.390 Y-18.446 E13.84013
G1 X16.999 Y-17.672 E13.86985
G1 X16.755 Y-17.329 E13.88427
G1 X16.258 Y-16.791 E13.90938
G1 X15.217 Y-15.867 E13.95710
G1 X14.206 Y-15.168 E13.99924
G1 X13.839 Y-14.979 E14.01338
G1 X13.730 Y-14.371 E14.03457
G1 X13.929 Y-14.154 E14.04465
G1 X14.408 Y-13.339 E14.07707
G1 X14.576 Y-13.102 E14.08703
G1 X15.006 Y-12.110 E14.12409
G1 X15.122 Y-11.902 E14.13225
G1 X15.204 Y-11.658 E14.14108
G1 X15.356 Y-11.424 E14.15065
G1 X15.580 Y-10.163 E14.19453
G1 X15.342 Y-9.309 E14.22492
G1 X15.170 Y-8.926 E14.23934
G1 X14.291 Y-7.555 E14.29516
G1 X13.646 Y-7.009 E14.32412
G1 X13.049 Y-6.754 E14.34639
G1 X12.642 Y-6.648 E14.36081
G1 X11.918 Y-6.571 E14.38576
G1 X10.948 Y-6.546 E14.41903
G1 X10.641 Y-6.513 E14.42963
G1 X9.700 Y-6.609 E14.46205
G1 X9.410 Y-6.614 E14.47200
G1 X8.902 Y-6.729 E14.48986
G1 X8.434 Y-6.362 E14.51024
G1 X8.426 Y-5.916 E14.52553
G1 X8.231 Y-4.690 E14.56807
G1 X7.880 Y-3.468 E14.61168
G1 X7.482 Y-2.452 E14.64908
G1 X6.956 Y-1.791 E14.67804
G1 X6.405 Y-1.413 E14.70098
G1 X6.026 Y-1.229 E14.71540
G1 X4.264 Y-0.679 E14.77867
G1 X2.998 Y-0.864 E14.82255
G1 X2.032 Y-1.501 E14.86220
G1 X2.377 Y-2.025 F7800.000
G1 X1.633 Y-2.624 E14.89495 F1800.000
G1 X1.408 Y-2.776 E14.90424
G1 X0.775 Y-3.426 E14.93535
G1 X0.585 Y-3.591 E14.94398
G1 X0.123 Y-4.199 E14.97018
G1 X-0.196 Y-4.552 E14.98648
G1 X-0.747 Y-4.553 E15.00536
G1 X-1.515 Y-3.704 E15.04463
G1 X-2.395 Y-2.940 E15.08456
G1 X-3.407 Y-2.260 E15.12636
G1 X-4.390 Y-1.724 E15.16473
G1 X-5.384 Y-1.673 E15.19886
G1 X-6.414 Y-2.103 E15.23715
G1 X-6.836 Y-2.159 E15.25173
G1 X-7.870 Y-3.019 E15.29786
G1 X-8.138 Y-3.949 E15.33101
G1 X-8.195 Y-4.093 E15.33634
G1 X-8.395 Y-5.103 E15.37165
G1 X-8.469 Y-5.364 E15.38094
G1 X-8.579 Y-6.609 E15.42380
G1 X-8.535 Y-7.730 E15.46225
G1 X-8.962 Y-8.113 E15.48191
G1 X-10.047 Y-7.972 E15.51940
G1 X-10.923 Y-7.957 E15.54944
G1 X-11.174 Y-7.934 E15.55808
G1 X-12.216 Y-8.053 E15.59403
G1 X-12.427 Y-8.057 E15.60128
G1 X-12.713 Y-8.114 E15.61128
G1 X-13.118 Y-8.088 E15.62519
G1 X-14.300 Y-8.729 E15.67132
G1 X-14.894 Y-9.877 E15.71561
G1 X-15.059 Y-10.065 E15.72420
G1 X-15.379 Y-11.008 E15.75833
G1 X-15.299 Y-11.681 E15.78157
G1 X-15.212 Y-11.996 E15.79279
G1 X-14.949 Y-12.623 E15.81608
G1 X-14.323 Y-13.780 E15.86118
G1 X-13.655 Y-14.720 E15.90071
G1 X-12.897 Y-15.556 E15.93942
G1 X-12.978 Y-16.124 E15.95908
G1 X-13.679 Y-16.572 E15.98763
G1 X-13.885 Y-16.681 E15.99561
G1 X-14.585 Y-17.259 E16.02672
G1 X-14.792 Y-17.403 E16.03536
