; generated by Slic3r 1.2.9 on 2016-02-24 at 16:12:15

; external perimeters extrusion width = 0.40mm
; perimeters extrusion width = 0.48mm
; infill extrusion width = 0.48mm
; solid infill extrusion width = 0.48mm
; top infill extrusion width = 0.48mm
; support material extrusion width = 0.40mm

M107
M190 S70 ; set bed temperature
M104 S210 ; set temperature
G28 ; home all axes
G1 Z5 F5000 ; lift nozzle

M109 S210 ; wait for temperature to be reached
G21 ; set units to millimeters
G90 ; use absolute coordinates
M82 ; use absolute distances for extrusion
G92 E0
G1 Z0.350 F7800.000
G1 E-2.00000 F2400.00000
G92 E0
G1 X0.000 Y23.566 F7800.000
G1 E2.00000 F2400.00000
G1 X-9.356 Y23.566 E2.32075 F2340.000
G1 X-11.235 Y23.514 E2.38520
G1 X-12.814 Y23.276 E2.43996
G1 X-14.440 Y22.824 E2.49781
G1 X-15.916 Y22.215 E2.55257
G1 X-17.387 Y21.388 E2.61042
G1 X-18.675 Y20.442 E2.66518
G1 X-19.905 Y19.287 E2.72303
G1 X-20.929 Y18.061 E2.77779
G1 X-21.846 Y16.645 E2.83564
G1 X-22.547 Y15.210 E2.89039
G1 X-23.100 Y13.615 E2.94826
G1 X-23.436 Y12.055 E3.00300
G1 X-23.591 Y10.373 E3.06088
G1 X-23.619 Y9.767 E3.08169
G1 X-23.619 Y-10.174 E3.76535
G1 X-23.545 Y-11.163 E3.79937
G1 X-23.293 Y-12.832 E3.85722
G1 X-22.866 Y-14.371 E3.91198
G1 X-22.222 Y-15.931 E3.96983
G1 X-21.439 Y-17.323 E4.02459
G1 X-20.440 Y-18.683 E4.08244
G1 X-19.347 Y-19.847 E4.13719
G1 X-18.052 Y-20.929 E4.19505
G1 X-16.712 Y-21.797 E4.24979
G1 X-15.195 Y-22.538 E4.30766
G1 X-13.686 Y-23.061 E4.36240
G1 X-12.036 Y-23.417 E4.42027
G1 X-10.638 Y-23.566 E4.46846
G1 X9.548 Y-23.563 E5.16052
G1 X11.235 Y-23.514 E5.21840 F2340.000
G1 X12.814 Y-23.276 E5.27315
G1 X14.440 Y-22.824 E5.33101
G1 X15.916 Y-22.215 E5.38574
G1 X17.387 Y-21.388 E5.44361
G1 X18.674 Y-20.443 E5.49836
G1 X19.905 Y-19.287 E5.55623
G1 X20.929 Y-18.062 E5.61098
G1 X21.841 Y-16.653 E5.66851
G1 X22.547 Y-15.210 E5.72359
G1 X23.099 Y-13.616 E5.78144
G1 X23.436 Y-12.055 E5.83620
G1 X23.591 Y-10.374 E5.89405
G1 X23.619 Y-9.767 E5.91488
G1 X23.619 Y10.174 E6.59855
G1 X23.545 Y11.163 E6.63256
G1 X23.293 Y12.832 E6.69041
G1 X22.866 Y14.371 E6.74517
G1 X22.222 Y15.931 E6.80302
G1 X21.439 Y17.323 E6.85778
G1 X20.440 Y18.683 E6.91563
G1 X19.347 Y19.847 E6.97039
G1 X18.052 Y20.929 E7.02824
G1 X16.711 Y21.798 E7.08300
G1 X15.195 Y22.538 E7.14085
G1 X13.686 Y23.061 E7.19560
G1 X12.036 Y23.417 E7.25346
G1 X10.638 Y23.566 E7.30166
G1 X0.060 Y23.566 E7.66433
G1 E5.66433 F2400.00000
G92 E0
G1 X0.362 Y14.025 F7800.000
G1 E2.00000 F2400.00000
G1 X-0.445 Y14.051 E2.02770 F2340.000
G1 X-0.799 Y14.906 E2.05943
G1 X-1.002 Y15.269 E2.07369
G1 X-2.247 Y16.964 E2.14580
G1 X-2.532 Y17.267 E2.16006
G1 X-4.146 Y18.616 E2.23216
G1 X-4.495 Y18.842 E2.24642
G1 X-6.385 Y19.765 E2.31853
G1 X-6.778 Y19.901 E2.33278
G1 X-8.834 Y20.345 E2.40490
G1 X-9.248 Y20.383 E2.41916
G1 X-11.350 Y20.321 E2.49126
G1 X-11.761 Y20.259 E2.50551
G1 X-13.788 Y19.697 E2.57762
G1 X-14.172 Y19.538 E2.59188
G1 X-16.005 Y18.507 E2.66399
G1 X-16.341 Y18.261 E2.67824
G1 X-17.874 Y16.821 E2.75035
G1 X-18.140 Y16.502 E2.76461
G1 X-19.165 Y14.921 E2.82919
G1 X-19.284 Y14.737 E2.83672
G1 X-19.467 Y14.363 E2.85097
G1 X-20.155 Y12.376 E2.92308
G1 X-20.243 Y11.969 E2.93734
G1 X-20.436 Y9.875 E3.00945
G1 X-20.423 Y9.459 E3.02370
G1 X-20.109 Y7.380 E3.09580
G1 X-19.998 Y6.979 E3.11006
G1 X-19.195 Y5.035 E3.18218
G1 X-18.992 Y4.673 E3.19643
G1 X-17.747 Y2.977 E3.26853
G1 X-17.462 Y2.674 E3.28279
G1 X-15.848 Y1.326 E3.35490
G1 X-15.499 Y1.099 E3.36916
G1 X-14.090 Y0.411 E3.42294
G1 X-14.068 Y-0.344 E3.44884
G1 X-16.005 Y-1.434 E3.52506
G1 X-16.340 Y-1.680 E3.53931
G1 X-17.874 Y-3.120 E3.61142
G1 X-18.140 Y-3.439 E3.62568
G1 X-19.284 Y-5.204 E3.69778
G1 X-19.467 Y-5.578 E3.71204
G1 X-20.084 Y-7.360 E3.77671
G1 X-20.155 Y-7.565 E3.78416
G1 X-20.243 Y-7.972 E3.79841
G1 X-20.436 Y-10.066 E3.87053
G1 X-20.423 Y-10.482 E3.88477
G1 X-20.109 Y-12.561 E3.95687
G1 X-19.998 Y-12.962 E3.97113
G1 X-19.196 Y-14.906 E4.04324
G1 X-18.992 Y-15.269 E4.05750
G1 X-17.747 Y-16.964 E4.12961
G1 X-17.462 Y-17.267 E4.14386
G1 X-15.848 Y-18.616 E4.21597
G1 X-15.499 Y-18.842 E4.23022
G1 X-13.609 Y-19.765 E4.30234
G1 X-13.217 Y-19.901 E4.31659
G1 X-11.161 Y-20.344 E4.38870
G1 X-10.747 Y-20.383 E4.40295
G1 X-10.529 Y-20.376 E4.41040
G1 X-8.644 Y-20.321 E4.47507
G1 X-8.233 Y-20.259 E4.48932
G1 X-6.206 Y-19.697 E4.56143
G1 X-5.822 Y-19.538 E4.57568
G1 X-3.989 Y-18.507 E4.64779
G1 X-3.654 Y-18.261 E4.66205
G1 X-2.120 Y-16.821 E4.73416
G1 X-1.854 Y-16.502 E4.74842
G1 X-0.710 Y-14.737 E4.82053
G1 X-0.362 Y-14.025 E4.84768
G1 X0.445 Y-14.051 E4.87538
G1 X0.799 Y-14.906 E4.90711
G1 X1.002 Y-15.269 E4.92137
G1 X2.247 Y-16.964 E4.99348
G1 X2.532 Y-17.267 E5.00773
G1 X4.146 Y-18.616 E5.07984
G1 X4.495 Y-18.842 E5.09409
G1 X6.385 Y-19.765 E5.16620
G1 X6.778 Y-19.901 E5.18045
G1 X8.834 Y-20.344 E5.25257
G1 X9.247 Y-20.383 E5.26682
G1 X9.465 Y-20.376 E5.27427
G1 X11.350 Y-20.321 E5.33893
G1 X11.761 Y-20.259 E5.35319
G1 X13.788 Y-19.697 E5.42530
G1 X14.172 Y-19.538 E5.43955
G1 X16.005 Y-18.507 E5.51166
G1 X16.340 Y-18.261 E5.52591
G1 X17.874 Y-16.821 E5.59803
G1 X18.140 Y-16.502 E5.61228
G1 X19.284 Y-14.737 E5.68440
G1 X19.467 Y-14.363 E5.69865
G1 X20.155 Y-12.376 E5.77076
G1 X20.243 Y-11.969 E5.78501
G1 X20.436 Y-9.875 E5.85711
G1 X20.423 Y-9.460 E5.87137
G1 X20.109 Y-7.379 E5.94350
G1 X19.998 Y-6.979 E5.95774
G1 X19.195 Y-5.035 E6.02985
G1 X18.992 Y-4.673 E6.04411
G1 X17.747 Y-2.977 E6.11622
G1 X17.462 Y-2.674 E6.13047
G1 X15.848 Y-1.326 E6.20258
G1 X15.499 Y-1.099 E6.21683
G1 X14.090 Y-0.411 E6.27061
G1 X14.068 Y0.344 E6.29652
G1 X16.005 Y1.434 E6.37274
G1 X16.341 Y1.680 E6.38699
G1 X17.874 Y3.120 E6.45910
G1 X18.140 Y3.439 E6.47336
G1 X19.284 Y5.204 E6.54546
G1 X19.467 Y5.578 E6.55972
G1 X20.155 Y7.565 E6.63183
G1 X20.243 Y7.972 E6.64609
G1 X20.436 Y10.066 E6.71819
G1 X20.423 Y10.482 E6.73245
G1 X20.109 Y12.561 E6.80456
G1 X19.998 Y12.962 E6.81881
G1 X19.196 Y14.906 E6.89092
G1 X18.992 Y15.269 E6.90518
G1 X17.747 Y16.964 E6.97728
G1 X17.462 Y17.267 E6.99155
G1 X15.848 Y18.616 E7.06365
G1 X15.499 Y18.842 E7.07791
G1 X13.609 Y19.765 E7.15002
G1 X13.216 Y19.901 E7.16427
G1 X11.160 Y20.345 E7.23639
G1 X10.746 Y20.383 E7.25065
G1 X8.644 Y20.321 E7.32275
G1 X8.233 Y20.259 E7.33700
G1 X6.206 Y19.697 E7.40911
G1 X5.822 Y19.538 E7.42337
G1 X3.989 Y18.507 E7.49548
G1 X3.653 Y18.261 E7.50973
G1 X2.120 Y16.821 E7.58184
G1 X1.854 Y16.502 E7.59609
G1 X0.710 Y14.737 E7.66821
G1 X0.389 Y14.079 E7.69330
G1 X0.461 Y12.262 F7800.000
G1 X-0.458 Y12.291 E7.72483 F2340.000
G1 X-0.588 Y12.758 E7.74146
G1 X-1.362 Y14.633 E7.81097
G1 X-1.529 Y14.929 E7.82264
G1 X-2.728 Y16.564 E7.89215
G1 X-2.961 Y16.812 E7.90382
G1 X-4.518 Y18.112 E7.97334
G1 X-4.803 Y18.297 E7.98500
G1 X-6.625 Y19.186 E8.05452
G1 X-6.946 Y19.298 E8.06618
G1 X-8.929 Y19.726 E8.13570
G1 X-9.268 Y19.757 E8.14737
G1 X-11.294 Y19.698 E8.21688
G1 X-11.631 Y19.647 E8.22854
G1 X-13.584 Y19.105 E8.29806
G1 X-13.899 Y18.975 E8.30972
G1 X-15.666 Y17.981 E8.37924
G1 X-15.940 Y17.780 E8.39090
G1 X-17.418 Y16.391 E8.46042
G1 X-17.636 Y16.130 E8.47208
G1 X-18.739 Y14.429 E8.54160
G1 X-18.889 Y14.123 E8.55326
G1 X-19.552 Y12.207 E8.62279
G1 X-19.624 Y11.875 E8.63445
G1 X-19.810 Y9.855 E8.70397
G1 X-19.800 Y9.515 E8.71563
G1 X-19.497 Y7.510 E8.78514
G1 X-19.406 Y7.183 E8.79681
G1 X-18.632 Y5.308 E8.86633
G1 X-18.466 Y5.012 E8.87799
G1 X-17.266 Y3.377 E8.94750
G1 X-17.033 Y3.129 E8.95917
G1 X-15.477 Y1.829 E9.02869
G1 X-15.191 Y1.644 E9.04035
G1 X-13.369 Y0.755 E9.10986
G1 X-13.048 Y0.643 E9.12152
G1 X-12.351 Y0.493 E9.14598
G1 X-12.322 Y-0.486 E9.17955
G1 X-13.584 Y-0.836 E9.22446
G1 X-13.899 Y-0.966 E9.23612
G1 X-15.666 Y-1.960 E9.30564
G1 X-15.940 Y-2.161 E9.31730
G1 X-17.418 Y-3.550 E9.38682
G1 X-17.636 Y-3.811 E9.39848
G1 X-18.739 Y-5.512 E9.46800
G1 X-18.889 Y-5.818 E9.47966
G1 X-19.493 Y-7.564 E9.54302
G1 X-19.552 Y-7.734 E9.54919
G1 X-19.624 Y-8.067 E9.56084
G1 X-19.810 Y-10.086 E9.63037
G1 X-19.800 Y-10.426 E9.64203
G1 X-19.497 Y-12.431 E9.71154
G1 X-19.406 Y-12.758 E9.72320
G1 X-18.632 Y-14.633 E9.79272
G1 X-18.466 Y-14.929 E9.80438
G1 X-17.266 Y-16.564 E9.87390
G1 X-17.033 Y-16.812 E9.88557
G1 X-15.477 Y-18.112 E9.95508
G1 X-15.191 Y-18.297 E9.96674
G1 X-13.369 Y-19.186 E10.03626
G1 X-13.048 Y-19.298 E10.04792
G1 X-11.066 Y-19.726 E10.11744
G1 X-10.727 Y-19.757 E10.12910
G1 X-10.547 Y-19.752 E10.13526
G1 X-8.700 Y-19.698 E10.19863
G1 X-8.364 Y-19.647 E10.21029
G1 X-6.410 Y-19.105 E10.27980
G1 X-6.095 Y-18.975 E10.29146
G1 X-4.328 Y-17.981 E10.36099
G1 X-4.054 Y-17.780 E10.37265
G1 X-2.576 Y-16.391 E10.44217
G1 X-2.358 Y-16.130 E10.45383
G1 X-1.255 Y-14.429 E10.52335
G1 X-1.105 Y-14.123 E10.53501
G1 X-0.461 Y-12.262 E10.60253
G1 X0.458 Y-12.291 E10.63406
G1 X0.588 Y-12.758 E10.65068
G1 X1.362 Y-14.633 E10.72020
G1 X1.529 Y-14.929 E10.73186
G1 X2.728 Y-16.564 E10.80138
G1 X2.961 Y-16.812 E10.81305
G1 X4.517 Y-18.112 E10.88256
G1 X4.803 Y-18.297 E10.89422
G1 X6.625 Y-19.186 E10.96374
G1 X6.946 Y-19.298 E10.97540
G1 X8.928 Y-19.726 E11.04492
G1 X9.267 Y-19.757 E11.05658
G1 X9.447 Y-19.752 E11.06274
G1 X11.294 Y-19.698 E11.12611
G1 X11.630 Y-19.647 E11.13777
G1 X13.584 Y-19.105 E11.20729
G1 X13.899 Y-18.975 E11.21894
G1 X15.666 Y-17.981 E11.28847
G1 X15.940 Y-17.780 E11.30013
G1 X17.418 Y-16.391 E11.36965
G1 X17.636 Y-16.130 E11.38131
G1 X18.642 Y-14.579 E11.44468
G1 X18.739 Y-14.429 E11.45084
G1 X18.889 Y-14.123 E11.46250
G1 X19.552 Y-12.207 E11.53201
G1 X19.624 Y-11.875 E11.54367
G1 X19.810 Y-9.856 E11.61318
G1 X19.800 Y-9.515 E11.62485
G1 X19.497 Y-7.510 E11.69438
G1 X19.406 Y-7.183 E11.70604
G1 X18.632 Y-5.308 E11.77556
G1 X18.466 Y-5.012 E11.78722
G1 X17.266 Y-3.377 E11.85674
G1 X17.033 Y-3.129 E11.86840
G1 X15.477 Y-1.829 E11.93792
G1 X15.191 Y-1.644 E11.94958
G1 X13.369 Y-0.755 E12.01910
G1 X13.047 Y-0.643 E12.03077
G1 X12.351 Y-0.493 E12.05521
G1 X12.322 Y0.486 E12.08877
G1 X13.584 Y0.836 E12.13369
G1 X13.899 Y0.966 E12.14535
G1 X15.666 Y1.960 E12.21487
G1 X15.940 Y2.162 E12.22653
G1 X17.418 Y3.550 E12.29605
G1 X17.636 Y3.811 E12.30771
G1 X18.739 Y5.512 E12.37723
G1 X18.889 Y5.818 E12.38889
G1 X19.552 Y7.734 E12.45841
G1 X19.624 Y8.067 E12.47007
G1 X19.810 Y10.086 E12.53958
G1 X19.800 Y10.426 E12.55125
G1 X19.497 Y12.431 E12.62077
G1 X19.406 Y12.758 E12.63243
G1 X18.632 Y14.633 E12.70195
G1 X18.466 Y14.929 E12.71361
G1 X17.266 Y16.564 E12.78313
G1 X17.033 Y16.812 E12.79480
G1 X15.477 Y18.112 E12.86431
G1 X15.191 Y18.297 E12.87598
G1 X13.369 Y19.186 E12.94549
G1 X13.048 Y19.298 E12.95715
G1 X11.065 Y19.726 E13.02668
G1 X10.727 Y19.757 E13.03835
G1 X8.700 Y19.698 E13.10785
G1 X8.364 Y19.647 E13.11952
G1 X8.188 Y19.599 E13.12575
G1 X6.410 Y19.105 E13.18904
G1 X6.095 Y18.975 E13.20070
G1 X4.328 Y17.981 E13.27022
G1 X4.054 Y17.780 E13.28188
G1 X2.576 Y16.391 E13.35140
G1 X2.358 Y16.130 E13.36306
G1 X1.255 Y14.429 E13.43258
G1 X1.105 Y14.123 E13.44424
G1 X0.481 Y12.319 E13.50970
G1 E11.50970 F2400.00000
G92 E0
G1 X-0.018 Y6.814 F7800.000
G1 X-0.015 Y0.650 F7800.000
G1 X2.742 Y0.015 F7800.000
G1 X3.595 Y-0.018 F7800.000
G1 X5.415 Y0.019 F7800.000
G1 X6.888 Y-2.599 F7800.000
G1 X6.369 Y-1.529 F7800.000
G1 E2.00000 F2400.00000
G1 X4.667 Y-2.486 E2.06693 F2340.000
G1 X4.454 Y-2.643 E2.07600
G1 X3.031 Y-3.979 E2.14293
G1 X2.861 Y-4.182 E2.15200
G1 X1.800 Y-5.820 E2.21892
G1 X1.684 Y-6.058 E2.22799
G1 X1.045 Y-7.903 E2.29493
G1 X0.989 Y-8.161 E2.30399
G1 X0.810 Y-10.105 E2.37092
G1 X0.818 Y-10.370 E2.37999
G1 X1.109 Y-12.300 E2.44691
G1 X1.180 Y-12.555 E2.45598
G1 X1.925 Y-14.359 E2.52291
G1 X2.055 Y-14.590 E2.53198
G1 X3.210 Y-16.164 E2.59891
G1 X3.391 Y-16.356 E2.60798
G1 X4.889 Y-17.608 E2.67491
G1 X5.238 Y-17.814 E2.68881
G1 X6.865 Y-18.608 E2.75088
G1 X7.115 Y-18.695 E2.75995
G1 X9.023 Y-19.107 E2.82688
G1 X9.429 Y-19.127 E2.84078
G1 X11.238 Y-19.074 E2.90285 F2340.000
G1 X11.500 Y-19.035 E2.91192
G1 X13.381 Y-18.513 E2.97885
G1 X13.625 Y-18.412 E2.98792
G1 X15.327 Y-17.455 E3.05485
G1 X15.540 Y-17.298 E3.06391
G1 X16.963 Y-15.962 E3.13084
G1 X17.133 Y-15.759 E3.13991
G1 X18.194 Y-14.121 E3.20684
G1 X18.311 Y-13.883 E3.21591
G1 X18.949 Y-12.038 E3.28284
G1 X19.005 Y-11.780 E3.29191
G1 X19.184 Y-9.836 E3.35883
G1 X19.176 Y-9.571 E3.36790
G1 X18.885 Y-7.641 E3.43484
G1 X18.814 Y-7.386 E3.44391
G1 X18.069 Y-5.582 E3.51083
G1 X17.939 Y-5.351 E3.51990
G1 X16.868 Y-3.892 E3.58197
G1 X16.603 Y-3.585 E3.59588
G1 X15.105 Y-2.333 E3.66280
G1 X14.883 Y-2.189 E3.67187
G1 X13.129 Y-1.333 E3.73880
G1 X12.879 Y-1.246 E3.74788
G1 X10.971 Y-0.834 E3.81480
G1 X10.707 Y-0.810 E3.82387
G1 X8.756 Y-0.867 E3.89079
G1 X8.494 Y-0.906 E3.89986
G1 X6.613 Y-1.428 E3.96679
G1 X6.424 Y-1.506 E3.97380
G1 X6.642 Y-2.092 F7800.000
G1 X5.007 Y-3.012 E4.03814 F2340.000
G1 X4.854 Y-3.124 E4.04462
G1 X3.486 Y-4.409 E4.10895
G1 X3.365 Y-4.554 E4.11543
G1 X2.345 Y-6.129 E4.17976
G1 X2.262 Y-6.298 E4.18624
G1 X1.647 Y-8.072 E4.25058
G1 X1.608 Y-8.256 E4.25706
G1 X1.436 Y-10.125 E4.32140
G1 X1.441 Y-10.314 E4.32787
G1 X1.721 Y-12.169 E4.39220
G1 X1.772 Y-12.351 E4.39868
G1 X2.488 Y-14.086 E4.46302
G1 X2.581 Y-14.251 E4.46950
G1 X3.691 Y-15.763 E4.53383
G1 X3.821 Y-15.901 E4.54031
G1 X5.261 Y-17.104 E4.60465
G1 X5.419 Y-17.207 E4.61112
G1 X7.105 Y-18.030 E4.67546
G1 X7.386 Y-18.114 E4.68549
G1 X9.118 Y-18.488 E4.74626
G1 X9.306 Y-18.505 E4.75273
G1 X11.182 Y-18.451 E4.81707 F2340.000
G1 X11.369 Y-18.423 E4.82355
G1 X13.177 Y-17.921 E4.88788
G1 X13.352 Y-17.849 E4.89436
G1 X14.987 Y-16.929 E4.95870
G1 X15.140 Y-16.817 E4.96518
G1 X16.508 Y-15.532 E5.02951
G1 X16.629 Y-15.387 E5.03599
G1 X17.650 Y-13.812 E5.10033
G1 X17.732 Y-13.643 E5.10681
G1 X18.347 Y-11.870 E5.17114
G1 X18.386 Y-11.685 E5.17762
G1 X18.558 Y-9.816 E5.24195
G1 X18.553 Y-9.627 E5.24843
G1 X18.273 Y-7.772 E5.31277
G1 X18.222 Y-7.590 E5.31925
G1 X17.506 Y-5.855 E5.38358
G1 X17.413 Y-5.690 E5.39006
G1 X16.364 Y-4.262 E5.45083
G1 X16.174 Y-4.040 E5.46086
G1 X14.733 Y-2.837 E5.52519
G1 X14.575 Y-2.734 E5.53167
G1 X12.889 Y-1.911 E5.59601
G1 X12.710 Y-1.849 E5.60249
G1 X10.876 Y-1.453 E5.66682
G1 X10.687 Y-1.436 E5.67330
G1 X8.812 Y-1.490 E5.73763
G1 X8.625 Y-1.518 E5.74411
G1 X6.817 Y-2.020 E5.80845
G1 X6.698 Y-2.069 E5.81287
G1 X6.916 Y-2.656 F7800.000
G1 X5.346 Y-3.539 E5.87461 F2340.000
G1 X5.254 Y-3.606 E5.87850
G1 X3.942 Y-4.838 E5.94024
G1 X3.869 Y-4.926 E5.94413
G1 X2.890 Y-6.437 E6.00587
G1 X2.840 Y-6.539 E6.00976
G1 X2.250 Y-8.240 E6.07150
G1 X2.226 Y-8.351 E6.07539
G1 X2.061 Y-10.145 E6.13713
G1 X2.065 Y-10.258 E6.14102
G1 X2.334 Y-12.039 E6.20276
G1 X2.364 Y-12.148 E6.20665
G1 X3.051 Y-13.812 E6.26839
G1 X3.107 Y-13.911 E6.27228
G1 X4.173 Y-15.363 E6.33402
G1 X4.250 Y-15.446 E6.33791
G1 X5.632 Y-16.600 E6.39965
G1 X5.787 Y-16.691 E6.40580
G1 X7.346 Y-17.452 E6.46527
G1 X7.453 Y-17.489 E6.46916
G1 X9.213 Y-17.869 E6.53090
G1 X9.392 Y-17.878 E6.53705
G1 X11.126 Y-17.827 E6.59652 F2340.000
G1 X11.238 Y-17.810 E6.60041
G1 X12.974 Y-17.329 E6.66215
G1 X13.079 Y-17.286 E6.66604
G1 X14.648 Y-16.403 E6.72778
G1 X14.740 Y-16.336 E6.73167
G1 X16.052 Y-15.103 E6.79341
G1 X16.125 Y-15.016 E6.79730
G1 X17.105 Y-13.504 E6.85904
G1 X17.154 Y-13.402 E6.86293
G1 X17.744 Y-11.701 E6.92467
G1 X17.768 Y-11.590 E6.92856
G1 X17.933 Y-9.797 E6.99030
G1 X17.929 Y-9.683 E6.99419
G1 X17.660 Y-7.902 E7.05593
G1 X17.630 Y-7.793 E7.05982
G1 X16.943 Y-6.129 E7.12156
G1 X16.887 Y-6.030 E7.12545
G1 X15.861 Y-4.631 E7.18492
G1 X15.744 Y-4.495 E7.19107
G1 X14.362 Y-3.341 E7.25281
G1 X14.267 Y-3.279 E7.25670
G1 X12.648 Y-2.489 E7.31844
G1 X12.541 Y-2.452 E7.32233
G1 X10.781 Y-2.072 E7.38407
G1 X10.668 Y-2.061 E7.38796
G1 X8.868 Y-2.114 E7.44970
G1 X8.756 Y-2.131 E7.45359
G1 X6.971 Y-2.633 E7.51715
G1 X7.189 Y-3.219 F7800.000
G1 X5.655 Y-4.087 E7.57759 F2340.000
G1 X4.397 Y-5.268 E7.63674
G1 X3.418 Y-6.779 E7.69846
G1 X2.845 Y-8.446 E7.75890
G1 X2.687 Y-10.164 E7.81805
G1 X2.946 Y-11.908 E7.87848
G1 X3.633 Y-13.572 E7.94021
G1 X4.680 Y-14.990 E8.00065
G1 X6.004 Y-16.096 E8.05980
G1 X7.586 Y-16.874 E8.12023
G1 X9.346 Y-17.254 E8.18196
G1 X11.108 Y-17.198 E8.24239 F2340.000
G1 X12.805 Y-16.722 E8.30283
G1 X14.339 Y-15.854 E8.36327
G1 X15.597 Y-14.673 E8.42242
