; generated by Slic3r 1.2.9 on 2016-02-24 at 11:59:13

; external perimeters extrusion width = 0.40mm
; perimeters extrusion width = 0.48mm
; infill extrusion width = 0.48mm
; solid infill extrusion width = 0.48mm
; top infill extrusion width = 0.48mm
; support material extrusion width = 0.40mm

M107
M190 S70 ; set bed temperature
M104 S210 ; set temperature
G28 ; home all axes
G1 Z5 F5000 ; lift nozzle

M109 S210 ; wait for temperature to be reached
G21 ; set units to millimeters
G90 ; use absolute coordinates
M82 ; use absolute distances for extrusion
G92 E0
G1 Z0.350 F7800.000
G1 E-2.00000 F2400.00000
G92 E0
G1 X-0.563 Y23.385 F7800.000
G1 E2.00000 F2400.00000
G1 X-11.737 Y23.107 E2.38319 F2340.000
G1 X-13.316 Y22.869 E2.43795
G1 X-14.942 Y22.417 E2.49580
G1 X-16.418 Y21.808 E2.55055
G1 X-17.889 Y20.980 E2.60841
G1 X-19.176 Y20.036 E2.66315
G1 X-20.406 Y18.880 E2.72102
G1 X-21.430 Y17.654 E2.77577
G1 X-22.348 Y16.238 E2.83363
G1 X-23.049 Y14.803 E2.88838
G1 X-23.601 Y13.208 E2.94625
G1 X-23.938 Y11.648 E3.00099
G1 X-24.093 Y9.966 E3.05887
G1 X-24.121 Y9.356 E3.07983
G1 X-24.108 Y-10.257 E3.75224
G1 X-24.034 Y-11.242 E3.78610
G1 X-23.782 Y-12.911 E3.84396
G1 X-23.355 Y-14.450 E3.89871
G1 X-22.711 Y-16.010 E3.95657
G1 X-21.928 Y-17.401 E4.01132
G1 X-20.929 Y-18.762 E4.06918
G1 X-19.836 Y-19.926 E4.12393
G1 X-18.541 Y-21.008 E4.18179
G1 X-17.201 Y-21.876 E4.23654
G1 X-15.684 Y-22.617 E4.29439
G1 X-14.175 Y-23.140 E4.34914
G1 X-12.525 Y-23.496 E4.40701
G1 X-11.088 Y-23.645 E4.45656
G1 X9.897 Y-23.518 E5.17602
G1 X11.737 Y-23.467 E5.23911 F2340.000
G1 X13.316 Y-23.228 E5.29386
G1 X14.942 Y-22.777 E5.35172
G1 X16.418 Y-22.168 E5.40646
G1 X17.889 Y-21.340 E5.46433
G1 X19.176 Y-20.395 E5.51908
G1 X20.406 Y-19.240 E5.57694
G1 X21.430 Y-18.014 E5.63169
G1 X22.348 Y-16.598 E5.68955
G1 X23.049 Y-15.163 E5.74430
G1 X23.601 Y-13.568 E5.80216
G1 X23.938 Y-12.007 E5.85691
G1 X24.093 Y-10.327 E5.91478
G1 X24.115 Y-9.448 E5.94491
G1 X23.295 Y10.525 E6.63023
G1 X23.226 Y11.242 E6.65494
G1 X22.974 Y12.911 E6.71279
G1 X22.547 Y14.450 E6.76755
G1 X21.903 Y16.010 E6.82540
G1 X21.120 Y17.401 E6.88016
G1 X20.121 Y18.762 E6.93802
G1 X19.028 Y19.926 E6.99277
G1 X17.733 Y21.008 E7.05062
G1 X16.393 Y21.877 E7.10538
G1 X14.876 Y22.617 E7.16323
G1 X13.367 Y23.140 E7.21798
G1 X11.718 Y23.496 E7.27584
G1 X10.160 Y23.643 E7.32947
G1 X-0.503 Y23.386 E7.69516
G1 E5.69516 F2400.00000
G92 E0
G1 X-0.933 Y13.610 F7800.000
G1 E2.00000 F2400.00000
G1 X-1.300 Y14.499 E2.03298 F2340.000
G1 X-1.504 Y14.861 E2.04723
G1 X-2.749 Y16.557 E2.11934
G1 X-3.033 Y16.860 E2.13360
G1 X-4.648 Y18.209 E2.20571
G1 X-4.997 Y18.435 E2.21997
G1 X-6.887 Y19.358 E2.29207
G1 X-7.280 Y19.494 E2.30633
G1 X-9.335 Y19.937 E2.37844
G1 X-9.750 Y19.976 E2.39270
G1 X-11.852 Y19.914 E2.46480
G1 X-12.263 Y19.852 E2.47907
G1 X-14.290 Y19.290 E2.55117
G1 X-14.674 Y19.131 E2.56542
G1 X-16.507 Y18.100 E2.63753
G1 X-16.842 Y17.854 E2.65178
G1 X-18.376 Y16.414 E2.72389
G1 X-18.642 Y16.095 E2.73815
G1 X-19.786 Y14.330 E2.81026
G1 X-19.969 Y13.956 E2.82451
G1 X-20.657 Y11.969 E2.89663
G1 X-20.745 Y11.562 E2.91088
G1 X-20.937 Y9.468 E2.98299
G1 X-20.925 Y9.052 E2.99724
G1 X-20.611 Y6.973 E3.06935
G1 X-20.500 Y6.572 E3.08360
G1 X-19.697 Y4.628 E3.15571
G1 X-19.493 Y4.265 E3.16997
G1 X-18.249 Y2.570 E3.24208
G1 X-17.964 Y2.267 E3.25634
G1 X-16.350 Y0.918 E3.32844
G1 X-16.001 Y0.692 E3.34270
G1 X-14.897 Y0.153 E3.38482
G1 X-14.875 Y-0.602 E3.41072
G1 X-16.495 Y-1.513 E3.47443
G1 X-16.830 Y-1.759 E3.48868
G1 X-18.363 Y-3.199 E3.56079
G1 X-18.629 Y-3.518 E3.57505
G1 X-19.773 Y-5.283 E3.64715
G1 X-19.956 Y-5.657 E3.66141
G1 X-20.644 Y-7.644 E3.73353
G1 X-20.732 Y-8.051 E3.74778
G1 X-20.905 Y-9.932 E3.81255
G1 X-20.925 Y-10.145 E3.81990
G1 X-20.913 Y-10.561 E3.83415
G1 X-20.599 Y-12.640 E3.90625
G1 X-20.487 Y-13.041 E3.92050
G1 X-19.685 Y-14.985 E3.99261
G1 X-19.481 Y-15.347 E4.00687
G1 X-18.236 Y-17.043 E4.07898
G1 X-17.952 Y-17.346 E4.09323
G1 X-16.337 Y-18.694 E4.16534
G1 X-15.988 Y-18.921 E4.17960
G1 X-14.098 Y-19.843 E4.25171
G1 X-13.706 Y-19.980 E4.26596
G1 X-13.496 Y-20.025 E4.27331
G1 X-11.650 Y-20.423 E4.33806
G1 X-11.236 Y-20.461 E4.35230
G1 X-9.133 Y-20.400 E4.42444
G1 X-8.722 Y-20.338 E4.43869
G1 X-8.515 Y-20.281 E4.44604
G1 X-6.695 Y-19.776 E4.51080
G1 X-6.311 Y-19.617 E4.52505
G1 X-4.478 Y-18.586 E4.59716
G1 X-4.143 Y-18.340 E4.61142
G1 X-2.610 Y-16.900 E4.68353
G1 X-2.343 Y-16.581 E4.69778
G1 X-1.199 Y-14.816 E4.76989
G1 X-1.016 Y-14.442 E4.78415
G1 X-0.436 Y-12.767 E4.84495
G1 X0.426 Y-12.741 E4.87452
G1 X1.300 Y-14.859 E4.95305
G1 X1.504 Y-15.221 E4.96731
G1 X2.749 Y-16.917 E5.03942
G1 X3.033 Y-17.220 E5.05367
G1 X4.648 Y-18.568 E5.12578
G1 X4.997 Y-18.794 E5.14004
G1 X6.887 Y-19.717 E5.21215
G1 X7.279 Y-19.853 E5.22640
G1 X9.335 Y-20.297 E5.29851
G1 X9.749 Y-20.335 E5.31274
G1 X9.963 Y-20.329 E5.32010
G1 X11.852 Y-20.274 E5.38488
G1 X12.263 Y-20.212 E5.39913
G1 X14.290 Y-19.650 E5.47124
G1 X14.674 Y-19.491 E5.48549
G1 X16.507 Y-18.460 E5.55761
G1 X16.842 Y-18.214 E5.57186
G1 X18.376 Y-16.774 E5.64397
G1 X18.642 Y-16.455 E5.65822
G1 X19.786 Y-14.690 E5.73034
G1 X19.969 Y-14.316 E5.74459
G1 X20.657 Y-12.329 E5.81668
G1 X20.745 Y-11.922 E5.83095
G1 X20.937 Y-9.828 E5.90307
G1 X20.925 Y-9.412 E5.91732
G1 X20.611 Y-7.333 E5.98942
G1 X20.500 Y-6.932 E6.00368
G1 X19.698 Y-4.988 E6.07577
G1 X19.494 Y-4.625 E6.09004
G1 X18.249 Y-2.930 E6.16215
G1 X17.964 Y-2.626 E6.17642
G1 X16.350 Y-1.278 E6.24852
G1 X16.001 Y-1.052 E6.26278
G1 X14.122 Y-0.135 E6.33446
G1 X14.100 Y0.621 E6.36036
G1 X15.687 Y1.513 E6.42276
G1 X16.022 Y1.759 E6.43702
G1 X17.555 Y3.199 E6.50913
G1 X17.822 Y3.518 E6.52338
G1 X18.965 Y5.283 E6.59549
G1 X19.148 Y5.657 E6.60974
G1 X19.836 Y7.644 E6.68184
G1 X19.924 Y8.050 E6.69611
G1 X20.117 Y10.145 E6.76821
G1 X20.105 Y10.561 E6.78247
G1 X19.791 Y12.640 E6.85458
G1 X19.679 Y13.041 E6.86884
G1 X18.877 Y14.985 E6.94095
G1 X18.673 Y15.347 E6.95520
G1 X17.428 Y17.043 E7.02731
G1 X17.144 Y17.346 E7.04157
G1 X15.529 Y18.694 E7.11368
G1 X15.180 Y18.921 E7.12794
G1 X13.290 Y19.844 E7.20004
G1 X12.898 Y19.980 E7.21430
G1 X10.842 Y20.423 E7.28641
G1 X10.427 Y20.461 E7.30067
G1 X8.325 Y20.400 E7.37278
G1 X7.914 Y20.338 E7.38704
G1 X5.887 Y19.776 E7.45914
G1 X5.503 Y19.617 E7.47340
G1 X3.670 Y18.586 E7.54550
G1 X3.335 Y18.340 E7.55975
G1 X1.802 Y16.900 E7.63186
G1 X1.535 Y16.581 E7.64612
G1 X0.391 Y14.816 E7.71823
G1 X0.209 Y14.442 E7.73248
G1 X-0.071 Y13.635 E7.76177
G1 X-0.873 Y13.612 E7.78929
G1 E5.78929 F2400.00000
G92 E0
G1 X-0.410 Y9.809 F7800.000
G1 X-0.405 Y9.418 F7800.000
G1 X-0.351 Y7.329 F7800.000
G1 X-0.348 Y7.204 F7800.000
G1 X-0.347 Y7.004 F7800.000
G1 X-0.345 Y6.890 F7800.000
G1 X0.113 Y6.003 F7800.000
G1 E2.00000 F2400.00000
G1 X-0.750 Y5.978 E2.02958 F2340.000
G1 X-1.029 Y5.171 E2.05886
G1 X-1.212 Y4.797 E2.07312
G1 X-2.356 Y3.032 E2.14523
G1 X-2.622 Y2.713 E2.15948
G1 X-4.155 Y1.273 E2.23159
G1 X-4.490 Y1.027 E2.24584
G1 X-6.110 Y0.116 E2.30955
G1 X-6.088 Y-0.639 E2.33545
G1 X-4.984 Y-1.178 E2.37757
G1 X-4.635 Y-1.404 E2.39183
G1 X-3.021 Y-2.753 E2.46393
G1 X-2.736 Y-3.056 E2.47820
G1 X-1.491 Y-4.752 E2.55031
G1 X-1.287 Y-5.114 E2.56458
G1 X-0.414 Y-7.231 E2.64309
G1 X0.449 Y-7.206 E2.67267
G1 X1.029 Y-5.530 E2.73347
G1 X1.212 Y-5.157 E2.74773
G1 X2.356 Y-3.392 E2.81983
G1 X2.622 Y-3.073 E2.83408
G1 X4.155 Y-1.633 E2.90620
G1 X4.490 Y-1.387 E2.92045
G1 X6.077 Y-0.494 E2.98285
G1 X6.055 Y0.261 E3.00875
G1 X4.176 Y1.178 E3.08043
G1 X3.827 Y1.404 E3.09469
G1 X2.213 Y2.753 E3.16680
G1 X1.928 Y3.056 E3.18105
G1 X0.684 Y4.751 E3.25317
G1 X0.480 Y5.114 E3.26742
G1 X0.136 Y5.947 E3.29834
G1 X0.133 Y7.752 F7800.000
G1 X0.269 Y7.261 E3.31580 F2340.000
G1 X1.043 Y5.387 E3.38532
G1 X1.210 Y5.091 E3.39699
G1 X2.410 Y3.456 E3.46651
G1 X2.643 Y3.208 E3.47817
G1 X4.199 Y1.908 E3.54769
G1 X4.484 Y1.723 E3.55935
G1 X6.306 Y0.833 E3.62887
G1 X6.628 Y0.722 E3.64053
G1 X7.850 Y0.458 E3.68340
G1 X7.879 Y-0.520 E3.71697
G1 X6.911 Y-0.789 E3.75138
G1 X6.597 Y-0.919 E3.76305
G1 X4.830 Y-1.913 E3.83256
G1 X4.556 Y-2.114 E3.84423
G1 X3.077 Y-3.502 E3.91375
G1 X2.859 Y-3.763 E3.92541
G1 X1.757 Y-5.465 E3.99492
G1 X1.607 Y-5.771 E4.00659
G1 X0.944 Y-7.687 E4.07611
G1 X0.872 Y-8.019 E4.08777
G1 X0.686 Y-10.039 E4.15730
G1 X0.696 Y-10.379 E4.16896
G1 X0.999 Y-12.383 E4.23847
G1 X1.090 Y-12.711 E4.25013
G1 X1.863 Y-14.585 E4.31964
G1 X2.030 Y-14.882 E4.33131
G1 X3.230 Y-16.516 E4.40083
G1 X3.463 Y-16.764 E4.41249
G1 X5.019 Y-18.064 E4.48201
G1 X5.305 Y-18.249 E4.49368
G1 X7.127 Y-19.139 E4.56319
G1 X7.448 Y-19.250 E4.57485
G1 X9.430 Y-19.678 E4.64437
G1 X9.769 Y-19.709 E4.65602
G1 X11.796 Y-19.651 E4.72555
G1 X12.132 Y-19.600 E4.73722
G1 X14.086 Y-19.057 E4.80673
G1 X14.400 Y-18.928 E4.81839
G1 X16.168 Y-17.934 E4.88792
G1 X16.442 Y-17.732 E4.89958
G1 X17.920 Y-16.344 E4.96910
G1 X18.138 Y-16.083 E4.98076
G1 X19.241 Y-14.381 E5.05028
G1 X19.390 Y-14.076 E5.06194
G1 X20.054 Y-12.160 E5.13144
G1 X20.126 Y-11.827 E5.14312
G1 X20.312 Y-9.808 E5.21264
G1 X20.302 Y-9.468 E5.22430
G1 X19.999 Y-7.463 E5.29381
G1 X19.908 Y-7.135 E5.30548
G1 X19.134 Y-5.261 E5.37498
G1 X18.967 Y-4.965 E5.38666
G1 X17.768 Y-3.330 E5.45618
G1 X17.534 Y-3.082 E5.46785
G1 X15.978 Y-1.782 E5.53736
G1 X15.693 Y-1.597 E5.54903
G1 X13.871 Y-0.707 E5.61854
G1 X13.549 Y-0.596 E5.63020
G1 X12.327 Y-0.332 E5.67308
G1 X12.298 Y0.647 E5.70665
G1 X13.266 Y0.915 E5.74106
G1 X13.580 Y1.045 E5.75272
G1 X15.347 Y2.039 E5.82224
G1 X15.622 Y2.240 E5.83391
G1 X17.100 Y3.629 E5.90342
G1 X17.318 Y3.890 E5.91509
G1 X18.421 Y5.591 E5.98460
G1 X18.570 Y5.897 E5.99627
G1 X19.233 Y7.813 E6.06577
G1 X19.305 Y8.145 E6.07744
G1 X19.491 Y10.164 E6.14696
G1 X19.481 Y10.505 E6.15863
G1 X19.178 Y12.509 E6.22814
G1 X19.087 Y12.837 E6.23981
G1 X18.314 Y14.712 E6.30933
G1 X18.147 Y15.008 E6.32099
G1 X16.947 Y16.643 E6.39051
G1 X16.714 Y16.891 E6.40217
G1 X15.158 Y18.191 E6.47169
G1 X14.872 Y18.376 E6.48336
G1 X13.050 Y19.265 E6.55287
G1 X12.729 Y19.377 E6.56453
G1 X10.747 Y19.805 E6.63405
G1 X10.408 Y19.836 E6.64572
G1 X8.381 Y19.777 E6.71524
G1 X8.044 Y19.726 E6.72691
G1 X6.091 Y19.184 E6.79642
G1 X5.776 Y19.054 E6.80808
G1 X4.009 Y18.060 E6.87759
G1 X3.735 Y17.859 E6.88925
G1 X2.257 Y16.470 E6.95878
G1 X2.039 Y16.209 E6.97044
G1 X0.936 Y14.508 E7.03995
G1 X0.787 Y14.202 E7.05162
G1 X-0.034 Y11.832 E7.13762
G1 X-0.953 Y11.860 E7.16915
G1 X-1.090 Y12.351 E7.18662
G1 X-1.864 Y14.226 E7.25613
G1 X-2.030 Y14.522 E7.26780
G1 X-3.230 Y16.157 E7.33732
G1 X-3.463 Y16.405 E7.34898
G1 X-5.019 Y17.705 E7.41850
G1 X-5.305 Y17.890 E7.43017
G1 X-7.127 Y18.779 E7.49968
G1 X-7.448 Y18.891 E7.51134
G1 X-9.430 Y19.319 E7.58086
G1 X-9.769 Y19.350 E7.59253
G1 X-11.796 Y19.291 E7.66204
G1 X-12.133 Y19.240 E7.67371
G1 X-14.086 Y18.698 E7.74322
G1 X-14.401 Y18.568 E7.75489
G1 X-16.168 Y17.574 E7.82440
G1 X-16.442 Y17.373 E7.83606
G1 X-17.920 Y15.984 E7.90558
G1 X-18.138 Y15.723 E7.91724
G1 X-19.241 Y14.022 E7.98676
G1 X-19.390 Y13.716 E7.99843
G1 X-20.054 Y11.800 E8.06795
G1 X-20.126 Y11.467 E8.07961
G1 X-20.312 Y9.448 E8.14913
G1 X-20.302 Y9.108 E8.16079
G1 X-19.999 Y7.103 E8.23031
G1 X-19.908 Y6.776 E8.24197
G1 X-19.134 Y4.901 E8.31148
G1 X-18.967 Y4.605 E8.32315
G1 X-17.767 Y2.970 E8.39267
G1 X-17.535 Y2.722 E8.40433
G1 X-15.978 Y1.422 E8.47385
G1 X-15.693 Y1.237 E8.48551
G1 X-13.871 Y0.348 E8.55503
G1 X-13.398 Y0.184 E8.57220
G1 X-13.426 Y-0.736 E8.60373
G1 X-14.074 Y-0.915 E8.62675
G1 X-14.388 Y-1.045 E8.63841
G1 X-16.155 Y-2.039 E8.70793
G1 X-16.429 Y-2.240 E8.71959
G1 X-16.558 Y-2.361 E8.72565
G1 X-17.908 Y-3.629 E8.78911
G1 X-18.126 Y-3.890 E8.80078
G1 X-19.228 Y-5.591 E8.87029
G1 X-19.378 Y-5.897 E8.88195
G1 X-20.041 Y-7.813 E8.95148
G1 X-20.113 Y-8.145 E8.96314
G1 X-20.299 Y-10.165 E9.03267
G1 X-20.289 Y-10.505 E9.04432
G1 X-19.986 Y-12.510 E9.11384
G1 X-19.895 Y-12.837 E9.12550
G1 X-19.122 Y-14.711 E9.19501
G1 X-18.955 Y-15.008 E9.20668
G1 X-17.755 Y-16.643 E9.27620
G1 X-17.522 Y-16.891 E9.28786
G1 X-15.966 Y-18.191 E9.35738
G1 X-15.680 Y-18.376 E9.36904
G1 X-13.858 Y-19.265 E9.43856
G1 X-13.537 Y-19.377 E9.45022
G1 X-11.555 Y-19.805 E9.51973
G1 X-11.216 Y-19.836 E9.53138
G1 X-9.189 Y-19.777 E9.60092
G1 X-8.853 Y-19.726 E9.61258
G1 X-6.899 Y-19.184 E9.68210
G1 X-6.585 Y-19.054 E9.69376
G1 X-6.431 Y-18.967 E9.69982
G1 X-4.817 Y-18.060 E9.76328
G1 X-4.543 Y-17.859 E9.77494
G1 X-3.065 Y-16.470 E9.84446
G1 X-2.847 Y-16.209 E9.85613
G1 X-1.744 Y-14.508 E9.92564
G1 X-1.595 Y-14.202 E9.93731
G1 X-0.931 Y-12.286 E10.00681
G1 X-0.859 Y-11.954 E10.01848
G1 X-0.673 Y-9.934 E10.08801
G1 X-0.683 Y-9.594 E10.09967
G1 X-0.986 Y-7.590 E10.16918
G1 X-1.077 Y-7.262 E10.18084
G1 X-1.851 Y-5.388 E10.25035
G1 X-2.018 Y-5.091 E10.26203
G1 X-3.217 Y-3.456 E10.33154
G1 X-3.451 Y-3.208 E10.34322
G1 X-5.007 Y-1.908 E10.41273
G1 X-5.292 Y-1.723 E10.42439
G1 X-7.114 Y-0.833 E10.49391
G1 X-7.587 Y-0.670 E10.51108
G1 X-7.559 Y0.250 E10.54261
G1 X-6.912 Y0.429 E10.56563
G1 X-6.597 Y0.559 E10.57729
G1 X-4.830 Y1.553 E10.64681
G1 X-4.555 Y1.754 E10.65848
G1 X-3.077 Y3.143 E10.72799
G1 X-2.859 Y3.404 E10.73966
G1 X-1.757 Y5.105 E10.80917
G1 X-1.607 Y5.411 E10.82084
G1 X-0.786 Y7.781 E10.90684
G1 X0.073 Y7.754 E10.93631
G1 X-1.477 Y7.900 F7800.000
G1 X-1.312 Y9.698 E10.99820 F2340.000
G1 X-1.319 Y9.963 E11.00727
G1 X-1.611 Y11.893 E11.07419
G1 X-1.682 Y12.148 E11.08327
G1 X-2.427 Y13.952 E11.15020
G1 X-2.556 Y14.183 E11.15927
G1 X-3.712 Y15.757 E11.22619
G1 X-3.893 Y15.949 E11.23527
G1 X-5.391 Y17.201 E11.30219
G1 X-5.613 Y17.345 E11.31127
G1 X-7.367 Y18.201 E11.37819
G1 X-7.617 Y18.288 E11.38726
G1 X-9.525 Y18.700 E11.45419
G1 X-9.789 Y18.724 E11.46326
G1 X-11.740 Y18.667 E11.53019
G1 X-12.002 Y18.628 E11.53926
G1 X-13.883 Y18.106 E11.60618
G1 X-14.127 Y18.005 E11.61526
G1 X-15.829 Y17.048 E11.68218
G1 X-16.042 Y16.891 E11.69125
G1 X-17.465 Y15.555 E11.75818
G1 X-17.634 Y15.352 E11.76725
G1 X-18.696 Y13.714 E11.83417
G1 X-18.812 Y13.476 E11.84324
G1 X-19.451 Y11.631 E11.91017
G1 X-19.507 Y11.373 E11.91924
G1 X-19.686 Y9.429 E11.98617
G1 X-19.678 Y9.164 E11.99524
G1 X-19.408 Y7.375 E12.05729
G1 X-19.316 Y6.979 E12.07121
G1 X-18.571 Y5.175 E12.13814
G1 X-18.441 Y4.944 E12.14721
G1 X-17.286 Y3.370 E12.21414
G1 X-17.105 Y3.178 E12.22321
G1 X-15.607 Y1.926 E12.29013
G1 X-15.385 Y1.782 E12.29921
G1 X-13.631 Y0.926 E12.36613
G1 X-13.381 Y0.839 E12.37520
G1 X-11.472 Y0.427 E12.44212
G1 X-11.067 Y0.407 E12.45604
G1 X-9.258 Y0.460 E12.51810 F2340.000
G1 X-8.996 Y0.499 E12.52717
G1 X-7.115 Y1.021 E12.59410
G1 X-6.747 Y1.192 E12.60802
G1 X-5.169 Y2.079 E12.67007
G1 X-4.956 Y2.236 E12.67914
G1 X-3.533 Y3.572 E12.74607
G1 X-3.363 Y3.775 E12.75514
G1 X-2.301 Y5.413 E12.82206
G1 X-2.185 Y5.651 E12.83114
G1 X-1.547 Y7.495 E12.89806
G1 X-1.483 Y7.841 E12.91009
G1 X-2.099 Y7.958 F7800.000
G1 X-1.937 Y9.718 E12.97069 F2340.000
G1 X-1.943 Y9.907 E12.97717
G1 X-2.223 Y11.762 E13.04150
G1 X-2.274 Y11.944 E13.04798
G1 X-2.990 Y13.679 E13.11232
G1 X-3.083 Y13.844 E13.11880
G1 X-4.193 Y15.356 E13.18313
G1 X-4.322 Y15.494 E13.18961
G1 X-5.762 Y16.697 E13.25395
G1 X-5.921 Y16.800 E13.26043
G1 X-7.607 Y17.623 E13.32476
G1 X-7.786 Y17.685 E13.33124
G1 X-9.620 Y18.081 E13.39557
G1 X-9.808 Y18.098 E13.40206
G1 X-11.684 Y18.044 E13.46639
G1 X-11.871 Y18.016 E13.47287
G1 X-13.679 Y17.514 E13.53720
G1 X-13.854 Y17.442 E13.54368
G1 X-15.489 Y16.522 E13.60801
G1 X-15.642 Y16.410 E13.61449
G1 X-17.009 Y15.125 E13.67883
G1 X-17.131 Y14.980 E13.68531
G1 X-18.151 Y13.405 E13.74964
G1 X-18.234 Y13.236 E13.75612
G1 X-18.848 Y11.462 E13.82046
G1 X-18.888 Y11.278 E13.82694
G1 X-19.060 Y9.409 E13.89127
G1 X-19.055 Y9.220 E13.89775
G1 X-18.790 Y7.468 E13.95851
G1 X-18.724 Y7.183 E13.96855
G1 X-18.008 Y5.448 E14.03288
G1 X-17.915 Y5.283 E14.03936
G1 X-16.805 Y3.771 E14.10370
G1 X-16.675 Y3.633 E14.11017
G1 X-15.235 Y2.430 E14.17451
G1 X-15.076 Y2.327 E14.18099
G1 X-13.390 Y1.504 E14.24532
G1 X-13.212 Y1.442 E14.25180
G1 X-11.378 Y1.046 E14.31613
G1 X-11.189 Y1.029 E14.32261
G1 X-9.314 Y1.083 E14.38695 F2340.000
G1 X-9.127 Y1.111 E14.39343
G1 X-7.319 Y1.613 E14.45776
G1 X-7.053 Y1.736 E14.46780
G1 X-5.508 Y2.605 E14.52856
