; generated by Slic3r 1.2.9 on 2016-03-01 at 10:47:42

; external perimeters extrusion width = 0.40mm
; perimeters extrusion width = 0.48mm
; infill extrusion width = 0.48mm
; solid infill extrusion width = 0.48mm
; top infill extrusion width = 0.48mm
; support material extrusion width = 0.40mm

M107
M190 S70 ; set bed temperature
M104 S210 ; set temperature
G28 ; home all axes
G1 Z5 F5000 ; lift nozzle

M109 S210 ; wait for temperature to be reached
G21 ; set units to millimeters
G90 ; use absolute coordinates
M82 ; use absolute distances for extrusion
G92 E0
G1 Z0.350 F7800.000
G1 X0.000 Y31.625 F7800.000
G1 X-50.000 Y31.625 E1.71420 F1800.000
G1 X-52.259 Y31.228 E1.79283
G1 X-54.247 Y30.085 E1.87146
G1 X-55.726 Y28.332 E1.95009
G1 X-56.519 Y26.180 E2.02871
G1 X-56.625 Y25.000 E2.06933
G1 X-56.625 Y-25.000 E3.78353
G1 X-56.228 Y-27.259 E3.86215
G1 X-55.085 Y-29.247 E3.94078
G1 X-53.332 Y-30.726 E4.01941
G1 X-51.180 Y-31.519 E4.09804
G1 X-50.000 Y-31.625 E4.13865
G1 X50.000 Y-31.625 E7.56705
G1 X52.259 Y-31.228 E7.64568
G1 X54.247 Y-30.085 E7.72431 F1800.000
G1 X55.726 Y-28.332 E7.80294
G1 X56.519 Y-26.180 E7.88157
G1 X56.625 Y-25.000 E7.92218
G1 X56.625 Y25.000 E9.63638
G1 X56.228 Y27.259 E9.71501
G1 X55.085 Y29.247 E9.79363
G1 X53.332 Y30.726 E9.87226
G1 X51.180 Y31.519 E9.95089
G1 X50.000 Y31.625 E9.99150
G1 X0.060 Y31.625 E11.70364
G1 X0.000 Y28.437 F7800.000
G1 X-51.424 Y28.437 E13.46665 F1800.000
G1 X-53.437 Y26.424 E13.56427
G1 X-53.437 Y-26.424 E15.37608
G1 X-51.424 Y-28.437 E15.47369
G1 X51.424 Y-28.437 E18.99971
G1 X53.437 Y-26.424 E19.09732
G1 X53.437 Y26.424 E20.90914 F1800.000
G1 X51.424 Y28.437 E21.00675
G1 X0.060 Y28.437 E22.76770
G1 X0.000 Y27.812 F7800.000
G1 X-51.165 Y27.812 E24.52183 F1800.000
G1 X-52.812 Y26.165 E24.60170
G1 X-52.812 Y-26.165 E26.39577
G1 X-51.165 Y-27.812 E26.47563
G1 X51.165 Y-27.812 E29.98390
G1 X52.812 Y-26.165 E30.06376 F1800.000
G1 X52.812 Y26.165 E31.85783
G1 X51.165 Y27.812 E31.93770
G1 X0.060 Y27.812 E33.68977
G1 X0.000 Y27.187 F7800.000
G1 X-50.906 Y27.187 E35.43503 F1800.000
G1 X-52.187 Y25.906 E35.49715
G1 X-52.187 Y-25.906 E37.27347
G1 X-50.906 Y-27.187 E37.33558
G1 X50.906 Y-27.187 E40.82610
G1 X52.187 Y-25.906 E40.88822
G1 X52.187 Y25.906 E42.66454 F1800.000
G1 X50.906 Y27.187 E42.72666
G1 X0.060 Y27.187 E44.46986
G1 X0.000 Y26.562 F7800.000
G1 X-50.647 Y26.562 E46.20624 F1800.000
G1 X-51.562 Y25.647 E46.25061
G1 X-51.562 Y-25.647 E48.00918
G1 X-50.647 Y-26.562 E48.05355
G1 X50.647 Y-26.562 E51.52632
G1 X51.562 Y-25.647 E51.57069 F1800.000
G1 X51.562 Y25.647 E53.32926
G1 X50.647 Y26.562 E53.37363
G1 X0.060 Y26.562 E55.10796
G1 X0.000 Y25.937 F7800.000
G1 X-50.388 Y25.937 E56.83547 F1800.000
G1 X-50.937 Y25.388 E56.86210
G1 X-50.937 Y-25.388 E58.60292
G1 X-50.388 Y-25.937 E58.62954
G1 X50.388 Y-25.937 E62.08456
G1 X50.937 Y-25.388 E62.11118
G1 X50.937 Y25.388 E63.85201 F1800.000
G1 X50.388 Y25.937 E63.87863
G1 X0.060 Y25.937 E65.60408
G1 E63.60408 F2400.00000
G92 E0
G1 X50.129 Y25.312 F7800.000
G1 E2.00000 F2400.00000
G1 X-50.129 Y25.312 E5.43727 F1800.000
G1 X-50.312 Y25.129 E5.44615
G1 X-50.312 Y-25.129 E7.16922
G1 X-50.129 Y-25.312 E7.17810
G1 X50.129 Y-25.312 E10.61537
G1 X50.312 Y-25.129 E10.62425
G1 X50.312 Y25.129 E12.34732
G1 X50.172 Y25.270 E12.35414
G1 X49.650 Y24.650 F7800.000
G1 X-49.650 Y24.650 E15.75854 F750.000
G1 X-49.650 Y-24.650 E17.44874
G1 X49.650 Y-24.650 E20.85314
G1 X49.650 Y24.590 E22.54129
G1 X49.304 Y24.450 F7800.000
G1 X49.025 Y24.025 F7800.000
G1 X-49.025 Y24.025 E25.90284 F1500.000
G1 X-49.025 Y-24.025 E27.55020
G1 X49.025 Y-24.025 E30.91175
G1 X49.025 Y23.965 E32.55705
G1 X48.400 Y23.400 F7800.000
G1 X-48.400 Y23.400 E35.87576 F1500.000
G1 X-48.400 Y-23.400 E37.48027
G1 X48.400 Y-23.400 E40.79897
G1 X48.400 Y23.340 E42.40142
G1 X18.416 Y-0.544 F7800.000
G1 X0.842 Y-2.297 F7800.000
G1 X-6.197 Y-2.370 F7800.000
G1 X-9.485 Y-5.248 F7800.000
G1 X-9.397 Y-7.848 F7800.000
G1 X-14.731 Y-12.118 F7800.000
G1 X-15.310 Y-12.435 F7800.000
G1 X-16.470 Y-10.986 E42.46507 F450.000
G1 X-18.056 Y-10.021 E42.52872
G1 X-19.876 Y-9.656 E42.59236
G1 X-21.712 Y-9.936 E42.65601
G1 X-23.340 Y-10.827 E42.71965
G1 X-24.566 Y-12.221 E42.78330
G1 X-25.241 Y-13.950 E42.84695
G1 X-25.284 Y-15.806 E42.91059
G1 X-24.690 Y-17.565 E42.97424
G1 X-23.530 Y-19.014 E43.03788
G1 X-21.944 Y-19.979 E43.10153
G1 X-20.303 Y-20.308 E43.15890
G1 X-20.124 Y-20.344 E43.16518 F450.000
G1 X-18.288 Y-20.064 E43.22882
G1 X-16.660 Y-19.173 E43.29247
G1 X-15.434 Y-17.779 E43.35611
G1 X-14.759 Y-16.050 E43.41976
G1 X-14.716 Y-14.194 E43.48341
G1 X-15.291 Y-12.492 E43.54499
G1 X-15.122 Y-12.082 F7800.000
G1 X-14.822 Y-12.045 F7800.000
G1 X-16.051 Y-10.509 E43.61242 F450.000
G1 X-17.825 Y-9.430 E43.68362
G1 X-19.862 Y-9.022 E43.75482
G1 X-21.915 Y-9.335 E43.82602
G1 X-23.737 Y-10.331 E43.89722
G1 X-25.108 Y-11.891 E43.96842
G1 X-25.864 Y-13.826 E44.03962
G1 X-25.912 Y-15.902 E44.11083
G1 X-25.247 Y-17.869 E44.18203
G1 X-23.949 Y-19.491 E44.25323
G1 X-22.175 Y-20.570 E44.32443
G1 X-20.426 Y-20.921 E44.38558
G1 X-20.138 Y-20.978 E44.39563 F450.000
G1 X-18.085 Y-20.665 E44.46683
G1 X-16.263 Y-19.669 E44.53803
G1 X-14.892 Y-18.109 E44.60923
G1 X-14.137 Y-16.174 E44.68043
G1 X-14.089 Y-14.098 E44.75164
G1 X-14.753 Y-12.131 E44.82284
G1 X-14.785 Y-12.091 E44.82456
G1 X-14.335 Y-11.654 F7800.000
G1 X-15.632 Y-10.033 E44.89576 F1500.000
G1 X-17.595 Y-8.838 E44.97451
G1 X-19.847 Y-8.387 E45.05327
G1 X-22.118 Y-8.734 E45.13203
G1 X-24.133 Y-9.836 E45.21078
G1 X-25.650 Y-11.561 E45.28954
G1 X-26.486 Y-13.701 E45.36830
G1 X-26.539 Y-15.998 E45.44705
G1 X-25.803 Y-18.174 E45.52581
G1 X-24.368 Y-19.967 E45.60457
G1 X-22.405 Y-21.162 E45.68332
G1 X-20.549 Y-21.533 E45.74825
G1 X-20.153 Y-21.613 E45.76208 F1500.000
G1 X-17.882 Y-21.266 E45.84083
G1 X-15.867 Y-20.164 E45.91959
G1 X-14.350 Y-18.439 E45.99834
G1 X-13.514 Y-16.299 E46.07710
G1 X-13.461 Y-14.002 E46.15586
G1 X-14.197 Y-11.826 E46.23461
G1 X-14.297 Y-11.701 E46.24011
G1 X-7.868 Y-16.467 F7800.000
G1 X-15.145 Y-21.703 F7800.000
G1 X-26.123 Y-21.237 F7800.000
G1 X-29.983 Y-17.273 F7800.000
G1 X-30.018 Y-15.811 F7800.000
G1 X-29.982 Y-14.178 F7800.000
G1 X-34.064 Y-14.088 F7800.000
G1 X-34.717 Y-14.188 F7800.000
G1 X-35.313 Y-12.430 E46.30376 F450.000
G1 X-36.475 Y-10.982 E46.36740
G1 X-38.061 Y-10.019 E46.43105
G1 X-39.882 Y-9.656 E46.49470
G1 X-41.717 Y-9.938 E46.55834
G1 X-43.345 Y-10.830 E46.62199
G1 X-44.569 Y-12.226 E46.68563
G1 X-45.242 Y-13.956 E46.74928
G1 X-45.283 Y-15.812 E46.81293
G1 X-44.687 Y-17.570 E46.87657
G1 X-43.525 Y-19.018 E46.94022
G1 X-41.939 Y-19.981 E47.00386
G1 X-41.759 Y-20.017 E47.01014
G1 X-40.118 Y-20.344 E47.06751 F450.000
G1 X-38.283 Y-20.062 E47.13116
G1 X-36.655 Y-19.170 E47.19480
G1 X-35.431 Y-17.774 E47.25845
G1 X-34.758 Y-16.044 E47.32209
G1 X-34.718 Y-14.248 E47.38368
G1 X-34.420 Y-13.920 F7800.000
G1 X-34.092 Y-14.202 F7800.000
G1 X-34.090 Y-14.092 E47.38746 F450.000
G1 X-34.757 Y-12.125 E47.45866
G1 X-36.056 Y-10.505 E47.52986
G1 X-37.831 Y-9.427 E47.60106
G1 X-39.868 Y-9.022 E47.67226
G1 X-41.921 Y-9.337 E47.74347
G1 X-43.742 Y-10.335 E47.81467
G1 X-45.112 Y-11.897 E47.88587
G1 X-45.865 Y-13.832 E47.95707
G1 X-45.911 Y-15.908 E48.02827
G1 X-45.243 Y-17.875 E48.09947
G1 X-43.944 Y-19.495 E48.17067
G1 X-42.169 Y-20.573 E48.24187
G1 X-42.105 Y-20.585 E48.24409
G1 X-40.132 Y-20.978 E48.31307 F450.000
G1 X-38.079 Y-20.663 E48.38428
G1 X-36.258 Y-19.665 E48.45548
G1 X-34.888 Y-18.103 E48.52668
G1 X-34.135 Y-16.168 E48.59788
G1 X-34.093 Y-14.262 E48.66325
G1 X-33.467 Y-14.216 F7800.000
G1 X-33.462 Y-13.995 E48.67080 F1500.000
G1 X-34.200 Y-11.820 E48.74956
G1 X-35.638 Y-10.028 E48.82831
G1 X-37.601 Y-8.836 E48.90707
G1 X-39.854 Y-8.387 E48.98583
G1 X-42.125 Y-8.736 E49.06458
G1 X-44.139 Y-9.841 E49.14334
G1 X-45.654 Y-11.567 E49.22210
G1 X-46.487 Y-13.708 E49.30085
G1 X-46.538 Y-16.005 E49.37961
G1 X-45.800 Y-18.180 E49.45836
G1 X-44.362 Y-19.972 E49.53712
G1 X-42.399 Y-21.164 E49.61588
G1 X-42.227 Y-21.198 E49.62187
G1 X-40.146 Y-21.613 E49.69463 F1500.000
G1 X-37.875 Y-21.264 E49.77339
G1 X-35.861 Y-20.159 E49.85215
G1 X-34.346 Y-18.433 E49.93090
G1 X-33.513 Y-16.292 E50.00966
G1 X-33.469 Y-14.276 E50.07880
G1 X-38.135 Y-0.010 F7800.000
G1 X-36.534 Y0.930 E50.14245 F450.000
G1 X-35.351 Y2.361 E50.20609
G1 X-34.729 Y4.110 E50.26974
G1 X-34.743 Y5.967 E50.33338
G1 X-35.390 Y7.706 E50.39703
G1 X-36.594 Y9.120 E50.46068
G1 X-38.209 Y10.036 E50.52432
G1 X-40.039 Y10.345 E50.58797
G1 X-41.865 Y10.010 E50.65161
G1 X-43.466 Y9.070 E50.71526
G1 X-44.649 Y7.639 E50.77891
G1 X-45.271 Y5.890 E50.84255
G1 X-45.257 Y4.033 E50.90620
G1 X-44.610 Y2.294 E50.96984
G1 X-43.406 Y0.880 E51.03349
G1 X-41.791 Y-0.036 E51.09714
G1 X-40.141 Y-0.315 E51.15451
G1 X-39.961 Y-0.345 E51.16078 F450.000
G1 X-38.194 Y-0.020 E51.22237
G1 X-37.813 Y-0.246 F7800.000
G1 X-38.022 Y-0.624 F7800.000
G1 X-37.914 Y-0.604 E51.22615 F450.000
G1 X-36.123 Y0.447 E51.29735
G1 X-34.800 Y2.048 E51.36855
G1 X-34.104 Y4.005 E51.43975
G1 X-34.119 Y6.081 E51.51095
G1 X-34.843 Y8.028 E51.58216
G1 X-36.190 Y9.609 E51.65336
G1 X-37.996 Y10.634 E51.72456
G1 X-40.044 Y10.980 E51.79576
G1 X-42.086 Y10.604 E51.86696
G1 X-43.877 Y9.553 E51.93816
G1 X-45.200 Y7.952 E52.00936
G1 X-45.897 Y5.995 E52.08056
G1 X-45.881 Y3.919 E52.15176
G1 X-45.157 Y1.972 E52.22297
G1 X-43.810 Y0.391 E52.29417
G1 X-42.004 Y-0.634 E52.36537
G1 X-40.245 Y-0.931 E52.42652
G1 X-39.956 Y-0.980 E52.43657 F450.000
G1 X-38.081 Y-0.635 E52.50194
G1 X-37.909 Y-1.239 F7800.000
G1 X-37.692 Y-1.199 E52.50949 F1500.000
G1 X-35.711 Y-0.036 E52.58825
G1 X-34.248 Y1.735 E52.66700
G1 X-33.478 Y3.899 E52.74576
G1 X-33.495 Y6.196 E52.82452
G1 X-34.296 Y8.349 E52.90327
G1 X-35.786 Y10.098 E52.98203
G1 X-37.783 Y11.232 E53.06078
G1 X-40.048 Y11.614 E53.13954
G1 X-42.308 Y11.199 E53.21830
G1 X-44.289 Y10.036 E53.29705
G1 X-45.752 Y8.265 E53.37581
G1 X-46.522 Y6.101 E53.45457
G1 X-46.505 Y3.804 E53.53332
G1 X-45.704 Y1.651 E53.61208
G1 X-44.215 Y-0.098 E53.69084
G1 X-42.217 Y-1.232 E53.76959 F1500.000
G1 X-39.952 Y-1.614 E53.84835
G1 X-37.968 Y-1.250 E53.91749
G1 X-24.492 Y10.778 F7800.000
G1 X-23.490 Y8.343 E54.00775 F450.000
G1 X-21.120 Y8.026 E54.08972
G1 X-20.881 Y7.994 E54.09801
G1 X-19.273 Y10.079 E54.18827
G1 X-20.275 Y12.513 E54.27853
G1 X-22.884 Y12.863 E54.36879
G1 X-24.455 Y10.826 E54.45699
G1 X-24.830 Y10.564 F7800.000
G1 X-25.207 Y10.874 F7800.000
G1 X-23.930 Y7.772 E54.57199 F450.000
G1 X-21.203 Y7.406 E54.66633
G1 X-20.606 Y7.326 E54.68699
G1 X-18.558 Y9.983 E54.80199
G1 X-19.834 Y13.085 E54.91698
G1 X-23.159 Y13.530 E55.03198
G1 X-25.170 Y10.921 E55.14492
G1 X-25.922 Y10.970 F7800.000
G1 X-24.371 Y7.200 E55.28466 F450.000
G1 X-21.286 Y6.787 E55.39136
G1 X-20.331 Y6.659 E55.42439
G1 X-17.843 Y9.887 E55.56413
G1 X-19.394 Y13.656 E55.70386
G1 X-23.433 Y14.197 E55.84360
G1 X-25.885 Y11.017 E55.98128
G1 X-19.090 Y18.530 F7800.000
G1 X-0.439 Y20.453 F7800.000
G1 X7.671 Y18.999 F7800.000
G1 X12.554 Y16.538 F7800.000
G1 X14.713 Y17.193 F7800.000
G1 X18.805 Y11.753 F7800.000
G1 X19.814 Y8.846 F7800.000
G1 X22.236 Y7.815 E56.07154 F450.000
G1 X24.340 Y9.397 E56.16180
G1 X24.022 Y12.011 E56.25206
G1 X21.599 Y13.042 E56.34232
G1 X19.495 Y11.459 E56.43258
G1 X19.806 Y8.905 E56.52078
G1 X19.723 Y8.456 F7800.000
G1 X19.237 Y8.412 F7800.000
G1 X22.323 Y7.099 E56.63578 F450.000
G1 X25.004 Y9.115 E56.75078
G1 X24.598 Y12.444 E56.86577
G1 X21.512 Y13.758 E56.98077
G1 X18.831 Y11.742 E57.09577
G1 X19.230 Y8.472 E57.20871
G1 X18.660 Y7.978 F7800.000
G1 X22.411 Y6.382 E57.34845 F450.000
G1 X25.668 Y8.832 E57.48818
G1 X25.175 Y12.878 E57.62792
G1 X21.425 Y14.474 E57.76765
G1 X18.167 Y12.024 E57.90739
G1 X18.653 Y8.038 E58.04506
G1 X34.692 Y5.201 F7800.000
G1 X34.655 Y4.984 E58.05260 F450.000
G1 X34.982 Y3.157 E58.11625
G1 X35.915 Y1.552 E58.17990
G1 X37.341 Y0.363 E58.24354
G1 X37.513 Y0.301 E58.24982
G1 X39.087 Y-0.267 E58.30719 F450.000
G1 X40.944 Y-0.261 E58.37083
G1 X42.686 Y0.379 E58.43448
G1 X44.105 Y1.576 E58.49813
G1 X45.028 Y3.187 E58.56177
G1 X45.345 Y5.016 E58.62542
G1 X45.018 Y6.843 E58.68906
G1 X44.085 Y8.448 E58.75271
G1 X42.659 Y9.637 E58.81636
G1 X40.913 Y10.267 E58.88000
G1 X39.056 Y10.261 E58.94365
G1 X37.314 Y9.621 E59.00729
G1 X35.895 Y8.424 E59.07094
G1 X34.972 Y6.813 E59.13459
G1 X34.702 Y5.260 E59.18864
G1 X34.486 Y5.125 F7800.000
G1 X34.076 Y5.307 F7800.000
G1 X34.020 Y4.982 E59.19995 F450.000
G1 X34.387 Y2.938 E59.27115
G1 X35.431 Y1.143 E59.34235
G1 X37.025 Y-0.188 E59.41356
G1 X37.301 Y-0.287 E59.42361
G1 X38.979 Y-0.892 E59.48476 F450.000
G1 X41.056 Y-0.886 E59.55596
G1 X43.005 Y-0.170 E59.62716
G1 X44.592 Y1.170 E59.69836
G1 X45.625 Y2.971 E59.76956
G1 X45.980 Y5.018 E59.84076
G1 X45.613 Y7.062 E59.91196
G1 X44.569 Y8.857 E59.98316
G1 X42.975 Y10.188 E60.05437
G1 X41.021 Y10.892 E60.12557
G1 X38.944 Y10.886 E60.19677
G1 X36.995 Y10.170 E60.26797
G1 X35.408 Y8.830 E60.33917
G1 X34.375 Y7.029 E60.41037
G1 X34.087 Y5.367 E60.46820
G1 X33.461 Y5.414 F7800.000
G1 X33.386 Y4.980 E60.48329 F1500.000
G1 X33.791 Y2.719 E60.56205
G1 X34.946 Y0.733 E60.64081
G1 X36.710 Y-0.738 E60.71956
G1 X37.089 Y-0.875 E60.73339
G1 X38.871 Y-1.517 E60.79832 F1500.000
G1 X41.168 Y-1.511 E60.87707
G1 X43.324 Y-0.718 E60.95583
G1 X45.080 Y0.763 E61.03459
G1 X46.222 Y2.756 E61.11334
G1 X46.614 Y5.020 E61.19210
G1 X46.209 Y7.281 E61.27086
G1 X45.054 Y9.267 E61.34961
G1 X43.290 Y10.738 E61.42837
G1 X41.129 Y11.517 E61.50713
G1 X38.832 Y11.511 E61.58588
G1 X36.676 Y10.718 E61.66464
G1 X34.920 Y9.237 E61.74339
G1 X33.778 Y7.244 E61.82215
G1 X33.471 Y5.473 E61.88376
G1 X38.219 Y-9.960 F7800.000
G1 X36.603 Y-10.873 E61.94740 F450.000
G1 X35.396 Y-12.284 E62.01105
G1 X34.745 Y-14.022 E62.07469
G1 X34.727 Y-15.879 E62.13834
G1 X35.346 Y-17.629 E62.20199
G1 X36.526 Y-19.062 E62.26563
G1 X38.125 Y-20.006 E62.32928
G1 X38.304 Y-20.039 E62.33555
G1 X39.950 Y-20.345 E62.39292 F450.000
G1 X41.781 Y-20.040 E62.45657
G1 X43.397 Y-19.127 E62.52022
G1 X44.604 Y-17.716 E62.58386
G1 X45.255 Y-15.978 E62.64751
G1 X45.273 Y-14.121 E62.71115
G1 X44.654 Y-12.371 E62.77480
G1 X43.474 Y-10.938 E62.83844
G1 X41.875 Y-9.994 E62.90209
G1 X40.050 Y-9.655 E62.96574
G1 X38.278 Y-9.950 E63.02733
G1 X37.901 Y-9.718 F7800.000
G1 X38.116 Y-9.344 F7800.000
G1 X38.008 Y-9.362 E63.03110 F450.000
G1 X36.199 Y-10.383 E63.10230
G1 X34.850 Y-11.961 E63.17351
G1 X34.121 Y-13.906 E63.24471
G1 X34.101 Y-15.983 E63.31591
G1 X34.793 Y-17.941 E63.38711
G1 X36.113 Y-19.544 E63.45831
G1 X37.902 Y-20.600 E63.52951
G1 X38.190 Y-20.653 E63.53956
G1 X39.944 Y-20.980 E63.60071 F450.000
G1 X41.992 Y-20.638 E63.67191
G1 X43.800 Y-19.617 E63.74311
G1 X45.150 Y-18.039 E63.81432
G1 X45.879 Y-16.094 E63.88552
G1 X45.899 Y-14.017 E63.95672
G1 X45.207 Y-12.059 E64.02792
G1 X43.887 Y-10.456 E64.09912
G1 X42.098 Y-9.400 E64.17032
G1 X40.056 Y-9.020 E64.24152
G1 X38.176 Y-9.334 E64.30689
G1 X38.014 Y-8.727 F7800.000
G1 X37.796 Y-8.763 E64.31444 F1500.000
G1 X35.796 Y-9.893 E64.39320
G1 X34.303 Y-11.639 E64.47196
G1 X33.497 Y-13.790 E64.55071
G1 X33.475 Y-16.087 E64.62947
G1 X34.241 Y-18.253 E64.70823
G1 X35.701 Y-20.027 E64.78698
G1 X37.679 Y-21.194 E64.86574
G1 X38.076 Y-21.268 E64.87957
G1 X39.938 Y-21.614 E64.94449 F1500.000
G1 X42.204 Y-21.237 E65.02325
G1 X44.204 Y-20.107 E65.10201
G1 X45.697 Y-18.361 E65.18076
G1 X46.503 Y-16.210 E65.25952
G1 X46.524 Y-13.913 E65.33827
G1 X45.759 Y-11.747 E65.41703
G1 X44.299 Y-9.973 E65.49579
G1 X42.321 Y-8.806 E65.57454
G1 X40.062 Y-8.386 E65.65330
G1 X38.073 Y-8.717 E65.72244
G1 X25.138 Y-13.527 F7800.000
G1 X24.324 Y-11.858 E65.78609 F450.000
G1 X22.989 Y-10.568 E65.84974
G1 X21.293 Y-9.813 E65.91338
G1 X19.441 Y-9.684 E65.97703
G1 X17.657 Y-10.196 E66.04067
G1 X16.155 Y-11.287 E66.10432
G1 X15.117 Y-12.826 E66.16797
G1 X14.668 Y-14.627 E66.23161
G1 X14.862 Y-16.473 E66.29526
G1 X15.675 Y-18.142 E66.35890
G1 X17.011 Y-19.432 E66.42255
G1 X18.707 Y-20.187 E66.48620
G1 X18.889 Y-20.199 E66.49247
G1 X20.559 Y-20.316 E66.54984 F450.000
G1 X22.343 Y-19.804 E66.61349
G1 X23.845 Y-18.713 E66.67713
G1 X24.883 Y-17.174 E66.74078
