; generated by Slic3r 1.2.9 on 2016-08-19 at 00:19:08

; external perimeters extrusion width = 0.40mm
; perimeters extrusion width = 0.48mm
; infill extrusion width = 0.48mm
; solid infill extrusion width = 0.48mm
; top infill extrusion width = 0.48mm
; support material extrusion width = 0.40mm

M107
M190 S70 ; set bed temperature
M104 S210 ; set temperature
G28 ; home all axes
G1 Z5 F5000 ; lift nozzle

M109 S210 ; wait for temperature to be reached
G21 ; set units to millimeters
G90 ; use absolute coordinates
M82 ; use absolute distances for extrusion
G92 E0
G1 Z0.350 F7800.000
G1 X0.000 Y31.625 F7800.000
G1 X-50.000 Y31.625 E1.71420 F1800.000
G1 X-52.259 Y31.228 E1.79283
G1 X-54.247 Y30.085 E1.87146
G1 X-55.726 Y28.332 E1.95009
G1 X-56.519 Y26.180 E2.02871
G1 X-56.625 Y25.000 E2.06933
G1 X-56.625 Y-25.000 E3.78353
G1 X-56.228 Y-27.259 E3.86215
G1 X-55.085 Y-29.247 E3.94078
G1 X-53.332 Y-30.726 E4.01941
G1 X-51.180 Y-31.519 E4.09804
G1 X-50.000 Y-31.625 E4.13865
G1 X50.000 Y-31.625 E7.56705
G1 X52.259 Y-31.228 E7.64568
G1 X54.247 Y-30.085 E7.72431 F1800.000
G1 X55.726 Y-28.332 E7.80294
G1 X56.519 Y-26.180 E7.88157
G1 X56.625 Y-25.000 E7.92218
G1 X56.625 Y25.000 E9.63638
G1 X56.228 Y27.259 E9.71501
G1 X55.085 Y29.247 E9.79363
G1 X53.332 Y30.726 E9.87226
G1 X51.180 Y31.519 E9.95089
G1 X50.000 Y31.625 E9.99150
G1 X0.060 Y31.625 E11.70364
G1 X0.000 Y28.437 F7800.000
G1 X-51.424 Y28.437 E13.46665 F1800.000
G1 X-53.437 Y26.424 E13.56427
G1 X-53.437 Y-26.424 E15.37608
G1 X-51.424 Y-28.437 E15.47369
G1 X51.424 Y-28.437 E18.99971
G1 X53.437 Y-26.424 E19.09732
G1 X53.437 Y26.424 E20.90914 F1800.000
G1 X51.424 Y28.437 E21.00675
G1 X0.060 Y28.437 E22.76770
G1 X0.000 Y27.812 F7800.000
G1 X-51.165 Y27.812 E24.52183 F1800.000
G1 X-52.812 Y26.165 E24.60170
G1 X-52.812 Y-26.165 E26.39577
G1 X-51.165 Y-27.812 E26.47563
G1 X51.165 Y-27.812 E29.98390
G1 X52.812 Y-26.165 E30.06376 F1800.000
G1 X52.812 Y26.165 E31.85783
G1 X51.165 Y27.812 E31.93770
G1 X0.060 Y27.812 E33.68977
G1 X0.000 Y27.187 F7800.000
G1 X-50.906 Y27.187 E35.43503 F1800.000
G1 X-52.187 Y25.906 E35.49715
G1 X-52.187 Y-25.906 E37.27347
G1 X-50.906 Y-27.187 E37.33558
G1 X50.906 Y-27.187 E40.82610
G1 X52.187 Y-25.906 E40.88822
G1 X52.187 Y25.906 E42.66454 F1800.000
G1 X50.906 Y27.187 E42.72666
G1 X0.060 Y27.187 E44.46986
G1 X0.000 Y26.562 F7800.000
G1 X-50.647 Y26.562 E46.20624 F1800.000
G1 X-51.562 Y25.647 E46.25061
G1 X-51.562 Y-25.647 E48.00918
G1 X-50.647 Y-26.562 E48.05355
G1 X50.647 Y-26.562 E51.52632
G1 X51.562 Y-25.647 E51.57069 F1800.000
G1 X51.562 Y25.647 E53.32926
G1 X50.647 Y26.562 E53.37363
G1 X0.060 Y26.562 E55.10796
G1 X0.000 Y25.937 F7800.000
G1 X-50.388 Y25.937 E56.83547 F1800.000
G1 X-50.937 Y25.388 E56.86210
G1 X-50.937 Y-25.388 E58.60292
G1 X-50.388 Y-25.937 E58.62954
G1 X50.388 Y-25.937 E62.08456
G1 X50.937 Y-25.388 E62.11118
G1 X50.937 Y25.388 E63.85201 F1800.000
G1 X50.388 Y25.937 E63.87863
G1 X0.060 Y25.937 E65.60408
G1 E63.60408 F2400.00000
G92 E0
G1 X50.129 Y25.312 F7800.000
G1 E2.00000 F2400.00000
G1 X-50.129 Y25.312 E5.43727 F1800.000
G1 X-50.312 Y25.129 E5.44615
G1 X-50.312 Y-25.129 E7.16922
G1 X-50.129 Y-25.312 E7.17810
G1 X50.129 Y-25.312 E10.61537
G1 X50.312 Y-25.129 E10.62425
G1 X50.312 Y25.129 E12.34732
G1 X50.172 Y25.270 E12.35414
G1 X49.650 Y24.650 F7800.000
G1 X-49.650 Y24.650 E15.75854 F750.000
G1 X-49.650 Y-24.650 E17.44874
G1 X49.650 Y-24.650 E20.85314
G1 X49.650 Y24.590 E22.54129
G1 X49.304 Y24.450 F7800.000
G1 X28.975 Y0.975 F7800.000
G1 X28.975 Y-15.064 E23.09116 F1500.000
G1 X28.677 Y-17.327 E23.16940
G1 X27.764 Y-19.512 E23.25061
G1 X26.352 Y-21.352 E23.33012
G1 X24.492 Y-22.780 E23.41052
G1 X22.214 Y-23.723 E23.49505
G1 X22.274 Y-24.025 E23.50560
G1 X49.025 Y-24.025 E24.42275
G1 X49.025 Y24.025 E26.07010
G1 X-49.025 Y24.025 E29.43166
G1 X-49.025 Y-24.025 E31.07901
G1 X-22.274 Y-24.025 E31.99615
G1 X-22.214 Y-23.723 E32.00670
G1 X-24.492 Y-22.780 E32.09123
G1 X-26.352 Y-21.352 E32.17163
G1 X-27.780 Y-19.492 E32.25203
G1 X-28.677 Y-17.325 E32.33243
G1 X-28.975 Y-15.064 E32.41062
G1 X-28.975 Y0.975 E32.96050
G1 X-11.219 Y0.975 E33.56924
G1 X-7.578 Y-15.313 E34.14143
G1 X-13.700 Y-21.392 E34.43725
G1 X-15.508 Y-22.780 E34.51538
G1 X-17.786 Y-23.723 E34.59991
G1 X-17.726 Y-24.025 E34.61046
G1 X17.726 Y-24.025 E35.82592
G1 X17.786 Y-23.723 E35.83647
G1 X15.508 Y-22.780 E35.92100
G1 X13.700 Y-21.392 E35.99913
G1 X7.578 Y-15.313 E36.29496
G1 X11.219 Y0.975 E36.86714
G1 X28.915 Y0.975 E37.47383
G1 X29.600 Y1.600 F7800.000
G1 X29.600 Y-15.105 E38.04653 F1500.000
G1 X29.286 Y-17.491 E38.12902
G1 X28.309 Y-19.828 E38.21587
G1 X26.798 Y-21.798 E38.30100
G1 X25.041 Y-23.146 E38.37691
G1 X25.127 Y-23.400 E38.38612
G1 X48.400 Y-23.400 E39.18401
G1 X48.400 Y23.400 E40.78851
G1 X-48.400 Y23.400 E44.10722
G1 X-48.400 Y-23.400 E45.71173
G1 X-25.127 Y-23.400 E46.50961
G1 X-25.041 Y-23.146 E46.51882
G1 X-26.798 Y-21.798 E46.59473
G1 X-28.326 Y-19.807 E46.68078
G1 X-29.286 Y-17.488 E46.76682
G1 X-29.600 Y-15.105 E46.84923
G1 X-29.600 Y1.600 E47.42193
G1 X-10.718 Y1.600 E48.06926
G1 X-6.892 Y-15.513 E48.67044
G1 X-13.288 Y-21.864 E48.97946
G1 X-14.959 Y-23.146 E49.05165
G1 X-14.873 Y-23.400 E49.06086
G1 X14.873 Y-23.400 E50.08064
G1 X14.959 Y-23.146 E50.08985
G1 X13.288 Y-21.864 E50.16204
G1 X6.892 Y-15.513 E50.47106
G1 X10.718 Y1.600 E51.07224
G1 X29.540 Y1.600 E51.71751
G1 X36.635 Y-10.855 F7800.000
G1 X35.396 Y-12.284 E51.78235 F450.000
G1 X34.745 Y-14.022 E51.84600
G1 X34.727 Y-15.879 E51.90964
G1 X35.346 Y-17.629 E51.97329
G1 X36.526 Y-19.062 E52.03693
G1 X38.125 Y-20.006 E52.10058
G1 X39.790 Y-20.315 E52.15864
G1 X39.950 Y-20.345 E52.16422 F450.000
G1 X41.781 Y-20.040 E52.22787
G1 X43.397 Y-19.127 E52.29152
G1 X44.604 Y-17.716 E52.35516
G1 X45.255 Y-15.978 E52.41881
G1 X45.273 Y-14.121 E52.48246
G1 X44.654 Y-12.371 E52.54610
G1 X43.474 Y-10.938 E52.60975
G1 X41.875 Y-9.994 E52.67340
G1 X40.050 Y-9.655 E52.73704
G1 X38.219 Y-9.960 E52.80069
G1 X36.687 Y-10.825 E52.86101
G1 X36.253 Y-10.735 F7800.000
G1 X36.328 Y-10.311 F7800.000
G1 X36.199 Y-10.383 E52.86605 F450.000
G1 X34.850 Y-11.961 E52.93725
G1 X34.121 Y-13.906 E53.00846
G1 X34.101 Y-15.983 E53.07966
G1 X34.793 Y-17.941 E53.15086
G1 X36.113 Y-19.545 E53.22206
G1 X37.902 Y-20.600 E53.29326
G1 X39.675 Y-20.930 E53.35510
G1 X39.944 Y-20.980 E53.36446 F450.000
G1 X41.992 Y-20.638 E53.43566
G1 X43.801 Y-19.617 E53.50687
G1 X45.150 Y-18.039 E53.57807
G1 X45.879 Y-16.094 E53.64927
G1 X45.899 Y-14.017 E53.72047
G1 X45.207 Y-12.059 E53.79167
G1 X43.887 Y-10.456 E53.86287
G1 X42.098 Y-9.400 E53.93407
G1 X40.056 Y-9.020 E54.00527
G1 X38.008 Y-9.362 E54.07648
G1 X36.380 Y-10.281 E54.14057
G1 X36.020 Y-9.767 F7800.000
G1 X35.796 Y-9.893 E54.14940 F1500.000
G1 X34.303 Y-11.639 E54.22815
G1 X33.497 Y-13.790 E54.30691
G1 X33.476 Y-16.087 E54.38567
G1 X34.241 Y-18.253 E54.46442
G1 X35.701 Y-20.027 E54.54318
G1 X37.679 Y-21.194 E54.62194
G1 X39.561 Y-21.544 E54.68755
G1 X39.938 Y-21.614 E54.70069 F1500.000
G1 X42.204 Y-21.237 E54.77945
G1 X44.204 Y-20.107 E54.85821
G1 X45.697 Y-18.361 E54.93696
G1 X46.503 Y-16.210 E55.01572
G1 X46.524 Y-13.913 E55.09447
G1 X45.759 Y-11.747 E55.17323
G1 X44.299 Y-9.973 E55.25199
G1 X42.321 Y-8.806 E55.33074
G1 X40.062 Y-8.386 E55.40950
G1 X37.796 Y-8.763 E55.48826
G1 X36.073 Y-9.737 E55.55613
G1 X39.087 Y-0.267 F7800.000
G1 X40.944 Y-0.261 E55.61978 F450.000
G1 X42.686 Y0.379 E55.68343
G1 X44.105 Y1.576 E55.74707
G1 X45.028 Y3.187 E55.81072
G1 X45.345 Y5.016 E55.87436
G1 X45.018 Y6.843 E55.93801
G1 X44.085 Y8.448 E56.00166
G1 X42.659 Y9.637 E56.06530
G1 X40.913 Y10.267 E56.12895
G1 X39.056 Y10.261 E56.19260
G1 X37.314 Y9.621 E56.25624
G1 X35.895 Y8.424 E56.31989
G1 X34.972 Y6.813 E56.38353
G1 X34.655 Y4.984 E56.44718
G1 X34.982 Y3.157 E56.51083
G1 X35.915 Y1.552 E56.57447
G1 X37.341 Y0.363 E56.63812
G1 X37.494 Y0.308 E56.64370
G1 X39.031 Y-0.247 E56.69971 F450.000
G1 X39.247 Y-0.634 F7800.000
G1 X38.875 Y-0.855 F7800.000
G1 X38.979 Y-0.892 E56.70348 F450.000
G1 X41.056 Y-0.886 E56.77469
G1 X43.005 Y-0.170 E56.84589
G1 X44.592 Y1.170 E56.91709
G1 X45.625 Y2.971 E56.98829
G1 X45.980 Y5.018 E57.05949
G1 X45.613 Y7.062 E57.13069
G1 X44.569 Y8.857 E57.20189
G1 X42.975 Y10.188 E57.27309
G1 X41.021 Y10.892 E57.34429
G1 X38.944 Y10.886 E57.41550
G1 X36.995 Y10.170 E57.48670
G1 X35.408 Y8.830 E57.55790
G1 X34.375 Y7.029 E57.62910
G1 X34.020 Y4.982 E57.70030
G1 X34.387 Y2.938 E57.77150
G1 X35.431 Y1.143 E57.84270
G1 X37.025 Y-0.188 E57.91390
G1 X37.282 Y-0.280 E57.92326
G1 X38.819 Y-0.834 E57.97927 F450.000
G1 X38.663 Y-1.443 F7800.000
G1 X38.871 Y-1.517 E57.98683 F1500.000
G1 X41.168 Y-1.511 E58.06558
G1 X43.324 Y-0.718 E58.14434
G1 X45.080 Y0.763 E58.22310
G1 X46.222 Y2.756 E58.30185
G1 X46.614 Y5.020 E58.38061
G1 X46.209 Y7.281 E58.45937
G1 X45.054 Y9.267 E58.53812
G1 X43.290 Y10.738 E58.61688
G1 X41.129 Y11.517 E58.69563
G1 X38.832 Y11.511 E58.77439
G1 X36.676 Y10.718 E58.85315
G1 X34.920 Y9.237 E58.93191
G1 X33.778 Y7.244 E59.01066
G1 X33.386 Y4.980 E59.08942
G1 X33.791 Y2.719 E59.16817
G1 X34.946 Y0.733 E59.24693
G1 X36.710 Y-0.738 E59.32569
G1 X37.070 Y-0.868 E59.33882
G1 X38.607 Y-1.422 E59.39483 F1500.000
G1 X24.340 Y9.397 F7800.000
G1 X24.022 Y12.011 E59.48509 F450.000
G1 X21.599 Y13.042 E59.57535
G1 X19.495 Y11.459 E59.66561
G1 X19.814 Y8.846 E59.75587
G1 X22.236 Y7.815 E59.84613
G1 X24.292 Y9.361 E59.93433
G1 X24.723 Y9.514 F7800.000
G1 X25.004 Y9.115 F7800.000
G1 X24.598 Y12.444 E60.04933 F450.000
G1 X21.512 Y13.758 E60.16433
G1 X18.831 Y11.742 E60.27933
G1 X19.237 Y8.412 E60.39433
G1 X22.323 Y7.099 E60.50932
G1 X24.956 Y9.079 E60.62227
G1 X25.668 Y8.832 F7800.000
G1 X25.175 Y12.878 E60.76200 F450.000
G1 X21.425 Y14.474 E60.90174
G1 X18.167 Y12.024 E61.04147
G1 X18.660 Y7.978 E61.18121
G1 X22.411 Y6.382 E61.32094
G1 X25.620 Y8.796 E61.45862
G1 X27.738 Y5.504 F7800.000
G1 X-6.859 Y1.970 F7800.000
G1 X-28.910 Y6.184 F7800.000
G1 X-32.263 Y-0.044 F7800.000
G1 X-33.634 Y-6.524 F7800.000
G1 X-32.221 Y-10.097 F7800.000
G1 X-34.734 Y-12.113 F7800.000
G1 X-35.313 Y-12.430 F7800.000
G1 X-36.475 Y-10.982 E61.52227 F450.000
G1 X-38.061 Y-10.018 E61.58592
G1 X-39.882 Y-9.656 E61.64956
G1 X-41.717 Y-9.938 E61.71321
G1 X-43.345 Y-10.830 E61.77686
G1 X-44.569 Y-12.226 E61.84050
G1 X-45.242 Y-13.956 E61.90415
G1 X-45.283 Y-15.812 E61.96779
G1 X-44.687 Y-17.570 E62.03144
G1 X-43.525 Y-19.018 E62.09508
G1 X-41.939 Y-19.982 E62.15873
G1 X-40.277 Y-20.312 E62.21680
G1 X-40.118 Y-20.344 E62.22238 F450.000
G1 X-38.283 Y-20.062 E62.28602
G1 X-36.655 Y-19.170 E62.34967
G1 X-35.431 Y-17.774 E62.41332
G1 X-34.758 Y-16.044 E62.47696
G1 X-34.717 Y-14.188 E62.54061
G1 X-35.294 Y-12.487 E62.60220
G1 X-35.126 Y-12.077 F7800.000
G1 X-34.826 Y-12.039 F7800.000
G1 X-36.056 Y-10.505 E62.66962 F450.000
G1 X-37.831 Y-9.427 E62.74082
G1 X-39.868 Y-9.022 E62.81203
G1 X-41.921 Y-9.337 E62.88323
G1 X-43.742 Y-10.335 E62.95443
G1 X-45.112 Y-11.897 E63.02563
G1 X-45.865 Y-13.832 E63.09683
G1 X-45.911 Y-15.908 E63.16803
G1 X-45.243 Y-17.875 E63.23923
G1 X-43.944 Y-19.495 E63.31043
G1 X-42.169 Y-20.573 E63.38163
G1 X-40.400 Y-20.925 E63.44348
G1 X-40.132 Y-20.978 E63.45284 F450.000
G1 X-38.079 Y-20.663 E63.52404
G1 X-36.258 Y-19.665 E63.59524
G1 X-34.888 Y-18.103 E63.66644
G1 X-34.135 Y-16.168 E63.73764
G1 X-34.089 Y-14.092 E63.80884
G1 X-34.757 Y-12.125 E63.88004
G1 X-34.788 Y-12.086 E63.88176
G1 X-34.338 Y-11.648 F7800.000
G1 X-35.638 Y-10.028 E63.95296 F1500.000
G1 X-37.601 Y-8.836 E64.03172
G1 X-39.854 Y-8.387 E64.11048
G1 X-42.125 Y-8.736 E64.18924
G1 X-44.139 Y-9.841 E64.26799
G1 X-45.654 Y-11.567 E64.34675
G1 X-46.487 Y-13.708 E64.42550
G1 X-46.538 Y-16.005 E64.50426
G1 X-45.800 Y-18.180 E64.58301
G1 X-44.362 Y-19.972 E64.66177
G1 X-42.399 Y-21.164 E64.74053
G1 X-40.522 Y-21.538 E64.80615
G1 X-40.146 Y-21.613 E64.81929 F1500.000
G1 X-37.875 Y-21.264 E64.89804
G1 X-35.861 Y-20.159 E64.97680
G1 X-34.346 Y-18.433 E65.05555
G1 X-33.513 Y-16.292 E65.13431
G1 X-33.462 Y-13.995 E65.21307
G1 X-34.200 Y-11.820 E65.29182
G1 X-34.301 Y-11.695 E65.29732
G1 X-38.135 Y-0.010 F7800.000
G1 X-36.534 Y0.930 E65.36097 F450.000
G1 X-35.351 Y2.361 E65.42461
G1 X-34.729 Y4.110 E65.48826
G1 X-34.743 Y5.967 E65.55191
G1 X-35.390 Y7.706 E65.61555
G1 X-36.594 Y9.120 E65.67920
G1 X-38.209 Y10.036 E65.74284
G1 X-40.039 Y10.345 E65.80649
G1 X-41.865 Y10.010 E65.87014
G1 X-43.466 Y9.070 E65.93378
G1 X-44.649 Y7.639 E65.99743
G1 X-45.271 Y5.890 E66.06108
G1 X-45.257 Y4.033 E66.12472
G1 X-44.610 Y2.294 E66.18837
G1 X-43.406 Y0.880 E66.25201
G1 X-41.791 Y-0.036 E66.31566
G1 X-41.631 Y-0.063 E66.32124
G1 X-39.961 Y-0.345 E66.37931 F450.000
G1 X-38.194 Y-0.020 E66.44090
G1 X-37.813 Y-0.246 F7800.000
G1 X-37.819 Y-0.548 F7800.000
G1 X-36.123 Y0.447 E66.50832 F450.000
G1 X-34.800 Y2.048 E66.57952
G1 X-34.103 Y4.005 E66.65072
G1 X-34.119 Y6.081 E66.72192
G1 X-34.843 Y8.028 E66.79312
G1 X-36.190 Y9.609 E66.86432
G1 X-37.996 Y10.634 E66.93553
G1 X-40.044 Y10.980 E67.00673
G1 X-42.086 Y10.604 E67.07793
G1 X-43.877 Y9.553 E67.14913
G1 X-45.200 Y7.952 E67.22033
G1 X-45.897 Y5.995 E67.29153
G1 X-45.881 Y3.919 E67.36273
G1 X-45.157 Y1.972 E67.43394
G1 X-43.810 Y0.391 E67.50514
G1 X-42.004 Y-0.634 E67.57634
G1 X-41.735 Y-0.680 E67.58570
G1 X-39.956 Y-0.980 E67.64754 F450.000
G1 X-37.914 Y-0.604 E67.71874
G1 X-37.870 Y-0.579 E67.72046
G1 X-37.502 Y-1.087 F7800.000
G1 X-35.711 Y-0.036 E67.79166 F1500.000
G1 X-34.248 Y1.735 E67.87042
G1 X-33.478 Y3.899 E67.94918
G1 X-33.495 Y6.196 E68.02793
G1 X-34.296 Y8.349 E68.10669
G1 X-35.785 Y10.098 E68.18544
G1 X-37.783 Y11.232 E68.26420
G1 X-40.048 Y11.614 E68.34296
G1 X-42.308 Y11.199 E68.42171
G1 X-44.289 Y10.036 E68.50047
G1 X-45.752 Y8.265 E68.57923
G1 X-46.522 Y6.101 E68.65798
G1 X-46.505 Y3.804 E68.73674
G1 X-45.704 Y1.651 E68.81550
G1 X-44.215 Y-0.098 E68.89425
G1 X-42.217 Y-1.232 E68.97301 F1500.000
G1 X-39.952 Y-1.614 E69.05177
G1 X-37.692 Y-1.199 E69.13052
G1 X-37.554 Y-1.118 E69.13602
G1 X-23.490 Y8.343 F7800.000
G1 X-20.880 Y7.994 E69.22628 F450.000
G1 X-19.273 Y10.079 E69.31654
G1 X-20.275 Y12.513 E69.40680
G1 X-22.884 Y12.863 E69.49706
G1 X-24.492 Y10.778 E69.58732
G1 X-23.513 Y8.399 E69.67552
G1 X-23.473 Y7.944 F7800.000
G1 X-23.930 Y7.772 F7800.000
G1 X-20.606 Y7.326 E69.79052 F450.000
G1 X-18.558 Y9.983 E69.90552
G1 X-19.834 Y13.085 E70.02052
G1 X-23.159 Y13.530 E70.13552
G1 X-25.207 Y10.874 E70.25052
G1 X-23.953 Y7.827 E70.36346
G1 X-24.371 Y7.200 F7800.000
G1 X-20.331 Y6.659 E70.50319 F450.000
G1 X-17.843 Y9.887 E70.64293
G1 X-19.394 Y13.656 E70.78267
G1 X-23.433 Y14.197 E70.92240
G1 X-25.922 Y10.970 E71.06214
G1 X-24.394 Y7.256 E71.19982
G1 X-11.199 Y6.441 F7800.000
G1 X-6.194 Y0.929 F7800.000
G1 X-3.695 Y-2.170 F7800.000
G1 X-5.770 Y-9.085 F7800.000
G1 X-3.332 Y-10.996 F7800.000
G1 X-2.589 Y-11.101 F7800.000
G1 X-1.606 Y-13.544 E71.29008 F450.000
G1 X1.000 Y-13.914 E71.38033
G1 X2.624 Y-11.842 E71.47059
G1 X1.642 Y-9.400 E71.56085
G1 X-0.965 Y-9.029 E71.65112
G1 X-2.552 Y-11.054 E71.73932
G1 X-2.928 Y-11.313 F7800.000
G1 X-3.303 Y-11.000 F7800.000
G1 X-2.052 Y-14.112 E71.85432 F450.000
G1 X1.269 Y-14.584 E71.96931
G1 X3.339 Y-11.944 E72.08431
G1 X2.087 Y-8.832 E72.19931
G1 X-1.234 Y-8.360 E72.31431
G1 X-3.266 Y-10.952 E72.42725
G1 X-4.018 Y-10.898 F7800.000
G1 X-2.497 Y-14.680 E72.56699 F450.000
G1 X1.539 Y-15.253 E72.70672
G1 X4.053 Y-12.045 E72.84646
G1 X2.532 Y-8.264 E72.98619
G1 X-1.503 Y-7.690 E73.12593
G1 X-3.981 Y-10.851 E73.26361
G1 X-1.491 Y4.775 F7800.000
G1 X-0.105 Y4.592 E73.31154 F450.000
G1 X0.024 Y4.575 E73.31599 F450.000
G1 X1.539 Y4.775 E73.36838
G1 X2.950 Y5.359 E73.42076
G1 X4.162 Y6.290 E73.47314
G1 X5.093 Y7.502 E73.52553
G1 X5.677 Y8.913 E73.57791
G1 X5.877 Y10.428 E73.63030
G1 X5.677 Y11.943 E73.68268
G1 X5.093 Y13.355 E73.73507
G1 X4.162 Y14.567 E73.78745
G1 X2.950 Y15.497 E73.83983
G1 X1.539 Y16.082 E73.89222
G1 X0.024 Y16.281 E73.94460
G1 X-1.491 Y16.082 E73.99699
G1 X-2.903 Y15.497 E74.04937
G1 X-4.115 Y14.567 E74.10175
G1 X-5.045 Y13.355 E74.15414
G1 X-5.630 Y11.943 E74.20652
G1 X-5.829 Y10.428 E74.25891
G1 X-5.630 Y8.913 E74.31129
