; generated by Slic3r 1.2.9 on 2017-01-25 at 19:43:53

; external perimeters extrusion width = 0.40mm
; perimeters extrusion width = 0.48mm
; infill extrusion width = 0.48mm
; solid infill extrusion width = 0.48mm
; top infill extrusion width = 0.48mm

M107
M190 S70 ; set bed temperature
M104 S210 ; set temperature
G28 ; home all axes
G1 Z5 F5000 ; lift nozzle

M109 S210 ; wait for temperature to be reached
G21 ; set units to millimeters
G90 ; use absolute coordinates
M82 ; use absolute distances for extrusion
G92 E0
G1 Z0.350 F7800.000
G1 E-2.00000 F2400.00000
G92 E0
G1 X0.000 Y-26.624 F7800.000
G1 E2.00000 F2400.00000
G1 X23.000 Y-26.624 E2.78854 F1800.000
G1 X25.259 Y-26.227 E2.86717
G1 X27.247 Y-25.084 E2.94580 F1800.000
G1 X28.726 Y-23.331 E3.02443
G1 X29.519 Y-21.179 E3.10306
G1 X29.625 Y-20.000 E3.14367
G1 X29.625 Y20.000 E4.51503
G1 X29.228 Y22.259 E4.59365
G1 X28.085 Y24.247 E4.67228
G1 X26.332 Y25.727 E4.75091
G1 X24.180 Y26.519 E4.82954
G1 X23.000 Y26.625 E4.87015
G1 X-23.000 Y26.625 E6.44722
G1 X-25.259 Y26.228 E6.52585
G1 X-27.247 Y25.085 E6.60448
G1 X-28.726 Y23.332 E6.68311
G1 X-29.519 Y21.180 E6.76174
G1 X-29.625 Y20.000 E6.80235
G1 X-29.625 Y-20.000 E8.17371
G1 X-29.228 Y-22.258 E8.25234
G1 X-28.085 Y-24.247 E8.33097
G1 X-26.332 Y-25.726 E8.40959
G1 X-24.180 Y-26.519 E8.48822
G1 X-23.000 Y-26.624 E8.52883
G1 X-0.060 Y-26.624 E9.31531
G1 E7.31531 F2400.00000
G92 E0
G1 X-1.576 Y-23.436 F7800.000
G1 E2.00000 F2400.00000
G1 X-0.259 Y-22.119 E2.06389 F1800.000
G1 X0.259 Y-22.119 E2.08164 F1800.000
G1 X1.577 Y-23.436 E2.14552
G1 X24.424 Y-23.436 E2.92882
G1 X26.437 Y-21.423 E3.02643
G1 X26.437 Y21.424 E4.49540
G1 X24.424 Y23.437 E4.59302
G1 X1.577 Y23.437 E5.37631
G1 X0.259 Y22.120 E5.44020
G1 X-0.259 Y22.120 E5.45795
G1 X-1.576 Y23.437 E5.52184
G1 X-24.424 Y23.437 E6.30513
G1 X-26.437 Y21.424 E6.40274
G1 X-26.437 Y-21.423 E7.87172
G1 X-24.424 Y-23.436 E7.96933
G1 X-1.636 Y-23.436 E8.75057
G1 X-1.835 Y-22.812 F7800.000
G1 X-0.259 Y-21.235 E8.82701 F1800.000
G1 X0.259 Y-21.235 E8.84475
G1 X1.835 Y-22.812 E8.92119
G1 X24.165 Y-22.812 E9.68674
G1 X25.812 Y-21.164 E9.76660
G1 X25.812 Y21.165 E11.21783
G1 X24.165 Y22.812 E11.29769
G1 X1.835 Y22.812 E12.06324
G1 X0.259 Y21.236 E12.13968
G1 X-0.259 Y21.236 E12.15743
G1 X-1.835 Y22.812 E12.23386
G1 X-24.165 Y22.812 E12.99941
G1 X-25.812 Y21.165 E13.07927
G1 X-25.812 Y-21.164 E14.53050
G1 X-24.165 Y-22.812 E14.61037
G1 X-1.895 Y-22.812 E15.37386
G1 X-2.094 Y-22.187 F7800.000
G1 X-0.813 Y-20.905 E15.43597 F1800.000
G1 X-0.813 Y20.906 E16.86945 F1800.000
G1 X-2.094 Y22.188 E16.93157
G1 X-23.906 Y22.188 E17.67937
G1 X-25.187 Y20.906 E17.74149
G1 X-25.187 Y-20.905 E19.17496
G1 X-23.906 Y-22.187 E19.23708
G1 X-2.154 Y-22.187 E19.98282
G1 X-2.353 Y-21.562 F7800.000
G1 X-1.438 Y-20.647 E20.02719 F1800.000
G1 X-1.438 Y20.648 E21.44292
G1 X-2.353 Y21.563 E21.48729
G1 X-23.647 Y21.563 E22.21734
G1 X-24.562 Y20.648 E22.26171
G1 X-24.562 Y-20.647 E23.67744
G1 X-23.647 Y-21.562 E23.72181
G1 X-2.413 Y-21.562 E24.44981
G1 X-2.612 Y-20.937 F7800.000
G1 X-2.063 Y-20.388 E24.47643 F1800.000
G1 X-2.063 Y20.389 E25.87441 F1800.000
G1 X-2.612 Y20.938 E25.90103
G1 X-23.388 Y20.938 E26.61333
G1 X-23.937 Y20.389 E26.63996
G1 X-23.937 Y-20.388 E28.03794
G1 X-23.388 Y-20.937 E28.06456
G1 X-2.672 Y-20.937 E28.77480
G1 X-2.871 Y-20.312 F7800.000
G1 X-2.688 Y-20.129 E28.78368 F1800.000
G1 X-2.688 Y20.130 E30.16391
G1 X-2.871 Y20.313 E30.17279
G1 X-23.129 Y20.313 E30.86734
G1 X-23.312 Y20.130 E30.87621
G1 X-23.312 Y-20.129 E32.25645
G1 X-23.129 Y-20.312 E32.26532
G1 X-2.931 Y-20.312 E32.95782
G1 E30.95782 F2400.00000
G92 E0
G1 X-2.000 Y-20.414 F7800.000
G1 X-2.000 Y-20.414 F7800.000
G1 X0.000 Y-20.414 F7800.000
G1 X0.813 Y-20.312 F7800.000
G1 E2.00000 F2400.00000
G1 X0.813 Y-20.905 E2.02035 F1800.000
G1 X2.094 Y-22.187 E2.08247
G1 X23.906 Y-22.187 E2.83026
G1 X25.187 Y-20.905 E2.89238
G1 X25.187 Y20.906 E4.32586 F1800.000
G1 X23.906 Y22.188 E4.38798
G1 X2.094 Y22.188 E5.13577
G1 X0.813 Y20.906 E5.19789
G1 X0.813 Y-20.252 E6.60897
G1 X1.438 Y-20.312 F7800.000
G1 X1.438 Y-20.647 E6.62044 F1800.000
G1 X2.353 Y-21.562 E6.66481
G1 X23.647 Y-21.562 E7.39486
G1 X24.562 Y-20.647 E7.43923 F1800.000
G1 X24.562 Y20.648 E8.85496
G1 X23.647 Y21.563 E8.89933
G1 X2.353 Y21.563 E9.62938
G1 X1.438 Y20.648 E9.67375
G1 X1.438 Y-20.252 E11.07595
G1 X2.063 Y-20.312 F7800.000
G1 X2.063 Y-20.388 E11.07855 F1800.000
G1 X2.612 Y-20.937 E11.10517
G1 X23.389 Y-20.937 E11.81747
G1 X23.938 Y-20.388 E11.84409
G1 X23.938 Y20.389 E13.24208 F1800.000
G1 X23.389 Y20.938 E13.26870
G1 X2.612 Y20.938 E13.98100
G1 X2.063 Y20.389 E14.00762
G1 X2.063 Y-20.252 E15.40095
G1 X2.688 Y-20.129 F7800.000
G1 X2.871 Y-20.312 E15.40982 F1800.000
G1 X23.130 Y-20.312 E16.10438
G1 X23.313 Y-20.129 E16.11325
G1 X23.313 Y20.130 E17.49349
G1 X23.130 Y20.313 E17.50236
G1 X2.871 Y20.313 E18.19691
G1 X2.688 Y20.130 E18.20579
G1 X2.688 Y-20.069 E19.58396
G1 X3.350 Y-19.650 F7800.000
G1 X22.650 Y-19.650 E20.24565 F750.000
G1 X22.650 Y19.650 E21.59301
G1 X3.350 Y19.650 E22.25469
G1 X3.350 Y-19.590 E23.59999
G1 X3.697 Y-19.450 F7800.000
G1 X3.975 Y-19.025 F7800.000
G1 X22.025 Y-19.025 E24.21883 F1500.000
G1 X22.025 Y19.026 E25.52334
G1 X3.975 Y19.026 E26.14217
G1 X3.975 Y-18.965 E27.44463
G1 X4.600 Y-18.400 F7800.000
G1 X21.400 Y-18.400 E28.02062 F1500.000
G1 X21.400 Y18.401 E29.28229
G1 X4.600 Y18.401 E29.85827
G1 X4.600 Y-18.340 E31.11788
G1 X10.356 Y-11.920 F7800.000
G1 X11.990 Y-13.108 E31.18713 F450.000
G1 X14.010 Y-13.108 E31.25637 F450.000
G1 X15.644 Y-11.920 E31.32562
G1 X16.268 Y-10.000 E31.39486
G1 X15.644 Y-8.079 E31.46411
G1 X14.010 Y-6.891 E31.53335
G1 X11.990 Y-6.891 E31.60259
G1 X10.356 Y-8.079 E31.67184
G1 X9.732 Y-10.000 E31.74108
G1 X10.338 Y-11.863 E31.80827
G1 X10.233 Y-12.301 F7800.000
G1 X9.762 Y-12.114 F7800.000
G1 X9.825 Y-12.307 E31.81523 F450.000
G1 X11.787 Y-13.733 E31.89840
G1 X14.213 Y-13.733 E31.98157 F450.000
G1 X16.176 Y-12.307 E32.06473
G1 X16.925 Y-10.000 E32.14790
G1 X16.176 Y-7.692 E32.23107
G1 X14.213 Y-6.267 E32.31423
G1 X11.787 Y-6.267 E32.39740
G1 X9.825 Y-7.692 E32.48057
G1 X9.075 Y-10.000 E32.56373
G1 X9.744 Y-12.056 E32.63788
G1 X9.168 Y-12.307 F7800.000
G1 X9.293 Y-12.693 E32.65181 F450.000
G1 X11.584 Y-14.357 E32.74889
G1 X14.416 Y-14.357 E32.84598 F450.000
G1 X16.707 Y-12.693 E32.94307
G1 X17.582 Y-10.000 E33.04016
G1 X16.707 Y-7.306 E33.13725
G1 X14.416 Y-5.642 E33.23434
G1 X11.584 Y-5.642 E33.33143
G1 X9.293 Y-7.306 E33.42851
G1 X8.418 Y-10.000 E33.52560
G1 X9.149 Y-12.250 E33.60671
G1 X8.654 Y-7.896 F7800.000
G1 X4.979 Y-11.571 E33.78566 F600.000
G1 X4.979 Y-12.459 E33.81622
G1 X8.226 Y-9.211 E33.97436
G1 X8.122 Y-10.203 E34.00869
G1 X4.979 Y-13.346 E34.16177
G1 X4.979 Y-14.234 E34.19233
G1 X8.340 Y-10.873 E34.35601
G1 X8.558 Y-11.542 E34.38026
G1 X4.979 Y-15.121 E34.55453
G1 X4.979 Y-16.009 E34.58509
G1 X8.775 Y-12.212 E34.76996
G1 X8.996 Y-12.879 E34.79416
G1 X4.979 Y-16.896 E34.98975
G1 X4.979 Y-17.784 E35.02031
G1 X9.510 Y-13.253 E35.24094
G1 X10.024 Y-13.626 E35.26282
G1 X5.629 Y-18.021 E35.47681
G1 X6.516 Y-18.021 E35.50737
G1 X10.538 Y-14.000 E35.70318
G1 X11.052 Y-14.373 E35.72506
G1 X7.404 Y-18.021 E35.90268
G1 X8.291 Y-18.021 E35.93324
G1 X11.577 Y-14.736 E36.09321
G1 X12.464 Y-14.736 E36.12377
G1 X9.179 Y-18.021 E36.28374
G1 X10.066 Y-18.021 E36.31429
G1 X13.352 Y-14.736 E36.47426
G1 X14.239 Y-14.736 E36.50482
G1 X10.954 Y-18.021 E36.66479
G1 X11.842 Y-18.021 E36.69535
G1 X16.221 Y-13.642 E36.90861
G1 X17.148 Y-12.715 F7800.000
G1 X21.022 Y-8.841 E37.09723 F600.000
G1 X21.022 Y-9.728 E37.12779
G1 X12.729 Y-18.021 E37.53160
G1 X13.617 Y-18.021 E37.56216
G1 X21.022 Y-10.616 E37.92274
G1 X21.022 Y-11.503 E37.95330
G1 X14.504 Y-18.021 E38.27067
G1 X15.392 Y-18.021 E38.30123
G1 X21.022 Y-12.391 E38.57539
G1 X21.022 Y-13.278 E38.60595
G1 X16.279 Y-18.021 E38.83689
G1 X17.167 Y-18.021 E38.86745
G1 X21.022 Y-14.166 E39.05517
G1 X21.022 Y-15.054 E39.08573
G1 X18.054 Y-18.021 E39.23023
G1 X18.942 Y-18.021 E39.26079
G1 X21.022 Y-15.941 E39.36208
G1 X21.022 Y-16.829 E39.39264
G1 X19.829 Y-18.021 E39.45071
G1 X20.717 Y-18.021 E39.48127
G1 X21.022 Y-17.716 E39.49613
G1 X21.022 Y-7.953 F7800.000
G1 X17.575 Y-11.400 E39.66396 F600.000
G1 X17.979 Y-10.108 E39.71056
G1 X21.022 Y-7.066 E39.85870
G1 X21.022 Y-6.178 E39.88926
G1 X17.762 Y-9.438 E40.04800
G1 X17.544 Y-8.768 E40.07226
G1 X21.022 Y-5.291 E40.24160
G1 X21.022 Y-4.403 E40.27216
G1 X17.326 Y-8.099 E40.45210
G1 X17.109 Y-7.429 E40.47635
G1 X21.022 Y-3.516 E40.66689
G1 X21.022 Y-2.628 E40.69745
G1 X16.730 Y-6.920 E40.90643
G1 X16.216 Y-6.546 E40.92830
G1 X21.022 Y-1.741 E41.16231
G1 X21.022 Y-0.853 E41.19287
G1 X15.702 Y-6.173 E41.45191
G1 X15.188 Y-5.800 E41.47379
G1 X21.022 Y0.034 E41.75786
G1 X21.022 Y0.922 E41.78842
G1 X14.674 Y-5.426 E42.09752
G1 X13.949 Y-5.263 E42.12310
G1 X21.022 Y1.809 E42.46748
G1 X21.022 Y2.697 E42.49804
G1 X13.062 Y-5.263 E42.88564
G1 X12.174 Y-5.263 E42.91620
G1 X21.022 Y3.584 E43.34702
G1 X21.022 Y4.472 E43.37758
G1 X11.287 Y-5.263 E43.85162
G1 X4.979 Y-8.021 F7800.000
G1 X21.022 Y8.022 E44.63282 F600.000
G1 X21.022 Y8.910 E44.66337
G1 X4.979 Y-7.134 E45.44457
G1 X4.979 Y-6.246 E45.47513
G1 X21.022 Y9.797 E46.25633
G1 X21.022 Y10.685 E46.28689
G1 X4.979 Y-5.359 E47.06809
G1 X4.979 Y-4.471 E47.09865
G1 X21.022 Y11.572 E47.87985
G1 X21.022 Y12.460 E47.91041
G1 X4.979 Y-3.584 E48.69161
G1 X4.979 Y-2.696 E48.72216
G1 X21.022 Y13.347 E49.50336
G1 X21.022 Y14.235 E49.53392
G1 X4.979 Y-1.809 E50.31512
G1 X4.979 Y-0.921 E50.34568
G1 X21.022 Y15.122 E51.12688
G1 X21.022 Y16.010 E51.15744
G1 X4.979 Y-0.033 E51.93864
G1 X4.979 Y0.854 E51.96920
G1 X21.022 Y16.897 E52.75040
G1 X21.022 Y17.785 E52.78095
G1 X4.979 Y1.742 E53.56215
G1 X4.979 Y2.629 E53.59271
G1 X20.372 Y18.022 E54.34225
G1 X19.484 Y18.022 E54.37280
G1 X4.979 Y3.517 E55.07912
G1 X4.979 Y4.404 E55.10968
G1 X18.597 Y18.022 E55.77278
G1 X17.709 Y18.022 E55.80334
G1 X4.979 Y5.292 E56.42323
G1 X4.979 Y6.179 E56.45378
G1 X16.821 Y18.022 E57.03045
G1 X15.934 Y18.022 E57.06101
G1 X4.979 Y7.067 E57.59446
G1 X4.979 Y7.954 E57.62502
G1 X15.046 Y18.022 E58.11526
G1 X14.159 Y18.022 E58.14582
G1 X4.979 Y8.842 E58.59284
G1 X4.979 Y9.729 E58.62340
G1 X13.271 Y18.022 E59.02720
G1 X12.384 Y18.022 E59.05776
G1 X4.979 Y10.617 E59.41834
G1 X4.979 Y11.504 E59.44890
G1 X11.496 Y18.022 E59.76627
G1 X10.609 Y18.022 E59.79683
G1 X4.979 Y12.392 E60.07099
G1 X4.979 Y13.279 E60.10154
G1 X9.721 Y18.022 E60.33248
G1 X8.834 Y18.022 E60.36304
G1 X4.979 Y14.167 E60.55076
G1 X4.979 Y15.054 E60.58132
G1 X7.946 Y18.022 E60.72582
G1 X7.059 Y18.022 E60.75638
G1 X4.979 Y15.942 E60.85767
G1 X4.979 Y16.829 E60.88823
G1 X6.171 Y18.022 E60.94630
G1 X5.284 Y18.022 E60.97686
G1 X4.979 Y17.717 E60.99172
G1 X21.022 Y7.135 F7800.000
G1 X4.979 Y-8.909 E61.77292 F600.000
G1 X4.979 Y-9.796 E61.80347
G1 X21.022 Y6.247 E62.58467
G1 X21.022 Y5.360 E62.61523
G1 X4.979 Y-10.684 E63.39643
G1 E61.39643 F2400.00000
G92 E0
G1 X2.000 Y-20.414 F7800.000
G1 X0.000 Y-20.933 F7800.000
G1 X-1.757 Y-21.828 F7800.000
G1 X-2.586 Y-21.000 F7800.000
G1 X-22.650 Y-19.650 F7800.000
G1 E2.00000 F2400.00000
G1 X-3.350 Y-19.650 E2.66168 F750.000
G1 X-3.350 Y19.650 E4.00904
G1 X-22.650 Y19.650 E4.67072
G1 X-22.650 Y-19.590 E6.01603
G1 X-22.304 Y-19.450 F7800.000
G1 X-22.025 Y-19.025 F7800.000
G1 X-3.975 Y-19.025 E6.63486 F1500.000
G1 X-3.975 Y19.026 E7.93938
G1 X-22.025 Y19.026 E8.55821
G1 X-22.025 Y-18.965 E9.86067
G1 X-21.400 Y-18.400 F7800.000
G1 X-4.600 Y-18.400 E10.43665 F1500.000
G1 X-4.600 Y18.401 E11.69832
G1 X-21.400 Y18.401 E12.27431
G1 X-21.400 Y-18.340 E13.53392
G1 X-15.644 Y-11.920 F7800.000
G1 X-14.010 Y-13.108 E13.60316 F450.000
G1 X-11.990 Y-13.108 E13.67241 F450.000
G1 X-10.356 Y-11.920 E13.74165
G1 X-9.732 Y-10.000 E13.81090
G1 X-10.356 Y-8.079 E13.88014
G1 X-11.990 Y-6.891 E13.94939
G1 X-14.010 Y-6.891 E14.01863
G1 X-15.644 Y-8.079 E14.08788
G1 X-16.268 Y-10.000 E14.15712
G1 X-15.662 Y-11.863 E14.22431
G1 X-15.767 Y-12.301 F7800.000
G1 X-16.238 Y-12.114 F7800.000
G1 X-16.175 Y-12.307 E14.23127 F450.000
G1 X-14.213 Y-13.733 E14.31444
G1 X-11.787 Y-13.733 E14.39760 F450.000
G1 X-9.825 Y-12.307 E14.48077
G1 X-9.075 Y-10.000 E14.56394
G1 X-9.825 Y-7.692 E14.64710
G1 X-11.787 Y-6.267 E14.73027
G1 X-14.213 Y-6.267 E14.81344
G1 X-16.175 Y-7.692 E14.89660
G1 X-16.925 Y-10.000 E14.97977
G1 X-16.257 Y-12.056 E15.05392
G1 X-16.832 Y-12.307 F7800.000
G1 X-16.707 Y-12.693 E15.06784 F450.000
G1 X-14.416 Y-14.357 E15.16493
G1 X-11.584 Y-14.357 E15.26202 F450.000
G1 X-9.293 Y-12.693 E15.35911
G1 X-8.418 Y-10.000 E15.45620
G1 X-9.293 Y-7.306 E15.55328
G1 X-11.584 Y-5.642 E15.65037
G1 X-14.416 Y-5.642 E15.74746
G1 X-16.707 Y-7.306 E15.84455
G1 X-17.582 Y-10.000 E15.94164
G1 X-16.851 Y-12.250 E16.02275
G1 X-17.347 Y-7.896 F7800.000
G1 X-21.022 Y-11.571 E16.20170 F600.000
G1 X-21.022 Y-12.459 E16.23225
G1 X-17.774 Y-9.211 E16.39040
G1 X-17.878 Y-10.203 E16.42473
G1 X-21.022 Y-13.346 E16.57781
G1 X-21.022 Y-14.234 E16.60837
G1 X-17.660 Y-10.873 E16.77204
G1 X-17.443 Y-11.542 E16.79629
G1 X-21.022 Y-15.121 E16.97057
G1 X-21.022 Y-16.009 E17.00112
G1 X-17.225 Y-12.212 E17.18600
G1 X-17.005 Y-12.879 E17.21019
G1 X-21.022 Y-16.896 E17.40579
G1 X-21.022 Y-17.784 E17.43635
G1 X-16.491 Y-13.253 E17.65698
G1 X-15.977 Y-13.626 E17.67885
G1 X-20.371 Y-18.021 E17.89285
G1 X-19.484 Y-18.021 E17.92341
G1 X-15.463 Y-14.000 E18.11922
G1 X-14.949 Y-14.373 E18.14109
G1 X-18.596 Y-18.021 E18.31872
G1 X-17.709 Y-18.021 E18.34928
G1 X-14.424 Y-14.736 E18.50924
G1 X-13.536 Y-14.736 E18.53980
G1 X-16.821 Y-18.021 E18.69977
G1 X-15.934 Y-18.021 E18.73033
G1 X-12.649 Y-14.736 E18.89030
G1 X-11.761 Y-14.736 E18.92086
G1 X-15.046 Y-18.021 E19.08082
G1 X-14.159 Y-18.021 E19.11138
G1 X-9.779 Y-13.642 E19.32464
G1 X-8.852 Y-12.715 F7800.000
G1 X-4.978 Y-8.841 E19.51327 F600.000
G1 X-4.978 Y-9.728 E19.54383
G1 X-13.271 Y-18.021 E19.94763
G1 X-12.384 Y-18.021 E19.97819
G1 X-4.978 Y-10.616 E20.33878
G1 X-4.978 Y-11.503 E20.36934
G1 X-11.496 Y-18.021 E20.68671
G1 X-10.609 Y-18.021 E20.71727
G1 X-4.978 Y-12.391 E20.99142
G1 X-4.978 Y-13.278 E21.02198
G1 X-9.721 Y-18.021 E21.25292
G1 X-8.834 Y-18.021 E21.28348
G1 X-4.978 Y-14.166 E21.47120
G1 X-4.978 Y-15.054 E21.50176
G1 X-7.946 Y-18.021 E21.64627
G1 X-7.059 Y-18.021 E21.67683
G1 X-4.978 Y-15.941 E21.77812
G1 X-4.978 Y-16.829 E21.80868
G1 X-6.171 Y-18.021 E21.86675
G1 X-5.283 Y-18.021 E21.89731
G1 X-4.978 Y-17.716 E21.91216
G1 X-4.978 Y-7.953 F7800.000
G1 X-8.425 Y-11.400 E22.07999 F600.000
G1 X-8.021 Y-10.108 E22.12659
G1 X-4.978 Y-7.066 E22.27474
G1 X-4.978 Y-6.178 E22.30530
G1 X-8.238 Y-9.438 E22.46404
G1 X-8.456 Y-8.768 E22.48829
G1 X-4.978 Y-5.291 E22.65763
G1 X-4.978 Y-4.403 E22.68819
G1 X-8.674 Y-8.099 E22.86813
G1 X-8.891 Y-7.429 E22.89238
G1 X-4.978 Y-3.516 E23.08292
G1 X-4.978 Y-2.628 E23.11348
G1 X-9.270 Y-6.920 E23.32246
G1 X-9.784 Y-6.546 E23.34434
G1 X-4.978 Y-1.741 E23.57835
G1 X-4.978 Y-0.853 E23.60891
G1 X-10.298 Y-6.173 E23.86795
G1 X-10.812 Y-5.800 E23.88983
G1 X-4.978 Y0.034 E24.17390
G1 X-4.978 Y0.922 E24.20446
G1 X-11.326 Y-5.426 E24.51356
G1 X-12.051 Y-5.263 E24.53913
G1 X-4.978 Y1.809 E24.88352
G1 X-4.978 Y2.697 E24.91408
G1 X-12.938 Y-5.263 E25.30168
G1 X-13.826 Y-5.263 E25.33224
G1 X-4.978 Y3.584 E25.76306
G1 X-4.978 Y4.472 E25.79362
G1 X-14.714 Y-5.263 E26.26765
G1 X-21.022 Y-8.021 F7800.000
G1 X-4.978 Y8.022 E27.04885 F600.000
G1 X-4.978 Y8.910 E27.07941
G1 X-21.022 Y-7.134 E27.86061
G1 X-21.022 Y-6.246 E27.89117
G1 X-4.978 Y9.797 E28.67237
G1 X-4.978 Y10.685 E28.70293
G1 X-21.022 Y-5.359 E29.48413
G1 X-21.022 Y-4.471 E29.51468
G1 X-4.978 Y11.572 E30.29588
G1 X-4.978 Y12.460 E30.32644
G1 X-21.022 Y-3.584 E31.10764
G1 X-21.022 Y-2.696 E31.13820
G1 X-4.978 Y13.347 E31.91940
G1 X-4.978 Y14.235 E31.94996
G1 X-21.022 Y-1.809 E32.73116
G1 X-21.022 Y-0.921 E32.76172
G1 X-4.978 Y15.122 E33.54292
G1 X-4.978 Y16.010 E33.57347
G1 X-21.022 Y-0.033 E34.35467
G1 X-21.022 Y0.854 E34.38523
G1 X-4.978 Y16.897 E35.16643
G1 X-4.978 Y17.785 E35.19699
G1 X-21.022 Y1.742 E35.97819
