; generated by Slic3r 1.2.9 on 2017-01-25 at 07:41:30

; external perimeters extrusion width = 0.40mm
; perimeters extrusion width = 0.48mm
; infill extrusion width = 0.48mm
; solid infill extrusion width = 0.48mm
; top infill extrusion width = 0.48mm
; support material extrusion width = 0.40mm

M107
M190 S70 ; set bed temperature
M104 S210 ; set temperature
G28 ; home all axes
G1 Z5 F5000 ; lift nozzle

M109 S210 ; wait for temperature to be reached
G21 ; set units to millimeters
G90 ; use absolute coordinates
M82 ; use absolute distances for extrusion
G92 E0
G1 Z0.350 F7800.000
G1 E-2.00000 F2400.00000
G92 E0
G1 X0.000 Y-18.625 F7800.000
G1 E2.00000 F2400.00000
G1 X40.000 Y-18.625 E3.37136 F1800.000
G1 X42.259 Y-18.228 E3.44999
G1 X44.247 Y-17.085 E3.52862 F1800.000
G1 X45.726 Y-15.332 E3.60725
G1 X46.519 Y-13.180 E3.68587
G1 X46.625 Y-12.000 E3.72649
G1 X46.625 Y12.000 E4.54930
G1 X46.228 Y14.259 E4.62793
G1 X45.085 Y16.247 E4.70656
G1 X43.332 Y17.726 E4.78519
G1 X41.180 Y18.519 E4.86382
G1 X40.000 Y18.625 E4.90443
G1 X-40.000 Y18.625 E7.64715
G1 X-42.259 Y18.228 E7.72578
G1 X-44.247 Y17.085 E7.80440
G1 X-45.726 Y15.332 E7.88303
G1 X-46.519 Y13.180 E7.96166
G1 X-46.625 Y12.000 E8.00227
G1 X-46.625 Y-12.000 E8.82509
G1 X-46.228 Y-14.259 E8.90372
G1 X-45.085 Y-16.247 E8.98235
G1 X-43.332 Y-17.726 E9.06097
G1 X-41.180 Y-18.519 E9.13960
G1 X-40.000 Y-18.625 E9.18021
G1 X-0.060 Y-18.625 E10.54952
G1 E8.54952 F2400.00000
G92 E0
G1 X0.000 Y-15.437 F7800.000
G1 E2.00000 F2400.00000
G1 X41.424 Y-15.437 E3.42017 F1800.000
G1 X43.437 Y-13.424 E3.51778
G1 X43.437 Y13.424 E4.43821 F1800.000
G1 X41.424 Y15.437 E4.53582
G1 X-41.424 Y15.437 E7.37616
G1 X-43.437 Y13.424 E7.47377
G1 X-43.437 Y-13.424 E8.39420
G1 X-41.424 Y-15.437 E8.49182
G1 X-0.060 Y-15.437 E9.90993
G1 X0.000 Y-14.812 F7800.000
G1 X41.165 Y-14.812 E11.32122 F1800.000
G1 X42.812 Y-13.165 E11.40109 F1800.000
G1 X42.812 Y13.165 E12.30377
G1 X41.165 Y14.812 E12.38363
G1 X-41.165 Y14.812 E15.20622
G1 X-42.812 Y13.165 E15.28609
G1 X-42.812 Y-13.165 E16.18877
G1 X-41.165 Y-14.812 E16.26863
G1 X-0.060 Y-14.812 E17.67787
G1 X0.000 Y-14.187 F7800.000
G1 X40.906 Y-14.187 E19.08029 F1800.000
G1 X42.187 Y-12.906 E19.14241
G1 X42.187 Y12.906 E20.02734 F1800.000
G1 X40.906 Y14.187 E20.08946
G1 X-40.906 Y14.187 E22.89430
G1 X-42.187 Y12.906 E22.95641
G1 X-42.187 Y-12.906 E23.84135
G1 X-40.906 Y-14.187 E23.90347
G1 X-0.060 Y-14.187 E25.30383
G1 X0.000 Y-13.562 F7800.000
G1 X40.647 Y-13.562 E26.69737 F1800.000
G1 X41.562 Y-12.647 E26.74174 F1800.000
G1 X41.562 Y12.647 E27.60893
G1 X40.647 Y13.562 E27.65330
G1 X-40.647 Y13.562 E30.44039
G1 X-41.562 Y12.647 E30.48476
G1 X-41.562 Y-12.647 E31.35195
G1 X-40.647 Y-13.562 E31.39632
G1 X-0.060 Y-13.562 E32.78780
G1 X0.000 Y-12.937 F7800.000
G1 X40.388 Y-12.937 E34.17248 F1800.000
G1 X40.937 Y-12.388 E34.19910
G1 X40.937 Y12.388 E35.04854 F1800.000
G1 X40.388 Y12.937 E35.07516
G1 X-40.388 Y12.937 E37.84450
G1 X-40.937 Y12.388 E37.87112
G1 X-40.937 Y-12.388 E38.72056
G1 X-40.388 Y-12.937 E38.74718
G1 X-0.060 Y-12.937 E40.12980
G1 E38.12980 F2400.00000
G92 E0
G1 X-40.129 Y-12.312 F7800.000
G1 E2.00000 F2400.00000
G1 X40.129 Y-12.312 E4.75159 F1800.000
G1 X40.312 Y-12.129 E4.76047
G1 X40.312 Y12.129 E5.59216
G1 X40.129 Y12.312 E5.60103
G1 X-40.129 Y12.312 E8.35263
G1 X-40.312 Y12.129 E8.36150
G1 X-40.312 Y-12.129 E9.19319
G1 X-40.172 Y-12.270 E9.20001
G1 X-39.650 Y-11.650 F7800.000
G1 X39.650 Y-11.650 E11.91873 F750.000
G1 X39.650 Y11.650 E12.71755
G1 X-39.650 Y11.650 E15.43627
G1 X-39.650 Y-11.590 E16.23303
G1 X-39.304 Y-11.450 F7800.000
G1 X-39.025 Y-11.025 F7800.000
G1 X39.025 Y-11.025 E18.90890 F1500.000
G1 X39.025 Y11.025 E19.66487
G1 X-39.025 Y11.025 E22.34075
G1 X-39.025 Y-10.965 E23.09466
G1 X-38.400 Y-10.400 F7800.000
G1 X38.400 Y-10.400 E25.72769 F1500.000
G1 X38.400 Y10.400 E26.44081
G1 X-38.400 Y10.400 E29.07384
G1 X-38.400 Y-10.340 E29.78490
G1 X-13.199 Y-2.212 F7800.000
G1 X-12.644 Y-3.921 E29.84651 F450.000
G1 X-11.010 Y-5.108 E29.91575
G1 X-8.990 Y-5.108 E29.98500 F450.000
G1 X-7.356 Y-3.921 E30.05424
G1 X-6.732 Y-2.000 E30.12349
G1 X-7.356 Y-0.079 E30.19273
G1 X-8.990 Y1.108 E30.26198
G1 X-11.010 Y1.108 E30.33122
G1 X-12.644 Y-0.079 E30.40047
G1 X-13.268 Y-2.000 E30.46971
G1 X-13.218 Y-2.155 E30.47529
G1 X-13.467 Y-2.509 F7800.000
G1 X-13.793 Y-2.405 F7800.000
G1 X-13.175 Y-4.307 E30.54386 F450.000
G1 X-11.213 Y-5.733 E30.62703
G1 X-8.787 Y-5.733 E30.71019 F450.000
G1 X-6.825 Y-4.307 E30.79336
G1 X-6.075 Y-2.000 E30.87653
G1 X-6.825 Y0.307 E30.95969
G1 X-8.787 Y1.733 E31.04286
G1 X-11.213 Y1.733 E31.12603
G1 X-13.175 Y0.307 E31.20919
G1 X-13.925 Y-2.000 E31.29236
G1 X-13.812 Y-2.348 E31.30490
G1 X-14.388 Y-2.598 F7800.000
G1 X-13.707 Y-4.693 E31.38043 F450.000
G1 X-11.416 Y-6.358 E31.47752
G1 X-8.584 Y-6.358 E31.57461 F450.000
G1 X-6.293 Y-4.693 E31.67170
G1 X-5.418 Y-2.000 E31.76879
G1 X-6.293 Y0.693 E31.86588
G1 X-8.584 Y2.358 E31.96296
G1 X-11.416 Y2.358 E32.06005
G1 X-13.707 Y0.693 E32.15714
G1 X-14.582 Y-2.000 E32.25423
G1 X-14.406 Y-2.541 E32.27374
G1 X-11.221 Y-8.379 F7800.000
G1 X-1.952 Y-5.899 F7800.000
G1 X-0.000 Y-3.965 F7800.000
G1 X-0.000 Y-3.965 F7800.000
G1 X6.049 Y-2.000 F7800.000
G1 X6.732 Y-2.000 F7800.000
G1 X7.356 Y-3.921 E32.34298 F450.000
G1 X8.990 Y-5.108 E32.41222
G1 X11.010 Y-5.108 E32.48147 F450.000
G1 X12.644 Y-3.921 E32.55071
G1 X13.268 Y-2.000 E32.61996
G1 X12.644 Y-0.079 E32.68920
G1 X11.010 Y1.108 E32.75845
G1 X8.990 Y1.108 E32.82769
G1 X7.356 Y-0.079 E32.89694
G1 X6.751 Y-1.943 E32.96413
G1 X6.408 Y-2.235 F7800.000
G1 X6.138 Y-1.807 F7800.000
G1 X6.075 Y-2.000 E32.97109 F450.000
G1 X6.825 Y-4.307 E33.05425
G1 X8.787 Y-5.733 E33.13742
G1 X11.213 Y-5.733 E33.22059 F450.000
G1 X13.175 Y-4.307 E33.30375
G1 X13.925 Y-2.000 E33.38692
G1 X13.175 Y0.307 E33.47009
G1 X11.213 Y1.733 E33.55326
G1 X8.787 Y1.733 E33.63642
G1 X6.825 Y0.307 E33.71959
G1 X6.156 Y-1.750 E33.79374
G1 X5.543 Y-1.614 F7800.000
G1 X5.418 Y-2.000 E33.80766 F450.000
G1 X6.293 Y-4.693 E33.90475
G1 X8.584 Y-6.358 E34.00184
G1 X11.416 Y-6.358 E34.09893 F450.000
G1 X13.707 Y-4.693 E34.19601
G1 X14.582 Y-2.000 E34.29310
G1 X13.707 Y0.693 E34.39019
G1 X11.416 Y2.358 E34.48728
G1 X8.584 Y2.358 E34.58437
G1 X6.293 Y0.693 E34.68146
G1 X5.562 Y-1.557 E34.76257
G1 X7.390 Y2.086 F7800.000
G1 X15.326 Y10.022 E35.14746 F600.000
G1 X14.442 Y10.022 E35.17778
G1 X-5.601 Y-10.022 E36.14992
G1 X-4.717 Y-10.022 E36.18024
G1 X5.772 Y0.467 E36.68898
G1 X5.346 Y-0.842 E36.73621
G1 X-3.833 Y-10.022 E37.18143
G1 X-2.949 Y-10.022 E37.21175
G1 X5.060 Y-2.012 E37.60023
G1 X5.277 Y-2.679 E37.62429
G1 X-2.065 Y-10.022 E37.98040
G1 X-1.181 Y-10.022 E38.01072
G1 X5.494 Y-3.347 E38.33447
G1 X5.710 Y-4.014 E38.35853
G1 X-0.297 Y-10.022 E38.64991
G1 X0.587 Y-10.022 E38.68023
G1 X5.927 Y-4.681 E38.93926
G1 X6.353 Y-5.140 E38.96071
G1 X1.471 Y-10.022 E39.19749
G1 X2.355 Y-10.022 E39.22781
G1 X6.865 Y-5.512 E39.44656
G1 X7.377 Y-5.884 E39.46826
G1 X3.239 Y-10.022 E39.66896
G1 X4.123 Y-10.022 E39.69928
G1 X7.889 Y-6.256 E39.88193
G1 X8.401 Y-6.628 E39.90364
G1 X5.007 Y-10.022 E40.06825
G1 X5.891 Y-10.022 E40.09857
G1 X9.176 Y-6.736 E40.25791
G1 X10.060 Y-6.736 E40.28823
G1 X6.775 Y-10.022 E40.44757
G1 X7.659 Y-10.022 E40.47789
G1 X10.944 Y-6.736 E40.63723
G1 X12.131 Y-6.434 E40.67922
G1 X8.543 Y-10.022 E40.85323
G1 X9.427 Y-10.022 E40.88355
G1 X29.471 Y10.022 E41.85569
G1 X30.355 Y10.022 E41.88601
G1 X10.311 Y-10.022 E42.85815
G1 X11.195 Y-10.022 E42.88847
G1 X31.239 Y10.022 E43.86062
G1 X32.123 Y10.022 E43.89094
G1 X12.079 Y-10.022 E44.86308
G1 X12.963 Y-10.022 E44.89340
G1 X33.007 Y10.022 E45.86554
G1 X33.891 Y10.022 E45.89586
G1 X13.847 Y-10.022 E46.86800
G1 X14.731 Y-10.022 E46.89832
G1 X34.775 Y10.022 E47.87046
G1 X35.659 Y10.022 E47.90078
G1 X15.616 Y-10.022 E48.87292
G1 X16.500 Y-10.022 E48.90324
G1 X36.543 Y10.022 E49.87538
G1 X37.427 Y10.022 E49.90570
G1 X17.384 Y-10.022 E50.87784
G1 X18.268 Y-10.022 E50.90816
G1 X38.022 Y9.732 E51.86628
G1 X38.022 Y8.848 E51.89659
G1 X19.152 Y-10.022 E52.81183
G1 X20.036 Y-10.022 E52.84215
G1 X38.022 Y7.964 E53.71450
G1 X38.022 Y7.080 E53.74482
G1 X20.920 Y-10.022 E54.57430
G1 X21.804 Y-10.022 E54.60462
G1 X38.022 Y6.196 E55.39122
G1 X38.022 Y5.312 E55.42154
G1 X22.688 Y-10.022 E56.16526
G1 X23.572 Y-10.022 E56.19558
G1 X38.022 Y4.428 E56.89643
G1 X38.022 Y3.544 E56.92674
G1 X24.456 Y-10.022 E57.58471
G1 X25.340 Y-10.022 E57.61503
G1 X38.022 Y2.660 E58.23012
G1 X38.022 Y1.776 E58.26044
G1 X26.224 Y-10.022 E58.83265
G1 X27.108 Y-10.022 E58.86297
G1 X38.022 Y0.892 E59.39230
G1 X38.022 Y0.008 E59.42262
G1 X27.992 Y-10.022 E59.90908
G1 X28.876 Y-10.022 E59.93940
G1 X38.022 Y-0.876 E60.38297
G1 X38.022 Y-1.760 E60.41329
G1 X29.760 Y-10.022 E60.81399
G1 X30.644 Y-10.022 E60.84431
G1 X38.022 Y-2.644 E61.20213
G1 X38.022 Y-3.528 E61.23245
G1 X31.528 Y-10.022 E61.54740
G1 X32.412 Y-10.022 E61.57771
G1 X38.022 Y-4.412 E61.84978
G1 X38.022 Y-5.296 E61.88010
G1 X33.296 Y-10.022 E62.10929
G1 X34.180 Y-10.022 E62.13961
G1 X38.022 Y-6.180 E62.32592
G1 X38.022 Y-7.064 E62.35624
G1 X35.064 Y-10.022 E62.49967
G1 X35.948 Y-10.022 E62.52999
G1 X38.022 Y-7.948 E62.63054
G1 X38.022 Y-8.832 E62.66086
G1 X36.832 Y-10.022 E62.71854
G1 X37.717 Y-10.022 E62.74886
G1 X38.022 Y-9.717 E62.76366
G1 X28.586 Y10.022 F7800.000
G1 X14.291 Y-4.273 E63.45700 F600.000
G1 X14.717 Y-2.964 E63.50422
G1 X27.702 Y10.022 E64.13405
G1 X26.818 Y10.022 E64.16437
G1 X14.908 Y-1.889 E64.74206
G1 X14.691 Y-1.222 E64.76612
G1 X25.934 Y10.022 E65.31145
G1 X25.050 Y10.022 E65.34177
G1 X14.474 Y-0.554 E65.85473
G1 X14.257 Y0.113 E65.87879
G1 X24.166 Y10.022 E66.35939
G1 X23.282 Y10.022 E66.38971
G1 X14.041 Y0.780 E66.83795
G1 X13.571 Y1.195 E66.85943
G1 X22.398 Y10.022 E67.28755
G1 X21.514 Y10.022 E67.31787
G1 X13.059 Y1.567 E67.72794
G1 X12.547 Y1.939 E67.74965
G1 X20.630 Y10.022 E68.14168
G1 X19.746 Y10.022 E68.17200
G1 X12.035 Y2.311 E68.54600
G1 X11.523 Y2.683 E68.56770
G1 X18.862 Y10.022 E68.92365
G1 X17.978 Y10.022 E68.95397
G1 X10.693 Y2.736 E69.30732
G1 X9.809 Y2.736 E69.33764
G1 X17.094 Y10.022 E69.69099
G1 X16.210 Y10.022 E69.72130
G1 X8.925 Y2.736 E70.07465
G1 X13.558 Y10.022 F7800.000
G1 X-6.486 Y-10.022 E71.04680 F600.000
G1 X-7.370 Y-10.022 E71.07711
G1 X12.674 Y10.022 E72.04926
G1 X11.790 Y10.022 E72.07958
G1 X-8.254 Y-10.022 E73.05172
G1 X-9.138 Y-10.022 E73.08204
G1 X10.906 Y10.022 E74.05418
G1 X10.022 Y10.022 E74.08450
G1 X-10.022 Y-10.022 E75.05664
G1 X-10.906 Y-10.022 E75.08696
G1 X9.138 Y10.022 E76.05910
G1 X8.254 Y10.022 E76.08942
G1 X-5.548 Y-3.780 E76.75884
G1 X-5.123 Y-2.471 E76.80607
G1 X7.369 Y10.022 E77.41198
G1 X6.485 Y10.022 E77.44229
G1 X-5.174 Y-1.638 E78.00779
G1 X-5.391 Y-0.970 E78.03186
G1 X5.601 Y10.022 E78.56499
G1 X4.717 Y10.022 E78.59531
G1 X-5.607 Y-0.303 E79.09609
G1 X-5.824 Y0.364 E79.12015
G1 X3.833 Y10.022 E79.58856
G1 X2.949 Y10.022 E79.61888
G1 X-6.109 Y0.963 E80.05825
G1 X-6.622 Y1.335 E80.07995
G1 X2.065 Y10.022 E80.50128
G1 X1.181 Y10.022 E80.53160
G1 X-7.134 Y1.707 E80.93488
G1 X-7.646 Y2.079 E80.95659
G1 X0.297 Y10.022 E81.34183
G1 X-0.587 Y10.022 E81.37215
G1 X-8.158 Y2.451 E81.73934
G1 X-8.756 Y2.736 E81.76209
G1 X-1.471 Y10.022 E82.11544
G1 X-2.355 Y10.022 E82.14575
G1 X-9.640 Y2.736 E82.49910
G1 X-10.524 Y2.736 E82.52942
G1 X-3.239 Y10.022 E82.88277
G1 X-4.123 Y10.022 E82.91309
G1 X-11.408 Y2.736 E83.26644
G1 X-13.827 Y1.201 F7800.000
G1 X-5.007 Y10.022 E83.69424 F600.000
G1 X-5.891 Y10.022 E83.72456
G1 X-25.934 Y-10.022 E84.69670
G1 X-25.050 Y-10.022 E84.72702
G1 X-14.068 Y0.961 E85.25968
G1 X-14.494 Y-0.349 E85.30690
G1 X-24.166 Y-10.022 E85.77605
G1 X-23.282 Y-10.022 E85.80637
G1 X-14.919 Y-1.658 E86.21200
G1 X-14.805 Y-2.428 E86.23869
G1 X-22.398 Y-10.022 E86.60699
G1 X-21.514 Y-10.022 E86.63731
G1 X-14.588 Y-3.095 E86.97325
G1 X-14.371 Y-3.763 E86.99731
G1 X-20.630 Y-10.022 E87.30088
G1 X-19.746 Y-10.022 E87.33120
G1 X-14.154 Y-4.430 E87.60241
G1 X-13.840 Y-5.000 E87.62473
G1 X-18.862 Y-10.022 E87.86831
G1 X-17.978 Y-10.022 E87.89863
G1 X-13.328 Y-5.372 E88.12416
G1 X-12.816 Y-5.744 E88.14587
G1 X-17.094 Y-10.022 E88.35336
G1 X-16.210 Y-10.022 E88.38368
G1 X-12.304 Y-6.116 E88.57313
G1 X-11.792 Y-6.488 E88.59484
G1 X-15.326 Y-10.022 E88.76625
G1 X-14.442 Y-10.022 E88.79657
G1 X-11.157 Y-6.736 E88.95591
G1 X-10.273 Y-6.736 E88.98623
G1 X-13.558 Y-10.022 E89.14557
G1 X-12.674 Y-10.022 E89.17588
G1 X-9.389 Y-6.736 E89.33523
G1 X-8.505 Y-6.736 E89.36554
G1 X-11.790 Y-10.022 E89.52489
G1 X-26.818 Y-10.022 F7800.000
G1 X-6.775 Y10.022 E90.49703 F600.000
G1 X-7.659 Y10.022 E90.52735
G1 X-27.702 Y-10.022 E91.49949
G1 X-28.587 Y-10.022 E91.52981
G1 X-8.543 Y10.022 E92.50195
G1 X-9.427 Y10.022 E92.53227
G1 X-29.471 Y-10.022 E93.50441
G1 X-30.355 Y-10.022 E93.53473
G1 X-10.311 Y10.022 E94.50687
G1 X-11.195 Y10.022 E94.53719
G1 X-31.239 Y-10.022 E95.50933
G1 X-32.123 Y-10.022 E95.53965
G1 X-12.079 Y10.022 E96.51179
G1 X-12.963 Y10.022 E96.54211
G1 X-33.007 Y-10.022 E97.51426
G1 X-33.891 Y-10.022 E97.54458
G1 X-13.847 Y10.022 E98.51672
G1 X-14.732 Y10.022 E98.54704
G1 X-34.775 Y-10.022 E99.51918
G1 X-35.659 Y-10.022 E99.54950
G1 X-15.616 Y10.022 E100.52164
G1 X-16.500 Y10.022 E100.55196
G1 X-36.543 Y-10.022 E101.52410
G1 X-37.427 Y-10.022 E101.55442
G1 X-17.384 Y10.022 E102.52656
G1 X-18.268 Y10.022 E102.55688
G1 X-38.022 Y-9.732 E103.51499
G1 X-38.022 Y-8.848 E103.54531
G1 X-19.152 Y10.022 E104.46054
G1 X-20.036 Y10.022 E104.49086
G1 X-38.022 Y-7.964 E105.36321
G1 X-38.022 Y-7.080 E105.39353
G1 X-20.920 Y10.022 E106.22301
G1 X-21.804 Y10.022 E106.25333
G1 X-38.022 Y-6.196 E107.03992
G1 X-38.022 Y-5.312 E107.07024
G1 X-22.688 Y10.022 E107.81396
G1 X-23.572 Y10.022 E107.84428
G1 X-38.022 Y-4.428 E108.54512
G1 X-38.022 Y-3.544 E108.57544
G1 X-24.456 Y10.022 E109.23341
G1 X-25.340 Y10.022 E109.26373
G1 X-38.022 Y-2.660 E109.87881
G1 X-38.022 Y-1.776 E109.90913
G1 X-26.224 Y10.022 E110.48134
G1 X-27.108 Y10.022 E110.51166
G1 X-38.022 Y-0.892 E111.04099
G1 X-38.022 Y-0.008 E111.07131
G1 X-27.992 Y10.022 E111.55776
G1 X-28.876 Y10.022 E111.58808
G1 X-38.022 Y0.876 E112.03165
G1 X-38.022 Y1.760 E112.06197
G1 X-29.760 Y10.022 E112.46267
G1 X-30.644 Y10.022 E112.49299
G1 X-38.022 Y2.644 E112.85081
G1 X-38.022 Y3.528 E112.88113
G1 X-31.528 Y10.022 E113.19607
G1 X-32.412 Y10.022 E113.22639
G1 X-38.022 Y4.412 E113.49845
G1 X-38.022 Y5.296 E113.52877
G1 X-33.296 Y10.022 E113.75796
G1 X-34.180 Y10.022 E113.78827
G1 X-38.022 Y6.180 E113.97458
G1 X-38.022 Y7.064 E114.00490
G1 X-35.064 Y10.022 E114.14833
G1 X-35.949 Y10.022 E114.17865
G1 X-38.022 Y7.949 E114.27920
G1 X-38.022 Y8.833 E114.30952
G1 X-36.833 Y10.022 E114.36719
G1 X-37.717 Y10.022 E114.39751
G1 X-38.022 Y9.717 E114.41231
G1 Z0.350 F7800.000
M106 S89.25
M140 S50 ; wait for bed temperature to be reached
G1 Z0.650 F7800.000
G1 X6.117 Y-1.800 F7800.000
G1 X6.053 Y-2.000 E114.41645 F900.000
G1 X6.806 Y-4.320 E114.46450
G1 X8.780 Y-5.754 E114.51256
G1 X11.220 Y-5.754 E114.56062 F900.000
G1 X13.194 Y-4.320 E114.60867
G1 X13.947 Y-2.000 E114.65673
G1 X13.194 Y0.320 E114.70479
G1 X11.220 Y1.754 E114.75284
G1 X8.780 Y1.754 E114.80090
G1 X6.806 Y0.320 E114.84895
G1 X6.136 Y-1.743 E114.89169
G1 X6.516 Y-1.930 F7800.000
G1 X6.493 Y-2.000 E114.89315 F900.000
G1 X7.163 Y-4.061 E114.93584
G1 X8.916 Y-5.335 E114.97854
G1 X11.084 Y-5.335 E115.02123 F900.000
G1 X12.837 Y-4.061 E115.06393
G1 X13.507 Y-2.000 E115.10662
G1 X12.837 Y0.061 E115.14932
G1 X11.084 Y1.335 E115.19201
G1 X8.916 Y1.335 E115.23471
G1 X7.163 Y0.061 E115.27740
G1 X6.534 Y-1.873 E115.31746
G1 X6.890 Y-2.000 F7800.000
G1 X7.484 Y-3.828 E115.34780 F900.000
G1 X9.039 Y-4.958 E115.37814
G1 X10.961 Y-4.958 E115.40848 F900.000
G1 X12.516 Y-3.828 E115.43881
G1 X13.110 Y-2.000 E115.46915
G1 X12.516 Y-0.172 E115.49949
G1 X10.961 Y0.958 E115.52983
G1 X9.039 Y0.958 E115.56017
G1 X7.484 Y-0.172 E115.59051
G1 X6.908 Y-1.943 E115.61990
G1 X6.566 Y-2.235 F7800.000
G1 X-6.053 Y-2.000 F7800.000
G1 X-6.806 Y0.320 E115.66796 F900.000
G1 X-8.780 Y1.754 E115.71601
G1 X-11.220 Y1.754 E115.76407
G1 X-13.194 Y0.320 E115.81213
