; generated by Slic3r 1.2.9 on 2017-01-26 at 14:37:23

; external perimeters extrusion width = 0.40mm
; perimeters extrusion width = 0.48mm
; infill extrusion width = 0.48mm
; solid infill extrusion width = 0.48mm
; top infill extrusion width = 0.48mm

M107
M190 S70 ; set bed temperature
M104 S210 ; set temperature
G28 ; home all axes
G1 Z5 F5000 ; lift nozzle

M109 S210 ; wait for temperature to be reached
G21 ; set units to millimeters
G90 ; use absolute coordinates
M82 ; use absolute distances for extrusion
G92 E0
G1 Z0.350 F7800.000
G1 E-2.00000 F2400.00000
G92 E0
G1 X26.625 Y0.000 F7800.000
G1 E2.00000 F2400.00000
G1 X26.625 Y34.500 E3.18280 F1800.000
G1 X26.228 Y36.759 E3.26143
G1 X25.085 Y38.747 E3.34006
G1 X23.332 Y40.226 E3.41868
G1 X21.180 Y41.019 E3.49731
G1 X20.000 Y41.125 E3.53792
G1 X-20.000 Y41.125 E4.90928
G1 X-22.259 Y40.728 E4.98791
G1 X-24.247 Y39.585 E5.06654
G1 X-25.726 Y37.832 E5.14517
G1 X-26.519 Y35.680 E5.22380
G1 X-26.625 Y34.500 E5.26441
G1 X-26.625 Y-34.500 E7.63000
G1 X-26.228 Y-36.759 E7.70863
G1 X-25.085 Y-38.747 E7.78726
G1 X-23.332 Y-40.226 E7.86589
G1 X-21.180 Y-41.019 E7.94452
G1 X-20.000 Y-41.125 E7.98513
G1 X20.000 Y-41.125 E9.35649
G1 X22.259 Y-40.728 E9.43512
G1 X24.247 Y-39.585 E9.51375 F1800.000
G1 X25.726 Y-37.832 E9.59238
G1 X26.519 Y-35.680 E9.67100
G1 X26.625 Y-34.500 E9.71162
G1 X26.625 Y-0.060 E10.89236
G1 E8.89236 F2400.00000
G92 E0
G1 X23.437 Y0.000 F7800.000
G1 E2.00000 F2400.00000
G1 X23.437 Y35.924 E3.23161 F1800.000
G1 X21.424 Y37.937 E3.32922
G1 X-21.424 Y37.937 E4.79819
G1 X-23.437 Y35.924 E4.89581
G1 X-23.437 Y-35.924 E7.35902
G1 X-21.424 Y-37.937 E7.45663
G1 X21.424 Y-37.937 E8.92560
G1 X23.437 Y-35.924 E9.02322
G1 X23.437 Y-0.060 E10.25277 F1800.000
G1 X22.812 Y0.000 F7800.000
G1 X22.812 Y35.665 E11.47550 F1800.000
G1 X21.165 Y37.312 E11.55536
G1 X-21.165 Y37.312 E13.00659
G1 X-22.812 Y35.665 E13.08646
G1 X-22.812 Y-35.665 E15.53192
G1 X-21.165 Y-37.312 E15.61178
G1 X21.165 Y-37.312 E17.06301
G1 X22.812 Y-35.665 E17.14288 F1800.000
G1 X22.812 Y-0.060 E18.36355
G1 X22.187 Y0.000 F7800.000
G1 X22.187 Y35.406 E19.57741 F1800.000
G1 X20.906 Y36.687 E19.63952
G1 X-20.906 Y36.687 E21.07300
G1 X-22.187 Y35.406 E21.13512
G1 X-22.187 Y-35.406 E23.56284
G1 X-20.906 Y-36.687 E23.62495
G1 X20.906 Y-36.687 E25.05843
G1 X22.187 Y-35.406 E25.12055
G1 X22.187 Y-0.060 E26.33235 F1800.000
G1 X21.562 Y0.000 F7800.000
G1 X21.562 Y35.147 E27.53733 F1800.000
G1 X20.647 Y36.062 E27.58170
G1 X-20.647 Y36.062 E28.99743
G1 X-21.562 Y35.147 E29.04180
G1 X-21.562 Y-35.147 E31.45177
G1 X-20.647 Y-36.062 E31.49614
G1 X20.647 Y-36.062 E32.91187
G1 X21.562 Y-35.147 E32.95624 F1800.000
G1 X21.562 Y-0.060 E34.15916
G1 X20.937 Y0.000 F7800.000
G1 X20.937 Y34.888 E35.35527 F1800.000
G1 X20.388 Y35.437 E35.38190
G1 X-20.388 Y35.437 E36.77988
G1 X-20.937 Y34.888 E36.80650
G1 X-20.937 Y-34.888 E39.19872
G1 X-20.388 Y-35.437 E39.22534
G1 X20.388 Y-35.437 E40.62332
G1 X20.937 Y-34.888 E40.64994
G1 X20.937 Y-0.060 E41.84400 F1800.000
G1 E39.84400 F2400.00000
G92 E0
G1 X20.312 Y34.629 F7800.000
G1 E2.00000 F2400.00000
G1 X20.129 Y34.812 E2.00887 F1800.000
G1 X-20.129 Y34.812 E3.38911
G1 X-20.312 Y34.629 E3.39798
G1 X-20.312 Y-34.629 E5.77245
G1 X-20.129 Y-34.812 E5.78133
G1 X20.129 Y-34.812 E7.16156
G1 X20.312 Y-34.629 E7.17043
G1 X20.312 Y34.569 E9.54285
G1 X19.650 Y34.150 F7800.000
G1 X-19.650 Y34.150 E10.89021 F750.000
G1 X-19.650 Y-34.150 E13.23181
G1 X19.650 Y-34.150 E14.57917
G1 X19.650 Y34.090 E16.91871
G1 X19.304 Y33.950 F7800.000
G1 X19.025 Y33.525 F7800.000
G1 X-19.025 Y33.525 E18.22322 F1500.000
G1 X-19.025 Y-33.525 E20.52197
G1 X19.025 Y-33.525 E21.82649
G1 X19.025 Y33.465 E24.12318
G1 X18.400 Y32.900 F7800.000
G1 X10.507 Y32.900 E24.39378 F1500.000
G1 X10.484 Y32.550 E24.40582
G1 X10.806 Y32.507 E24.41693
G1 X11.557 Y32.196 E24.44480
G1 X12.202 Y31.702 E24.47267
G1 X12.696 Y31.057 E24.50053
G1 X13.008 Y30.306 E24.52840
G1 X13.114 Y29.500 E24.55626
G1 X13.008 Y28.694 E24.58413
G1 X12.696 Y27.943 E24.61200
G1 X12.202 Y27.298 E24.63986
G1 X11.557 Y26.804 E24.66773
G1 X10.824 Y26.500 E24.69492
G1 X11.557 Y26.196 E24.72212
G1 X12.202 Y25.702 E24.74998
G1 X12.696 Y25.057 E24.77785
G1 X13.008 Y24.306 E24.80572
G1 X13.114 Y23.500 E24.83358
G1 X13.008 Y22.694 E24.86145
G1 X12.696 Y21.943 E24.88932
G1 X12.202 Y21.298 E24.91718
G1 X11.557 Y20.804 E24.94505
G1 X10.790 Y20.486 E24.97350
G1 X9.949 Y20.393 E25.00251
G1 X9.194 Y20.493 E25.02861
G1 X8.443 Y20.804 E25.05648
G1 X7.798 Y21.298 E25.08435
G1 X7.304 Y21.943 E25.11221
G1 X6.993 Y22.694 E25.14008
G1 X6.886 Y23.500 E25.16795
G1 X6.993 Y24.306 E25.19581
G1 X7.304 Y25.057 E25.22368
G1 X7.798 Y25.702 E25.25155
G1 X8.443 Y26.196 E25.27941
G1 X9.176 Y26.500 E25.30661
G1 X8.443 Y26.804 E25.33380
G1 X7.798 Y27.298 E25.36167
G1 X7.304 Y27.943 E25.38953
G1 X6.993 Y28.694 E25.41740
G1 X6.886 Y29.500 E25.44527
G1 X6.993 Y30.306 E25.47313
G1 X7.304 Y31.057 E25.50100
G1 X7.798 Y31.702 E25.52887
G1 X8.443 Y32.196 E25.55673
G1 X9.194 Y32.507 E25.58460
G1 X9.516 Y32.550 E25.59572
G1 X9.493 Y32.900 E25.60775
G1 X-18.400 Y32.900 E26.56403
G1 X-18.400 Y-32.900 E28.81994
G1 X18.400 Y-32.900 E30.08160
G1 X18.400 Y32.840 E32.33545
G1 X11.010 Y0.608 F7800.000
G1 X8.990 Y0.608 E32.40469 F450.000
G1 X7.356 Y-0.579 E32.47394
G1 X6.732 Y-2.500 E32.54318
G1 X7.356 Y-4.421 E32.61243
G1 X8.990 Y-5.608 E32.68167
G1 X11.010 Y-5.608 E32.75092 F450.000
G1 X12.644 Y-4.421 E32.82016
G1 X13.268 Y-2.500 E32.88941
G1 X12.644 Y-0.579 E32.95865
G1 X11.058 Y0.573 E33.02584
G1 X10.886 Y0.988 F7800.000
G1 X11.010 Y1.233 F7800.000
G1 X8.787 Y1.233 E33.10205 F450.000
G1 X6.825 Y-0.193 E33.18521
G1 X6.075 Y-2.500 E33.26838
G1 X6.825 Y-4.807 E33.35155
G1 X8.787 Y-6.233 E33.43471
G1 X11.213 Y-6.233 E33.51788 F450.000
G1 X13.175 Y-4.807 E33.60105
G1 X13.925 Y-2.500 E33.68421
G1 X13.175 Y-0.193 E33.76738
G1 X11.213 Y1.233 E33.85055
G1 X11.070 Y1.233 E33.85545
G1 X11.010 Y1.858 F7800.000
G1 X8.584 Y1.858 E33.93862 F450.000
G1 X6.293 Y0.193 E34.03571
G1 X5.418 Y-2.500 E34.13280
G1 X6.293 Y-5.193 E34.22988
G1 X8.584 Y-6.858 E34.32697
G1 X11.416 Y-6.858 E34.42406 F450.000
G1 X13.707 Y-5.193 E34.52115
G1 X14.582 Y-2.500 E34.61824
G1 X13.707 Y0.193 E34.71533
G1 X11.416 Y1.858 E34.81242
G1 X11.070 Y1.858 E34.82428
G1 X16.412 Y-1.700 F7800.000
G1 X14.101 Y-10.222 F7800.000
G1 X14.101 Y-14.778 F7800.000
G1 X11.221 Y-18.742 F7800.000
G1 X11.010 Y-19.392 F7800.000
G1 X8.990 Y-19.392 E34.89353 F450.000
G1 X7.356 Y-20.579 E34.96277
G1 X6.732 Y-22.500 E35.03202
G1 X7.356 Y-24.421 E35.10126
G1 X8.990 Y-25.608 E35.17051
G1 X11.010 Y-25.608 E35.23975 F450.000
G1 X12.644 Y-24.421 E35.30900
G1 X13.268 Y-22.500 E35.37824
G1 X12.644 Y-20.579 E35.44749
G1 X11.058 Y-19.427 E35.51467
G1 X10.886 Y-19.012 F7800.000
G1 X11.010 Y-18.767 F7800.000
G1 X8.787 Y-18.767 E35.59088 F450.000
G1 X6.825 Y-20.193 E35.67405
G1 X6.075 Y-22.500 E35.75721
G1 X6.825 Y-24.807 E35.84038
G1 X8.787 Y-26.233 E35.92355
G1 X11.213 Y-26.233 E36.00671 F450.000
G1 X13.175 Y-24.807 E36.08988
G1 X13.925 Y-22.500 E36.17305
G1 X13.175 Y-20.193 E36.25621
G1 X11.213 Y-18.767 E36.33938
G1 X11.070 Y-18.767 E36.34429
G1 X11.010 Y-18.142 F7800.000
G1 X8.584 Y-18.142 E36.42745 F450.000
G1 X6.293 Y-19.807 E36.52454
G1 X5.418 Y-22.500 E36.62163
G1 X6.293 Y-25.193 E36.71872
G1 X8.584 Y-26.858 E36.81581
G1 X11.416 Y-26.858 E36.91290 F450.000
G1 X13.707 Y-25.193 E37.00998
G1 X14.582 Y-22.500 E37.10707
G1 X13.707 Y-19.807 E37.20416
G1 X11.416 Y-18.142 E37.30125
G1 X11.070 Y-18.142 E37.31312
G1 X-6.732 Y-22.500 F7800.000
G1 X-7.356 Y-20.579 E37.38236 F450.000
G1 X-8.990 Y-19.392 E37.45161
G1 X-11.010 Y-19.392 E37.52085
G1 X-12.644 Y-20.579 E37.59010
G1 X-13.268 Y-22.500 E37.65934
G1 X-12.644 Y-24.421 E37.72859
G1 X-11.010 Y-25.608 E37.79783
G1 X-8.990 Y-25.608 E37.86708 F450.000
G1 X-7.356 Y-24.421 E37.93632
G1 X-6.751 Y-22.557 E38.00351
G1 X-6.408 Y-22.265 F7800.000
G1 X-6.138 Y-22.307 F7800.000
G1 X-6.825 Y-20.193 E38.07971 F450.000
G1 X-8.787 Y-18.767 E38.16288
G1 X-11.213 Y-18.767 E38.24605
G1 X-13.175 Y-20.193 E38.32921
G1 X-13.925 Y-22.500 E38.41238
G1 X-13.175 Y-24.807 E38.49555
G1 X-11.213 Y-26.233 E38.57871
G1 X-8.787 Y-26.233 E38.66188 F450.000
G1 X-6.825 Y-24.807 E38.74505
G1 X-6.075 Y-22.500 E38.82822
G1 X-6.119 Y-22.364 E38.83312
G1 X-5.543 Y-22.114 F7800.000
G1 X-6.293 Y-19.807 E38.91629 F450.000
G1 X-8.584 Y-18.142 E39.01338
G1 X-11.416 Y-18.142 E39.11046
G1 X-13.707 Y-19.807 E39.20755
G1 X-14.582 Y-22.500 E39.30464
G1 X-13.707 Y-25.193 E39.40173
G1 X-11.416 Y-26.858 E39.49882
G1 X-8.584 Y-26.858 E39.59591 F450.000
G1 X-6.293 Y-25.193 E39.69300
G1 X-5.418 Y-22.500 E39.79009
G1 X-5.525 Y-22.171 E39.80195
G1 X-8.990 Y-5.608 F7800.000
G1 X-7.356 Y-4.421 E39.87120 F450.000
G1 X-6.732 Y-2.500 E39.94044
G1 X-7.356 Y-0.579 E40.00969
G1 X-8.990 Y0.608 E40.07893
G1 X-11.010 Y0.608 E40.14818
G1 X-12.644 Y-0.579 E40.21742
G1 X-13.268 Y-2.500 E40.28667
G1 X-12.644 Y-4.421 E40.35591
G1 X-11.010 Y-5.608 E40.42515
G1 X-9.050 Y-5.608 E40.49234 F450.000
G1 X-8.667 Y-5.843 F7800.000
G1 X-8.623 Y-6.114 F7800.000
G1 X-6.825 Y-4.807 E40.56855 F450.000
G1 X-6.075 Y-2.500 E40.65172
G1 X-6.825 Y-0.193 E40.73488
G1 X-8.787 Y1.233 E40.81805
G1 X-11.213 Y1.233 E40.90122
G1 X-13.175 Y-0.193 E40.98438
G1 X-13.925 Y-2.500 E41.06755
G1 X-13.175 Y-4.807 E41.15072
G1 X-11.213 Y-6.233 E41.23388
G1 X-8.787 Y-6.233 E41.31705 F450.000
G1 X-8.671 Y-6.149 E41.32195
G1 X-8.256 Y-6.619 F7800.000
G1 X-6.293 Y-5.193 E41.40512 F450.000
G1 X-5.418 Y-2.500 E41.50221
G1 X-6.293 Y0.193 E41.59930
G1 X-8.584 Y1.858 E41.69639
G1 X-11.416 Y1.858 E41.79348
G1 X-13.707 Y0.193 E41.89056
G1 X-14.582 Y-2.500 E41.98765
G1 X-13.707 Y-5.193 E42.08474
G1 X-11.416 Y-6.858 E42.18183
G1 X-8.584 Y-6.858 E42.27892 F450.000
G1 X-8.304 Y-6.654 E42.29078
G1 X-16.026 Y-5.742 F7800.000
G1 X-14.652 Y4.140 F7800.000
G1 X-11.221 Y3.884 F7800.000
G1 X-11.000 Y3.879 F7800.000
G1 X-11.000 Y6.500 F7800.000
G1 X-10.350 Y7.150 F7800.000
G1 X10.350 Y7.150 E43.00046 F750.000
G1 X10.350 Y9.850 E43.09303
G1 X-10.350 Y9.850 E43.80271
G1 X-10.350 Y7.210 E43.89322
G1 X-10.350 Y6.750 F7800.000
G1 X-10.975 Y6.525 F7800.000
G1 X10.975 Y6.525 E44.64574 F1500.000
G1 X10.975 Y10.475 E44.78116
G1 X-10.975 Y10.475 E45.53369
G1 X-10.975 Y6.585 E45.66704
G1 X-11.600 Y5.900 F7800.000
G1 X11.600 Y5.900 E46.46242 F1500.000
G1 X11.600 Y11.100 E46.64068
G1 X-11.600 Y11.100 E47.43605
G1 X-11.600 Y5.960 E47.61226
G1 X-15.451 Y20.112 F7800.000
G1 X-11.969 Y21.602 F7800.000
G1 X-10.364 Y21.500 F7800.000
G1 X-10.196 Y21.500 F7800.000
G1 X-10.196 Y21.500 F7800.000
G1 X-10.000 Y22.991 F7800.000
G1 X-10.038 Y23.652 F7800.000
G1 X-9.524 Y23.709 E47.62998 F450.000
G1 X-9.073 Y23.895 E47.64669
G1 X-8.690 Y24.190 E47.66328
G1 X-8.395 Y24.573 E47.67986
G1 X-8.210 Y25.020 E47.69644
G1 X-8.147 Y25.500 E47.71303
G1 X-8.210 Y25.980 E47.72961
G1 X-8.395 Y26.427 E47.74620
G1 X-8.690 Y26.810 E47.76278
G1 X-9.073 Y27.105 E47.77937
G1 X-9.520 Y27.290 E47.79595
G1 X-10.000 Y27.353 E47.81254
G1 X-10.490 Y27.288 E47.82948
G1 X-10.927 Y27.104 E47.84575
G1 X-11.310 Y26.810 E47.86230
G1 X-11.605 Y26.427 E47.87888
G1 X-11.790 Y25.980 E47.89547
G1 X-11.853 Y25.500 E47.91205
G1 X-11.790 Y25.020 E47.92864
G1 X-11.605 Y24.573 E47.94522
G1 X-11.310 Y24.190 E47.96181
G1 X-10.927 Y23.895 E47.97839
G1 X-10.480 Y23.710 E47.99497
G1 X-10.097 Y23.660 E48.00820 F450.000
G1 X-9.827 Y23.312 F7800.000
G1 X-10.119 Y23.032 F7800.000
G1 X-10.044 Y23.023 E48.01079 F450.000
G1 X-9.367 Y23.097 E48.03416
G1 X-8.758 Y23.349 E48.05674
G1 X-8.244 Y23.744 E48.07896
G1 X-7.849 Y24.258 E48.10119
G1 X-7.601 Y24.857 E48.12341
G1 X-7.517 Y25.500 E48.14564
G1 X-7.601 Y26.143 E48.16786
G1 X-7.849 Y26.742 E48.19009
G1 X-8.244 Y27.256 E48.21232
G1 X-8.758 Y27.651 E48.23454
G1 X-9.357 Y27.899 E48.25677
G1 X-10.000 Y27.983 E48.27899
G1 X-10.655 Y27.897 E48.30165
G1 X-11.244 Y27.649 E48.32356
G1 X-11.756 Y27.256 E48.34568
G1 X-12.151 Y26.742 E48.36790
G1 X-12.399 Y26.143 E48.39013
G1 X-12.483 Y25.500 E48.41236
G1 X-12.399 Y24.857 E48.43458
G1 X-12.151 Y24.258 E48.45681
G1 X-11.756 Y23.744 E48.47903
G1 X-11.242 Y23.349 E48.50126
G1 X-10.643 Y23.101 E48.52348
G1 X-10.179 Y23.040 E48.53953 F450.000
G1 X-10.201 Y22.413 F7800.000
G1 X-10.051 Y22.393 E48.54471 F450.000
G1 X-9.210 Y22.486 E48.57372
G1 X-8.443 Y22.804 E48.60217
G1 X-7.798 Y23.298 E48.63004
G1 X-7.304 Y23.943 E48.65790
G1 X-6.992 Y24.694 E48.68577
G1 X-6.886 Y25.500 E48.71364
G1 X-6.992 Y26.306 E48.74150
G1 X-7.304 Y27.057 E48.76937
G1 X-7.798 Y27.702 E48.79724
G1 X-8.443 Y28.196 E48.82510
G1 X-9.194 Y28.507 E48.85297
G1 X-10.000 Y28.614 E48.88083
G1 X-10.820 Y28.506 E48.90920
G1 X-11.561 Y28.193 E48.93676
G1 X-12.202 Y27.702 E48.96444
G1 X-12.696 Y27.057 E48.99231
G1 X-13.007 Y26.306 E49.02018
G1 X-13.114 Y25.500 E49.04804
G1 X-13.007 Y24.694 E49.07591
G1 X-12.696 Y23.943 E49.10378
G1 X-12.202 Y23.298 E49.13164
G1 X-11.557 Y22.804 E49.15951
G1 X-10.806 Y22.493 E49.18738
G1 X-10.260 Y22.421 E49.20624 F450.000
G1 X-10.000 Y19.353 F7800.000
G1 X-10.490 Y19.288 E49.22319 F450.000
G1 X-10.927 Y19.104 E49.23946
G1 X-11.310 Y18.810 E49.25600
G1 X-11.605 Y18.427 E49.27259
G1 X-11.790 Y17.980 E49.28917
G1 X-11.853 Y17.500 E49.30576
G1 X-11.790 Y17.020 E49.32234
G1 X-11.605 Y16.573 E49.33893
G1 X-11.310 Y16.190 E49.35551
G1 X-10.927 Y15.895 E49.37210
G1 X-10.480 Y15.710 E49.38868
G1 X-10.038 Y15.652 E49.40396 F450.000
G1 X-9.524 Y15.709 E49.42169
G1 X-9.073 Y15.895 E49.43840
G1 X-8.690 Y16.190 E49.45498
G1 X-8.395 Y16.573 E49.47157
G1 X-8.210 Y17.020 E49.48815
G1 X-8.147 Y17.500 E49.50473
G1 X-8.210 Y17.980 E49.52132
G1 X-8.395 Y18.427 E49.53790
G1 X-8.690 Y18.810 E49.55449
G1 X-9.073 Y19.105 E49.57107
G1 X-9.520 Y19.290 E49.58766
G1 X-9.941 Y19.345 E49.60218
G1 X-10.215 Y19.690 F7800.000
G1 X-10.082 Y19.973 F7800.000
G1 X-10.655 Y19.897 E49.62202 F450.000
G1 X-11.244 Y19.649 E49.64394
G1 X-11.756 Y19.256 E49.66605
G1 X-12.151 Y18.742 E49.68828
G1 X-12.399 Y18.143 E49.71050
G1 X-12.483 Y17.500 E49.73273
G1 X-12.399 Y16.857 E49.75495
G1 X-12.151 Y16.258 E49.77718
G1 X-11.756 Y15.744 E49.79940
G1 X-11.242 Y15.349 E49.82163
G1 X-10.643 Y15.101 E49.84385
G1 X-10.044 Y15.023 E49.86455 F450.000
G1 X-9.367 Y15.097 E49.88792
G1 X-8.758 Y15.349 E49.91050
G1 X-8.244 Y15.744 E49.93272
G1 X-7.849 Y16.258 E49.95495
G1 X-7.601 Y16.857 E49.97717
G1 X-7.517 Y17.500 E49.99940
G1 X-7.601 Y18.143 E50.02162
G1 X-7.849 Y18.742 E50.04385
G1 X-8.244 Y19.256 E50.06607
G1 X-8.758 Y19.651 E50.08830
G1 X-9.357 Y19.899 E50.11052
G1 X-10.022 Y19.980 E50.13349
G1 X-10.163 Y20.592 F7800.000
G1 X-10.820 Y20.506 E50.15622 F450.000
G1 X-11.561 Y20.193 E50.18377
G1 X-12.202 Y19.702 E50.21146
G1 X-12.696 Y19.057 E50.23932
G1 X-13.007 Y18.306 E50.26719
G1 X-13.114 Y17.500 E50.29506
G1 X-13.007 Y16.694 E50.32292
G1 X-12.696 Y15.943 E50.35079
G1 X-12.202 Y15.298 E50.37866
G1 X-11.557 Y14.804 E50.40652
G1 X-10.806 Y14.493 E50.43439
G1 X-10.051 Y14.393 E50.46050 F450.000
G1 X-9.210 Y14.486 E50.48950
G1 X-8.443 Y14.804 E50.51795
G1 X-7.798 Y15.298 E50.54582
G1 X-7.304 Y15.943 E50.57368
G1 X-6.992 Y16.694 E50.60155
G1 X-6.886 Y17.500 E50.62942
G1 X-6.992 Y18.306 E50.65728
G1 X-7.304 Y19.057 E50.68515
G1 X-7.798 Y19.702 E50.71302
G1 X-8.443 Y20.196 E50.74088
G1 X-9.194 Y20.507 E50.76875
G1 X-10.000 Y20.614 E50.79662
G1 X-10.104 Y20.600 E50.80020
G1 X-1.852 Y20.563 F7800.000
G1 X-1.793 Y20.049 E50.81792 F450.000
G1 X-1.637 Y19.632 E50.83321
G1 X-1.356 Y19.238 E50.84979
G1 X-0.983 Y18.930 E50.86637
G1 X-0.543 Y18.728 E50.88296
G1 X-0.104 Y18.654 E50.89824 F450.000
G1 X0.412 Y18.693 E50.91596
G1 X0.868 Y18.863 E50.93268
G1 X1.262 Y19.144 E50.94926
G1 X1.570 Y19.517 E50.96584
G1 X1.772 Y19.956 E50.98243
G1 X1.852 Y20.434 E50.99901
G1 X1.806 Y20.915 E51.01560
G1 X1.637 Y21.368 E51.03218
G1 X1.356 Y21.762 E51.04877
G1 X0.984 Y22.070 E51.06535
G1 X0.544 Y22.272 E51.08194
G1 X0.066 Y22.352 E51.09852
G1 X-0.415 Y22.306 E51.11510
G1 X-0.868 Y22.137 E51.13169
G1 X-1.262 Y21.856 E51.14827
G1 X-1.570 Y21.483 E51.16486
G1 X-1.772 Y21.044 E51.18144
G1 X-1.842 Y20.622 E51.19610
