; generated by Slic3r 1.2.9 on 2016-09-30 at 22:29:09

; external perimeters extrusion width = 0.40mm
; perimeters extrusion width = 0.48mm
; infill extrusion width = 0.48mm
; solid infill extrusion width = 0.48mm
; top infill extrusion width = 0.48mm
; support material extrusion width = 0.40mm

M107
M190 S70 ; set bed temperature
M104 S210 ; set temperature
G28 ; home all axes
G1 Z5 F5000 ; lift nozzle

M109 S210 ; wait for temperature to be reached
G21 ; set units to millimeters
G90 ; use absolute coordinates
M82 ; use absolute distances for extrusion
G92 E0
G1 Z0.350 F7800.000
G1 E-2.00000 F2400.00000
G92 E0
G1 X-25.739 Y14.620 F7800.000
G1 E2.00000 F2400.00000
G1 X-42.671 Y-15.188 E3.17530 F1800.000
G1 X-43.031 Y-15.925 E3.20341
G1 X-43.631 Y-17.375 E3.25721
G1 X-43.952 Y-18.363 E3.29285
G1 X-44.319 Y-19.889 E3.34665
G1 X-44.481 Y-20.916 E3.38229
G1 X-44.604 Y-22.480 E3.43609
G1 X-44.604 Y-23.520 E3.47173
G1 X-44.481 Y-25.084 E3.52552
G1 X-44.319 Y-26.111 E3.56117
G1 X-43.952 Y-27.637 E3.61496
G1 X-43.631 Y-28.625 E3.65061
G1 X-43.031 Y-30.075 E3.70441
G1 X-42.559 Y-31.001 E3.74004
G1 X-41.739 Y-32.339 E3.79384
G1 X-41.128 Y-33.180 E3.82948
G1 X-40.109 Y-34.374 E3.88328
G1 X-39.374 Y-35.109 E3.91892
G1 X-38.180 Y-36.128 E3.97272
G1 X-37.261 Y-36.787 E4.01149
G1 X-36.001 Y-37.559 E4.06215
G1 X-35.075 Y-38.031 E4.09778
G1 X-33.625 Y-38.631 E4.15159
G1 X-4.247 Y-49.232 E5.22236
G1 X-2.000 Y-49.625 E5.30057
G1 X38.000 Y-49.625 E6.67193
G1 X40.259 Y-49.228 E6.75056
G1 X42.247 Y-48.085 E6.82918 F1800.000
G1 X43.726 Y-46.332 E6.90781
G1 X44.519 Y-44.180 E6.98644
G1 X44.625 Y-43.000 E7.02705
G1 X44.625 Y43.000 E9.97548
G1 X44.228 Y45.259 E10.05410
G1 X43.085 Y47.247 E10.13273
G1 X41.332 Y48.726 E10.21136
G1 X39.180 Y49.519 E10.28999
G1 X38.000 Y49.625 E10.33060
G1 X-2.000 Y49.625 E11.70196
G1 X-4.259 Y49.228 E11.78059
G1 X-6.247 Y48.085 E11.85922
G1 X-7.760 Y46.272 E11.94018
G1 X-25.709 Y14.672 E13.18611
G1 E11.18611 F2400.00000
G92 E0
G1 X-27.644 Y-9.581 F7800.000
G1 E2.00000 F2400.00000
G1 X-28.135 Y-9.563 E2.01685 F1800.000
G1 X-29.969 Y-9.707 E2.07991
G1 X-30.235 Y-9.750 E2.08917
G1 X-32.024 Y-10.179 E2.15223
G1 X-32.281 Y-10.262 E2.16149
G1 X-33.980 Y-10.966 E2.22454
G1 X-34.221 Y-11.089 E2.23380
G1 X-35.789 Y-12.050 E2.29686
G1 X-36.007 Y-12.209 E2.30612
G1 X-37.406 Y-13.403 E2.36918
G1 X-37.597 Y-13.594 E2.37844
G1 X-38.791 Y-14.993 E2.44149
G1 X-38.950 Y-15.211 E2.45075
G1 X-39.911 Y-16.779 E2.51381
G1 X-40.034 Y-17.020 E2.52307
G1 X-40.738 Y-18.719 E2.58612
G1 X-40.821 Y-18.976 E2.59538
G1 X-41.250 Y-20.765 E2.65844
G1 X-41.293 Y-21.031 E2.66770
G1 X-41.437 Y-22.865 E2.73076
G1 X-41.437 Y-23.135 E2.74002
G1 X-41.293 Y-24.969 E2.80307
G1 X-41.250 Y-25.235 E2.81233
G1 X-40.821 Y-27.024 E2.87539
G1 X-40.738 Y-27.281 E2.88465
G1 X-40.034 Y-28.980 E2.94771
G1 X-39.911 Y-29.221 E2.95696
G1 X-38.950 Y-30.789 E3.02002
G1 X-38.791 Y-31.007 E3.02928
G1 X-37.597 Y-32.406 E3.09234
G1 X-37.406 Y-32.597 E3.10160
G1 X-36.007 Y-33.791 E3.16465
G1 X-35.596 Y-34.068 E3.18167
G1 X-34.221 Y-34.911 E3.23696
G1 X-33.980 Y-35.034 E3.24621
G1 X-32.281 Y-35.738 E3.30927
G1 X-31.803 Y-35.874 E3.32629
G1 X-30.235 Y-36.250 E3.38157
G1 X-29.969 Y-36.293 E3.39083
G1 X-28.135 Y-36.437 E3.45389
G1 X-27.639 Y-36.419 E3.47090
G1 X-26.031 Y-36.293 E3.52619 F1800.000
G1 X-25.765 Y-36.250 E3.53545
G1 X-23.976 Y-35.821 E3.59851
G1 X-23.719 Y-35.738 E3.60777
G1 X-22.020 Y-35.034 E3.67083
G1 X-21.779 Y-34.911 E3.68009
G1 X-20.211 Y-33.950 E3.74314
G1 X-19.993 Y-33.791 E3.75240
G1 X-18.594 Y-32.597 E3.81546
G1 X-18.403 Y-32.406 E3.82472
G1 X-17.209 Y-31.007 E3.88777
G1 X-17.050 Y-30.789 E3.89703
G1 X-16.089 Y-29.221 E3.96009
G1 X-15.966 Y-28.980 E3.96935
G1 X-15.262 Y-27.281 E4.03241
G1 X-15.179 Y-27.024 E4.04167
G1 X-14.750 Y-25.235 E4.10472
G1 X-14.707 Y-24.969 E4.11398
G1 X-14.563 Y-23.135 E4.17704
G1 X-14.563 Y-22.865 E4.18630
G1 X-14.707 Y-21.031 E4.24935
G1 X-14.750 Y-20.765 E4.25861
G1 X-15.179 Y-18.976 E4.32167
G1 X-15.262 Y-18.719 E4.33093
G1 X-15.966 Y-17.020 E4.39399
G1 X-16.089 Y-16.779 E4.40325
G1 X-17.050 Y-15.211 E4.46630
G1 X-17.209 Y-14.993 E4.47556
G1 X-18.403 Y-13.594 E4.53862
G1 X-18.594 Y-13.403 E4.54788
G1 X-19.993 Y-12.209 E4.61094
G1 X-20.404 Y-11.932 E4.62795
G1 X-21.779 Y-11.089 E4.68324
G1 X-22.020 Y-10.966 E4.69250
G1 X-23.719 Y-10.262 E4.75555
G1 X-23.976 Y-10.179 E4.76481
G1 X-25.765 Y-9.750 E4.82787
G1 X-26.031 Y-9.707 E4.83713
G1 X-27.584 Y-9.585 E4.89052
G1 X-27.693 Y-10.203 F7800.000
G1 X-28.111 Y-10.188 E4.90485 F1800.000
G1 X-29.895 Y-10.328 E4.96623
G1 X-30.113 Y-10.363 E4.97380
G1 X-31.854 Y-10.781 E5.03518
G1 X-32.064 Y-10.849 E5.04275
G1 X-33.718 Y-11.534 E5.10412
G1 X-33.915 Y-11.635 E5.11170
G1 X-35.441 Y-12.570 E5.17307
G1 X-35.620 Y-12.700 E5.18065
G1 X-36.981 Y-13.862 E5.24202
G1 X-37.138 Y-14.019 E5.24960
G1 X-38.300 Y-15.380 E5.31097
G1 X-38.430 Y-15.559 E5.31855
G1 X-39.260 Y-16.913 E5.37299
G1 X-39.466 Y-17.282 E5.38749
G1 X-40.151 Y-18.936 E5.44886
G1 X-40.219 Y-19.146 E5.45643
G1 X-40.637 Y-20.887 E5.51781
G1 X-40.672 Y-21.105 E5.52538
G1 X-40.812 Y-22.890 E5.58676
G1 X-40.812 Y-23.110 E5.59433
G1 X-40.672 Y-24.895 E5.65571
G1 X-40.637 Y-25.113 E5.66328
G1 X-40.219 Y-26.854 E5.72466
G1 X-40.151 Y-27.064 E5.73223
G1 X-39.466 Y-28.718 E5.79361
G1 X-39.365 Y-28.915 E5.80118
G1 X-38.430 Y-30.441 E5.86255
G1 X-38.300 Y-30.620 E5.87013
G1 X-37.269 Y-31.828 E5.92458
G1 X-36.981 Y-32.138 E5.93907
G1 X-35.620 Y-33.300 E6.00044
G1 X-35.269 Y-33.536 E6.01493
G1 X-33.915 Y-34.365 E6.06938
G1 X-33.718 Y-34.466 E6.07695
G1 X-32.064 Y-35.151 E6.13833
G1 X-31.658 Y-35.266 E6.15282
G1 X-30.113 Y-35.637 E6.20727
G1 X-29.895 Y-35.672 E6.21484
G1 X-28.110 Y-35.812 E6.27622
G1 X-27.890 Y-35.812 E6.28379
G1 X-26.105 Y-35.672 E6.34516 F1800.000
G1 X-25.690 Y-35.590 E6.35966
G1 X-24.146 Y-35.219 E6.41410
G1 X-23.936 Y-35.151 E6.42168
G1 X-22.282 Y-34.466 E6.48305
G1 X-22.085 Y-34.365 E6.49063
G1 X-20.559 Y-33.430 E6.55200
G1 X-20.380 Y-33.300 E6.55958
G1 X-19.019 Y-32.138 E6.62095
G1 X-18.862 Y-31.981 E6.62853
G1 X-17.700 Y-30.620 E6.68990
G1 X-17.570 Y-30.441 E6.69747
G1 X-16.635 Y-28.915 E6.75885
G1 X-16.534 Y-28.718 E6.76642
G1 X-15.849 Y-27.064 E6.82780
G1 X-15.781 Y-26.854 E6.83537
G1 X-15.363 Y-25.113 E6.89675
G1 X-15.328 Y-24.895 E6.90432
G1 X-15.188 Y-23.111 E6.96569
G1 X-15.188 Y-22.890 E6.97327
G1 X-15.328 Y-21.105 E7.03464
G1 X-15.363 Y-20.887 E7.04222
G1 X-15.781 Y-19.146 E7.10359
G1 X-15.849 Y-18.936 E7.11117
G1 X-16.534 Y-17.282 E7.17254
G1 X-16.635 Y-17.085 E7.18012
G1 X-17.570 Y-15.559 E7.24149
G1 X-17.700 Y-15.380 E7.24907
G1 X-18.862 Y-14.019 E7.31044
G1 X-19.019 Y-13.862 E7.31802
G1 X-20.380 Y-12.700 E7.37939
G1 X-20.731 Y-12.464 E7.39388
G1 X-22.085 Y-11.635 E7.44833
G1 X-22.282 Y-11.534 E7.45590
G1 X-23.936 Y-10.849 E7.51728
G1 X-24.146 Y-10.781 E7.52485
G1 X-25.887 Y-10.363 E7.58623
G1 X-26.105 Y-10.328 E7.59380
G1 X-27.633 Y-10.208 E7.64635
G1 X-27.742 Y-10.826 F7800.000
G1 X-28.086 Y-10.813 E7.65816 F1800.000
G1 X-29.822 Y-10.949 E7.71785
G1 X-31.684 Y-11.383 E7.78342
G1 X-31.848 Y-11.436 E7.78931
G1 X-33.456 Y-12.102 E7.84900
G1 X-35.094 Y-13.090 E7.91456
G1 X-36.557 Y-14.322 E7.98013
G1 X-36.678 Y-14.443 E7.98602
G1 X-37.910 Y-15.906 E8.05159
G1 X-38.820 Y-17.391 E8.11128
G1 X-39.564 Y-19.152 E8.17684
G1 X-40.024 Y-21.009 E8.24241
G1 X-40.051 Y-21.178 E8.24830
G1 X-40.187 Y-23.086 E8.31387
G1 X-40.051 Y-24.822 E8.37356
G1 X-39.659 Y-26.512 E8.43304
G1 X-39.564 Y-26.848 E8.44501
G1 X-38.898 Y-28.456 E8.50470
G1 X-37.910 Y-30.094 E8.57026
G1 X-37.809 Y-30.233 E8.57615
G1 X-36.557 Y-31.678 E8.64172
G1 X-35.233 Y-32.809 E8.70141
G1 X-34.943 Y-33.003 E8.71338
G1 X-33.456 Y-33.898 E8.77286
G1 X-31.848 Y-34.564 E8.83255
G1 X-31.512 Y-34.659 E8.84451
G1 X-29.822 Y-35.051 E8.90400
G1 X-28.086 Y-35.187 E8.96369
G1 X-27.737 Y-35.173 E8.97565
G1 X-26.009 Y-35.024 E9.03514 F1800.000
G1 X-24.316 Y-34.617 E9.09483
G1 X-22.544 Y-33.898 E9.16039
G1 X-22.391 Y-33.820 E9.16628
G1 X-20.767 Y-32.809 E9.23185
G1 X-19.322 Y-31.557 E9.29741
G1 X-18.090 Y-30.094 E9.36298
G1 X-17.102 Y-28.456 E9.42855
G1 X-16.383 Y-26.684 E9.49411
G1 X-15.976 Y-24.991 E9.55380
G1 X-15.813 Y-23.086 E9.61937
G1 X-15.813 Y-22.914 E9.62526
G1 X-15.976 Y-21.009 E9.69082
G1 X-16.436 Y-19.152 E9.75639
G1 X-17.180 Y-17.391 E9.82196
G1 X-18.090 Y-15.906 E9.88165
G1 X-19.322 Y-14.443 E9.94721
G1 X-19.443 Y-14.322 E9.95310
G1 X-20.906 Y-13.090 E10.01867
G1 X-22.544 Y-12.102 E10.08423
G1 X-24.316 Y-11.383 E10.14980
G1 X-26.009 Y-10.976 E10.20949
G1 X-27.682 Y-10.831 E10.26708
G1 X-27.791 Y-11.449 F7800.000
G1 X-28.061 Y-11.438 E10.27636 F1800.000
G1 X-29.748 Y-11.571 E10.33437
G1 X-31.631 Y-12.023 E10.40076
G1 X-33.194 Y-12.670 E10.45877
G1 X-34.746 Y-13.610 E10.52097
G1 X-36.132 Y-14.781 E10.58318
G1 X-37.318 Y-16.154 E10.64538
G1 X-38.330 Y-17.806 E10.71178
G1 X-39.015 Y-19.485 E10.77398
G1 X-39.410 Y-21.131 E10.83199
G1 X-39.562 Y-22.939 E10.89419
G1 X-39.429 Y-24.748 E10.95639
G1 X-38.977 Y-26.631 E11.02279
G1 X-38.274 Y-28.304 E11.08500
G1 X-37.318 Y-29.846 E11.14720
G1 X-36.219 Y-31.132 E11.20520
G1 X-34.746 Y-32.390 E11.27160
G1 X-33.304 Y-33.274 E11.32961
G1 X-33.122 Y-33.360 E11.33649
G1 X-31.515 Y-34.015 E11.39602
G1 X-29.869 Y-34.410 E11.45402
G1 X-27.939 Y-34.562 E11.52042
G1 X-26.131 Y-34.410 E11.58262 F1800.000
G1 X-24.485 Y-34.015 E11.64063
G1 X-22.806 Y-33.330 E11.70283
G1 X-21.254 Y-32.390 E11.76504
G1 X-19.868 Y-31.219 E11.82724
G1 X-18.610 Y-29.746 E11.89364
G1 X-17.670 Y-28.194 E11.95584
G1 X-16.985 Y-26.515 E12.01804
G1 X-16.571 Y-24.748 E12.08025
G1 X-16.438 Y-23.061 E12.13825
G1 X-16.571 Y-21.252 E12.20046
G1 X-17.023 Y-19.369 E12.26685
G1 X-17.726 Y-17.696 E12.32906
G1 X-18.610 Y-16.254 E12.38706
G1 X-19.781 Y-14.868 E12.44927
G1 X-21.154 Y-13.682 E12.51147
G1 X-22.806 Y-12.670 E12.57787
G1 X-24.485 Y-11.985 E12.64007
G1 X-26.131 Y-11.590 E12.69808
G1 X-27.731 Y-11.454 E12.75314
G1 X-27.840 Y-12.072 F7800.000
G1 X-28.037 Y-12.063 E12.75990 F1800.000
G1 X-29.675 Y-12.192 E12.81623
G1 X-31.415 Y-12.609 E12.87758
G1 X-32.933 Y-13.238 E12.93391
G1 X-34.399 Y-14.130 E12.99275
G1 X-35.708 Y-15.240 E13.05159
G1 X-36.870 Y-16.601 E13.11295
G1 X-37.729 Y-18.002 E13.16927
G1 X-38.342 Y-19.467 E13.22371
G1 X-38.413 Y-19.655 E13.23063
G1 X-38.797 Y-21.253 E13.28695
G1 X-38.937 Y-23.037 E13.34831
G1 X-38.808 Y-24.675 E13.40463
G1 X-38.413 Y-26.345 E13.46348
G1 X-37.762 Y-27.933 E13.52232
G1 X-36.870 Y-29.399 E13.58116
G1 X-35.708 Y-30.760 E13.64252
G1 X-34.459 Y-31.827 E13.69884
G1 X-34.290 Y-31.937 E13.70576
G1 X-32.933 Y-32.762 E13.76020
G1 X-31.415 Y-33.391 E13.81652
G1 X-29.675 Y-33.808 E13.87788
G1 X-28.037 Y-33.937 E13.93420
G1 X-27.835 Y-33.927 E13.94112
G1 X-26.253 Y-33.797 E13.99556 F1800.000
G1 X-24.655 Y-33.413 E14.05189
G1 X-23.067 Y-32.762 E14.11073
G1 X-21.541 Y-31.827 E14.17209
G1 X-20.240 Y-30.708 E14.23093
G1 X-19.130 Y-29.399 E14.28977
G1 X-18.238 Y-27.933 E14.34861
G1 X-17.587 Y-26.345 E14.40745
G1 X-17.192 Y-24.675 E14.46629
G1 X-17.063 Y-23.037 E14.52261
G1 X-17.192 Y-21.325 E14.58145
G1 X-17.609 Y-19.585 E14.64281
G1 X-18.271 Y-18.002 E14.70165
G1 X-19.130 Y-16.601 E14.75798
G1 X-20.240 Y-15.292 E14.81682
G1 X-21.541 Y-14.173 E14.87566
G1 X-23.067 Y-13.238 E14.93702
G1 X-24.655 Y-12.587 E14.99586
G1 X-26.253 Y-12.203 E15.05218
G1 X-27.780 Y-12.077 E15.10472
G1 X-27.889 Y-12.695 F7800.000
G1 X-28.012 Y-12.688 E15.10896 F1800.000
G1 X-29.601 Y-12.813 E15.16360
G1 X-31.198 Y-13.196 E15.21992
G1 X-32.671 Y-13.806 E15.27456
G1 X-34.052 Y-14.650 E15.33004
G1 X-35.283 Y-15.699 E15.38552
G1 X-36.350 Y-16.948 E15.44183
G1 X-37.194 Y-18.329 E15.49731
G1 X-37.804 Y-19.802 E15.55195
G1 X-38.184 Y-21.375 E15.60743
G1 X-38.312 Y-22.988 E15.66291
G1 X-38.187 Y-24.601 E15.71839
G1 X-37.804 Y-26.198 E15.77471
G1 X-37.183 Y-27.693 E15.83019
G1 X-36.350 Y-29.052 E15.88482
G1 X-35.301 Y-30.283 E15.94030
G1 X-34.052 Y-31.350 E15.99662
G1 X-32.644 Y-32.205 E16.05309
G1 X-31.175 Y-32.812 E16.10757
G1 X-29.625 Y-33.184 E16.16221
G1 X-27.988 Y-33.312 E16.21852
G1 X-26.375 Y-33.184 E16.27400 F1800.000
G1 X-24.802 Y-32.804 E16.32948
G1 X-23.329 Y-32.194 E16.38412
G1 X-21.948 Y-31.350 E16.43960
G1 X-20.699 Y-30.283 E16.49592
G1 X-19.650 Y-29.052 E16.55140
G1 X-18.806 Y-27.671 E16.60688
G1 X-18.188 Y-26.175 E16.66235
G1 X-17.816 Y-24.625 E16.71699
G1 X-17.688 Y-23.012 E16.77247
G1 X-17.813 Y-21.399 E16.82795
G1 X-18.196 Y-19.802 E16.88427
G1 X-18.817 Y-18.307 E16.93975
G1 X-19.650 Y-16.948 E16.99439
G1 X-20.699 Y-15.717 E17.04987
G1 X-21.929 Y-14.664 E17.10535
G1 X-23.329 Y-13.806 E17.16166
G1 X-24.825 Y-13.188 E17.21714
G1 X-26.375 Y-12.816 E17.27178
G1 X-27.829 Y-12.700 E17.32180
G1 E15.32180 F2400.00000
G92 E0
G1 X-20.194 Y-15.250 F7800.000
G1 X-11.913 Y-11.264 F7800.000
G1 X-11.678 Y-12.032 F7800.000
G1 X-11.214 Y-13.680 F7800.000
G1 X-11.047 Y-14.318 F7800.000
G1 X-5.437 Y-12.695 F7800.000
G1 E2.00000 F2400.00000
G1 X-5.437 Y-44.424 E3.08777 F1800.000
G1 X-3.424 Y-46.437 E3.18539
G1 X39.424 Y-46.437 E4.65436
G1 X41.437 Y-44.424 E4.75197
G1 X41.437 Y-1.576 E6.22095 F1800.000
G1 X40.119 Y-0.259 E6.28483
G1 X40.119 Y0.259 E6.30258
G1 X41.437 Y1.576 E6.36646
G1 X41.437 Y44.424 E7.83543
G1 X39.424 Y46.437 E7.93305
G1 X-3.424 Y46.437 E9.40202
G1 X-5.437 Y44.424 E9.49963
G1 X-5.437 Y1.576 E10.96861
G1 X-4.119 Y0.259 E11.03249
G1 X-4.119 Y-0.259 E11.05024
G1 X-5.437 Y-1.576 E11.11412
G1 X-5.437 Y-12.635 E11.49326
G1 X-4.812 Y-12.695 F7800.000
G1 X-4.812 Y-44.165 E12.57216 F1800.000
G1 X-3.165 Y-45.812 E12.65203
G1 X39.165 Y-45.812 E14.10325
G1 X40.812 Y-44.165 E14.18312 F1800.000
G1 X40.812 Y-1.835 E15.63435
G1 X39.236 Y-0.259 E15.71078
G1 X39.236 Y0.259 E15.72853
G1 X40.812 Y1.835 E15.80496
G1 X40.812 Y44.165 E17.25618
G1 X39.165 Y45.812 E17.33605
G1 X-3.165 Y45.812 E18.78728
G1 X-4.812 Y44.165 E18.86714
G1 X-4.812 Y1.835 E20.31837
G1 X-3.236 Y0.259 E20.39480
G1 X-3.236 Y-0.259 E20.41255
G1 X-4.812 Y-1.835 E20.48898
G1 X-4.812 Y-12.635 E20.85925
G1 X-4.187 Y-12.695 F7800.000
G1 X-4.187 Y-43.906 E21.92927 F1800.000
G1 X-2.906 Y-45.187 E21.99139
G1 X38.906 Y-45.187 E23.42487
G1 X40.187 Y-43.906 E23.48699
G1 X40.187 Y-2.094 E24.92046 F1800.000
G1 X38.906 Y-0.813 E24.98258
G1 X-2.906 Y-0.813 E26.41606
G1 X-4.187 Y-2.094 E26.47818
G1 X-4.187 Y-12.635 E26.83957
G1 X-3.562 Y-12.695 F7800.000
G1 X-3.562 Y-43.647 E27.90073 F1800.000
G1 X-2.647 Y-44.562 E27.94510
G1 X38.647 Y-44.562 E29.36083
G1 X39.562 Y-43.647 E29.40520 F1800.000
G1 X39.562 Y-2.353 E30.82093
G1 X38.647 Y-1.438 E30.86530
G1 X-2.647 Y-1.438 E32.28103
G1 X-3.562 Y-2.353 E32.32540
G1 X-3.562 Y-12.635 E32.67792
G1 X-2.937 Y-12.695 F7800.000
G1 X-2.937 Y-43.388 E33.73019 F1800.000
G1 X-2.388 Y-43.937 E33.75682
G1 X38.388 Y-43.937 E35.15480
G1 X38.937 Y-43.388 E35.18142
G1 X38.937 Y-2.612 E36.57940 F1800.000
G1 X38.388 Y-2.063 E36.60602
G1 X-2.388 Y-2.063 E38.00401
G1 X-2.937 Y-2.612 E38.03063
G1 X-2.937 Y-12.635 E38.37428
G1 E36.37428 F2400.00000
G92 E0
G1 X-2.129 Y-2.688 F7800.000
G1 E2.00000 F2400.00000
G1 X-2.312 Y-2.871 E2.00887 F1800.000
G1 X-2.312 Y-43.129 E3.38911
G1 X-2.129 Y-43.312 E3.39798
G1 X38.129 Y-43.312 E4.77822
G1 X38.312 Y-43.129 E4.78709
G1 X38.312 Y-2.871 E6.16732
G1 X38.129 Y-2.688 E6.17620
G1 X-2.069 Y-2.688 E7.55438
G1 E5.55438 F2400.00000
G92 E0
G1 X-2.414 Y-2.000 F7800.000
G1 X-2.414 Y-2.000 F7800.000
G1 X-2.414 Y-0.000 F7800.000
G1 X-2.129 Y0.813 F7800.000
G1 E2.00000 F2400.00000
G1 X38.906 Y0.813 E3.40686 F1800.000
G1 X40.187 Y2.094 E3.46897
G1 X40.187 Y43.906 E4.90245 F1800.000
G1 X38.906 Y45.187 E4.96457
G1 X-2.906 Y45.187 E6.39805
G1 X-4.187 Y43.906 E6.46017
G1 X-4.187 Y2.094 E7.89364
G1 X-2.906 Y0.813 E7.95576
G1 X-2.189 Y0.813 E7.98033
G1 X-2.129 Y1.438 F7800.000
G1 X38.647 Y1.438 E9.37831 F1800.000
G1 X39.562 Y2.353 E9.42268 F1800.000
G1 X39.562 Y43.647 E10.83841
G1 X38.647 Y44.562 E10.88278
G1 X-2.647 Y44.562 E12.29851
G1 X-3.562 Y43.647 E12.34288
G1 X-3.562 Y2.353 E13.75861
G1 X-2.647 Y1.438 E13.80298
G1 X-2.189 Y1.438 E13.81867
G1 X-2.129 Y2.063 F7800.000
G1 X38.388 Y2.063 E15.20778 F1800.000
G1 X38.937 Y2.612 E15.23440
