; generated by Slic3r 1.2.9 on 2017-08-01 at 12:29:42

; external perimeters extrusion width = 0.40mm
; perimeters extrusion width = 0.48mm
; infill extrusion width = 0.48mm
; solid infill extrusion width = 0.48mm
; top infill extrusion width = 0.48mm
; support material extrusion width = 0.40mm

M107
M190 S70 ; set bed temperature
M104 S210 ; set temperature
G28 ; home all axes
G1 Z5 F5000 ; lift nozzle

M109 S210 ; wait for temperature to be reached
G21 ; set units to millimeters
G90 ; use absolute coordinates
M82 ; use absolute distances for extrusion
G92 E0
G1 Z0.350 F7800.000
G1 E-2.00000 F2400.00000
G92 E0
G1 X10.325 Y0.000 F7800.000
G1 E2.00000 F2400.00000
G1 X10.325 Y30.000 E2.99336 F2340.000
G1 X9.928 Y32.259 E3.06930
G1 X8.785 Y34.247 E3.14524
G1 X7.032 Y35.726 E3.22118
G1 X4.880 Y36.519 E3.29712
G1 X3.700 Y36.625 E3.33634
G1 X-3.700 Y36.625 E3.58137
G1 X-5.959 Y36.228 E3.65731
G1 X-7.947 Y35.085 E3.73325
G1 X-9.426 Y33.332 E3.80920
G1 X-10.219 Y31.180 E3.88514
G1 X-10.325 Y30.000 E3.92436
G1 X-10.325 Y-30.000 E5.91108
G1 X-9.928 Y-32.259 E5.98702
G1 X-8.785 Y-34.247 E6.06296
G1 X-7.032 Y-35.726 E6.13890
G1 X-4.880 Y-36.519 E6.21484
G1 X-3.700 Y-36.625 E6.25406
G1 X3.700 Y-36.625 E6.49909
G1 X5.959 Y-36.228 E6.57503
G1 X7.947 Y-35.085 E6.65097 F2340.000
G1 X9.426 Y-33.332 E6.72691
G1 X10.219 Y-31.180 E6.80285
G1 X10.325 Y-30.000 E6.84208
G1 X10.325 Y-0.060 E7.83345
G1 E5.83345 F2400.00000
G92 E0
G1 X2.100 Y11.600 F7800.000
G1 E2.00000 F2400.00000
G1 X2.100 Y28.400 E2.55630 F2340.000
G1 X-2.100 Y28.400 E2.69538
G1 X-2.100 Y11.600 E3.25168
G1 X2.040 Y11.600 E3.38878
G1 X2.725 Y10.975 F7800.000
G1 X2.725 Y29.025 E3.98646 F2340.000
G1 X-2.725 Y29.025 E4.16693
G1 X-2.725 Y10.975 E4.76461
G1 X2.665 Y10.975 E4.94309
G1 X3.350 Y10.350 F7800.000
G1 X3.350 Y29.650 E5.58216 F1170.000
G1 X-3.350 Y29.650 E5.80401
G1 X-3.350 Y10.350 E6.44307
G1 X3.290 Y10.350 E6.66293
G1 X3.150 Y10.696 F7800.000
G1 X3.200 Y10.000 F7800.000
G1 X3.200 Y-10.000 E7.32517 F1170.000
G1 X2.100 Y-11.600 F7800.000
G1 X-2.100 Y-11.600 E7.46426 F2340.000
G1 X-2.100 Y-28.400 E8.02056
G1 X2.100 Y-28.400 E8.15964
G1 X2.100 Y-11.660 E8.71395
G1 X2.725 Y-10.975 F7800.000
G1 X-2.725 Y-10.975 E8.89442 F2340.000
G1 X-2.725 Y-29.025 E9.49210
G1 X2.725 Y-29.025 E9.67257
G1 X2.725 Y-11.035 E10.26827
G1 X3.350 Y-10.350 F7800.000
G1 X-3.350 Y-10.350 E10.49012 F1170.000
G1 X-3.350 Y-29.650 E11.12918
G1 X3.350 Y-29.650 E11.35103
G1 X3.350 Y-10.410 E11.98811
G1 X3.004 Y-10.550 F7800.000
G1 X-1.417 Y-11.978 F7800.000
G1 X-1.722 Y-12.283 E12.00264 F780.000
G1 X-1.722 Y-13.182 E12.03291
G1 X-0.518 Y-11.978 E12.09026
G1 X0.381 Y-11.978 E12.12053
G1 X-1.722 Y-14.081 E12.22069
G1 X-1.722 Y-14.980 E12.25097
G1 X1.280 Y-11.978 E12.39394
G1 X1.722 Y-12.436 E12.41535
G1 X-1.722 Y-15.879 E12.57936
G1 X-1.722 Y-16.778 E12.60963
G1 X1.722 Y-13.335 E12.77364
G1 X1.722 Y-14.233 E12.80391
G1 X-1.722 Y-17.677 E12.96792
G1 X-1.722 Y-18.576 E12.99819
G1 X1.722 Y-15.132 E13.16220
G1 X1.722 Y-16.031 E13.19247
G1 X-1.722 Y-19.474 E13.35648
G1 X-1.722 Y-20.373 E13.38675
G1 X1.722 Y-16.930 E13.55076
G1 X1.722 Y-17.829 E13.58104
G1 X-1.722 Y-21.272 E13.74504
G1 X-1.722 Y-22.171 E13.77532
G1 X1.722 Y-18.728 E13.93932
G1 X1.722 Y-19.627 E13.96960
G1 X-1.722 Y-23.070 E14.13360
G1 X-1.722 Y-23.969 E14.16388
G1 X1.722 Y-20.526 E14.32788
G1 X1.722 Y-21.424 E14.35816
G1 X-1.722 Y-24.868 E14.52216
G1 X-1.722 Y-25.767 E14.55244
G1 X1.722 Y-22.323 E14.71645
G1 X1.722 Y-23.222 E14.74672
G1 X-1.722 Y-26.665 E14.91073
G1 X-1.722 Y-27.564 E14.94100
G1 X1.722 Y-24.121 E15.10501
G1 X1.722 Y-25.020 E15.13528
G1 X-1.280 Y-28.022 E15.27825
G1 X-0.381 Y-28.022 E15.30853
G1 X1.722 Y-25.919 E15.40869
G1 X1.722 Y-26.818 E15.43896
G1 X0.518 Y-28.022 E15.49631
G1 X1.417 Y-28.022 E15.52658
G1 X1.722 Y-27.717 E15.54112
G1 X2.700 Y-29.000 F7800.000
G1 X2.700 Y11.000 F7800.000
G1 X1.722 Y12.283 F7800.000
G1 X1.417 Y11.978 E15.55565 F780.000
G1 X0.518 Y11.978 E15.58592
G1 X1.722 Y13.182 E15.64327
G1 X1.722 Y14.081 E15.67354
G1 X-0.381 Y11.978 E15.77370
G1 X-1.280 Y11.978 E15.80398
G1 X1.722 Y14.980 E15.94695
G1 X1.722 Y15.879 E15.97723
G1 X-1.722 Y12.436 E16.14123
G1 X-1.722 Y13.335 E16.17151
G1 X1.722 Y16.778 E16.33551
G1 X1.722 Y17.677 E16.36579
G1 X-1.722 Y14.233 E16.52979
G1 X-1.722 Y15.132 E16.56007
G1 X1.722 Y18.576 E16.72407
G1 X1.722 Y19.474 E16.75435
G1 X-1.722 Y16.031 E16.91836
G1 X-1.722 Y16.930 E16.94863
G1 X1.722 Y20.373 E17.11264
G1 X1.722 Y21.272 E17.14291
G1 X-1.722 Y17.829 E17.30692
G1 X-1.722 Y18.728 E17.33719
G1 X1.722 Y22.171 E17.50120
G1 X1.722 Y23.070 E17.53147
G1 X-1.722 Y19.627 E17.69548
G1 X-1.722 Y20.526 E17.72575
G1 X1.722 Y23.969 E17.88976
G1 X1.722 Y24.868 E17.92003
G1 X-1.722 Y21.424 E18.08404
G1 X-1.722 Y22.323 E18.11431
G1 X1.722 Y25.767 E18.27832
G1 X1.722 Y26.665 E18.30859
G1 X-1.722 Y23.222 E18.47260
G1 X-1.722 Y24.121 E18.50287
G1 X1.722 Y27.564 E18.66688
G1 X1.280 Y28.022 E18.68829
G1 X-1.722 Y25.020 E18.83126
G1 X-1.722 Y25.919 E18.86154
G1 X0.381 Y28.022 E18.96170
G1 X-0.518 Y28.022 E18.99197
G1 X-1.722 Y26.818 E19.04932
G1 X-1.722 Y27.717 E19.07959
G1 X-1.417 Y28.022 E19.09412
G1 Z0.350 F7800.000
M106 S173.4
M140 S50 ; wait for bed temperature to be reached
G1 Z0.650 F7800.000
G1 X2.704 Y10.996 F7800.000
G1 X2.704 Y29.004 E19.43672 F3600.000
G1 X-2.704 Y29.004 E19.53961
G1 X-2.704 Y10.996 E19.88220
G1 X2.644 Y10.996 E19.98394
G1 X3.123 Y10.577 F7800.000
G1 X3.123 Y29.423 E20.34248 F3600.000
G1 X-3.123 Y29.423 E20.46130
G1 X-3.123 Y10.577 E20.81984
G1 X3.063 Y10.577 E20.93752
G1 X2.704 Y-10.996 F7800.000
G1 X-2.704 Y-10.996 E21.04040 F3600.000
G1 X-2.704 Y-29.004 E21.38300
G1 X2.704 Y-29.004 E21.48588
G1 X2.704 Y-11.056 E21.82734
G1 X3.123 Y-10.577 F7800.000
G1 X-3.123 Y-10.577 E21.94616 F3600.000
G1 X-3.123 Y-29.423 E22.30469
G1 X3.123 Y-29.423 E22.42351
G1 X3.123 Y-10.637 E22.78091
G1 X2.900 Y-10.200 F7800.000
G1 X-3.500 Y-10.200 E22.87847 F1800.000
G1 X-3.500 Y-29.800 E23.17724
G1 X3.500 Y-29.800 E23.28394
G1 X3.500 Y29.800 E24.19245
G1 X-3.500 Y29.800 E24.29916
G1 X-3.500 Y10.200 E24.59793
G1 X2.900 Y10.200 E24.69549
G1 X2.900 Y-10.140 E25.00554
G1 X2.900 Y-10.600 F7800.000
G1 X3.200 Y-10.389 F7800.000
G1 X3.200 Y10.389 E25.40082 F1200.000
G1 X-2.457 Y11.461 F7800.000
G1 X-2.239 Y11.243 E25.40670 F1200.000
G1 X-1.645 Y11.243 E25.41804
G1 X-2.457 Y12.055 E25.43997
G1 X-2.457 Y12.650 E25.45131
G1 X-1.050 Y11.243 E25.48928
G1 X-0.456 Y11.243 E25.50062
G1 X-2.457 Y13.244 E25.55464
G1 X-2.457 Y13.838 E25.56598
G1 X0.138 Y11.243 E25.63604
G1 X0.733 Y11.243 E25.64739
G1 X-2.457 Y14.433 E25.73349
G1 X-2.457 Y15.027 E25.74483
G1 X1.327 Y11.243 E25.84698
G1 X1.922 Y11.243 E25.85833
G1 X-2.457 Y15.622 E25.97652
G1 X-2.457 Y16.216 E25.98786
G1 X2.457 Y11.302 E26.12050
G1 X2.457 Y11.897 E26.13185
G1 X-2.457 Y16.810 E26.26449
G1 X-2.457 Y17.405 E26.27583
G1 X2.457 Y12.491 E26.40847
G1 X2.457 Y13.086 E26.41982
G1 X-2.457 Y17.999 E26.55246
G1 X-2.457 Y18.593 E26.56381
G1 X2.457 Y13.680 E26.69645
G1 X2.457 Y14.274 E26.70779
G1 X-2.457 Y19.188 E26.84043
G1 X-2.457 Y19.782 E26.85178
G1 X2.457 Y14.869 E26.98442
G1 X2.457 Y15.463 E26.99576
G1 X-2.457 Y20.376 E27.12840
G1 X-2.457 Y20.971 E27.13975
G1 X2.457 Y16.057 E27.27239
G1 X2.457 Y16.652 E27.28373
G1 X-2.457 Y21.565 E27.41637
G1 X-2.457 Y22.160 E27.42772
G1 X2.457 Y17.246 E27.56036
G1 X2.457 Y17.840 E27.57170
G1 X-2.457 Y22.754 E27.70434
G1 X-2.457 Y23.348 E27.71569
G1 X2.457 Y18.435 E27.84833
G1 X2.457 Y19.029 E27.85967
G1 X-2.457 Y23.943 E27.99231
G1 X-2.457 Y24.537 E28.00366
G1 X2.457 Y19.624 E28.13630
G1 X2.457 Y20.218 E28.14764
G1 X-2.457 Y25.131 E28.28028
G1 X-2.457 Y25.726 E28.29163
G1 X2.457 Y20.812 E28.42427
G1 X2.457 Y21.407 E28.43561
G1 X-2.457 Y26.320 E28.56825
G1 X-2.457 Y26.914 E28.57960
G1 X2.457 Y22.001 E28.71224
G1 X2.457 Y22.595 E28.72358
G1 X-2.457 Y27.509 E28.85622
G1 X-2.457 Y28.103 E28.86757
G1 X2.457 Y23.190 E29.00021
G1 X2.457 Y23.784 E29.01156
G1 X-2.457 Y28.698 E29.14420
G1 X-1.922 Y28.757 E29.15447
G1 X2.457 Y24.378 E29.27267
G1 X2.457 Y24.973 E29.28401
G1 X-1.327 Y28.757 E29.38616
G1 X-0.733 Y28.757 E29.39750
G1 X2.457 Y25.567 E29.48361
G1 X2.457 Y26.162 E29.49495
G1 X-0.138 Y28.757 E29.56501
G1 X0.456 Y28.757 E29.57635
G1 X2.457 Y26.756 E29.63037
G1 X2.457 Y27.350 E29.64171
G1 X1.050 Y28.757 E29.67968
G1 X1.645 Y28.757 E29.69103
G1 X2.457 Y27.945 E29.71295
G1 X2.457 Y28.539 E29.72429
G1 X2.239 Y28.757 E29.73017
G1 X2.700 Y29.000 F7800.000
G1 X2.700 Y-11.000 F7800.000
G1 X2.239 Y-11.243 F7800.000
G1 X2.457 Y-11.461 E29.73605 F1200.000
G1 X2.457 Y-12.055 E29.74739
G1 X1.645 Y-11.243 E29.76932
G1 X1.050 Y-11.243 E29.78066
G1 X2.457 Y-12.650 E29.81863
G1 X2.457 Y-13.244 E29.82997
G1 X0.456 Y-11.243 E29.88399
G1 X-0.138 Y-11.243 E29.89533
G1 X2.457 Y-13.838 E29.96539
G1 X2.457 Y-14.433 E29.97673
G1 X-0.733 Y-11.243 E30.06284
G1 X-1.327 Y-11.243 E30.07418
G1 X2.457 Y-15.027 E30.17633
G1 X2.457 Y-15.622 E30.18768
G1 X-1.922 Y-11.243 E30.30587
G1 X-2.457 Y-11.302 E30.31615
G1 X2.457 Y-16.216 E30.44879
G1 X2.457 Y-16.810 E30.46013
G1 X-2.457 Y-11.897 E30.59277
G1 X-2.457 Y-12.491 E30.60412
G1 X2.457 Y-17.405 E30.73676
G1 X2.457 Y-17.999 E30.74810
G1 X-2.457 Y-13.086 E30.88074
G1 X-2.457 Y-13.680 E30.89209
G1 X2.457 Y-18.593 E31.02473
G1 X2.457 Y-19.188 E31.03607
G1 X-2.457 Y-14.274 E31.16871
G1 X-2.457 Y-14.869 E31.18006
G1 X2.457 Y-19.782 E31.31270
G1 X2.457 Y-20.376 E31.32404
G1 X-2.457 Y-15.463 E31.45668
G1 X-2.457 Y-16.057 E31.46803
G1 X2.457 Y-20.971 E31.60067
G1 X2.457 Y-21.565 E31.61201
G1 X-2.457 Y-16.652 E31.74465
G1 X-2.457 Y-17.246 E31.75600
G1 X2.457 Y-22.160 E31.88864
G1 X2.457 Y-22.754 E31.89998
G1 X-2.457 Y-17.840 E32.03262
G1 X-2.457 Y-18.435 E32.04397
G1 X2.457 Y-23.348 E32.17661
G1 X2.457 Y-23.943 E32.18795
G1 X-2.457 Y-19.029 E32.32059
G1 X-2.457 Y-19.624 E32.33194
G1 X2.457 Y-24.537 E32.46458
G1 X2.457 Y-25.131 E32.47593
G1 X-2.457 Y-20.218 E32.60857
G1 X-2.457 Y-20.812 E32.61991
G1 X2.457 Y-25.726 E32.75255
G1 X2.457 Y-26.320 E32.76390
G1 X-2.457 Y-21.407 E32.89654
G1 X-2.457 Y-22.001 E32.90788
G1 X2.457 Y-26.914 E33.04052
G1 X2.457 Y-27.509 E33.05187
G1 X-2.457 Y-22.595 E33.18451
G1 X-2.457 Y-23.190 E33.19585
G1 X2.457 Y-28.103 E33.32849
G1 X2.457 Y-28.698 E33.33984
G1 X-2.457 Y-23.784 E33.47248
G1 X-2.457 Y-24.378 E33.48382
G1 X1.922 Y-28.757 E33.60201
G1 X1.327 Y-28.757 E33.61336
G1 X-2.457 Y-24.973 E33.71551
G1 X-2.457 Y-25.567 E33.72685
G1 X0.733 Y-28.757 E33.81296
G1 X0.138 Y-28.757 E33.82430
G1 X-2.457 Y-26.162 E33.89436
G1 X-2.457 Y-26.756 E33.90570
G1 X-0.456 Y-28.757 E33.95972
G1 X-1.050 Y-28.757 E33.97106
G1 X-2.457 Y-27.350 E34.00903
G1 X-2.457 Y-27.945 E34.02037
G1 X-1.645 Y-28.757 E34.04230
G1 X-2.239 Y-28.757 E34.05364
G1 X-2.457 Y-28.539 E34.05952
G1 Z0.950 F7800.000
G1 E32.05952 F2400.00000
G92 E0
G1 X2.704 Y10.996 F7800.000
G1 E2.00000 F2400.00000
G1 X2.704 Y29.004 E2.34260 F3600.000
G1 X-2.704 Y29.004 E2.44548
G1 X-2.704 Y10.996 E2.78808
G1 X2.644 Y10.996 E2.88982
G1 X3.123 Y10.577 F7800.000
G1 X3.123 Y29.423 E3.24836 F3600.000
G1 X-3.123 Y29.423 E3.36718
G1 X-3.123 Y10.577 E3.72571
G1 X3.063 Y10.577 E3.84339
G1 X2.704 Y-10.996 F7800.000
G1 X-2.704 Y-10.996 E3.94628 F3600.000
G1 X-2.704 Y-29.004 E4.28887
G1 X2.704 Y-29.004 E4.39176
G1 X2.704 Y-11.056 E4.73321
G1 X3.123 Y-10.577 F7800.000
G1 X-3.123 Y-10.577 E4.85203 F3600.000
G1 X-3.123 Y-29.423 E5.21057
G1 X3.123 Y-29.423 E5.32939
G1 X3.123 Y-10.637 E5.68678
G1 X2.900 Y-10.200 F7800.000
G1 X-3.500 Y-10.200 E5.78434 F1800.000
G1 X-3.500 Y-29.800 E6.08311
G1 X3.500 Y-29.800 E6.18982
G1 X3.500 Y29.800 E7.09833
G1 X-3.500 Y29.800 E7.20503
G1 X-3.500 Y10.200 E7.50380
G1 X2.900 Y10.200 E7.60136
G1 X2.900 Y-10.140 E7.91141
G1 X2.900 Y-10.600 F7800.000
G1 X3.200 Y-10.389 F7800.000
G1 X3.200 Y10.389 E8.30670 F1200.000
G1 X2.457 Y11.461 F7800.000
G1 X2.239 Y11.243 E8.31257 F1200.000
G1 X1.645 Y11.243 E8.32392
G1 X2.457 Y12.055 E8.34584
G1 X2.457 Y12.650 E8.35719
G1 X1.050 Y11.243 E8.39515
G1 X0.456 Y11.243 E8.40650
G1 X2.457 Y13.244 E8.46051
G1 X2.457 Y13.838 E8.47186
G1 X-0.138 Y11.243 E8.54192
G1 X-0.733 Y11.243 E8.55326
G1 X2.457 Y14.433 E8.63936
G1 X2.457 Y15.027 E8.65071
G1 X-1.327 Y11.243 E8.75286
G1 X-1.922 Y11.243 E8.76420
G1 X2.457 Y15.622 E8.88239
G1 X2.457 Y16.216 E8.89374
G1 X-2.457 Y11.302 E9.02638
G1 X-2.457 Y11.897 E9.03773
G1 X2.457 Y16.810 E9.17036
G1 X2.457 Y17.405 E9.18171
G1 X-2.457 Y12.491 E9.31435
G1 X-2.457 Y13.086 E9.32570
G1 X2.457 Y17.999 E9.45834
G1 X2.457 Y18.593 E9.46968
G1 X-2.457 Y13.680 E9.60232
G1 X-2.457 Y14.274 E9.61367
G1 X2.457 Y19.188 E9.74631
G1 X2.457 Y19.782 E9.75765
G1 X-2.457 Y14.869 E9.89029
G1 X-2.457 Y15.463 E9.90164
G1 X2.457 Y20.376 E10.03428
G1 X2.457 Y20.971 E10.04562
G1 X-2.457 Y16.057 E10.17826
G1 X-2.457 Y16.652 E10.18961
G1 X2.457 Y21.565 E10.32225
G1 X2.457 Y22.160 E10.33359
G1 X-2.457 Y17.246 E10.46623
G1 X-2.457 Y17.840 E10.47758
G1 X2.457 Y22.754 E10.61022
G1 X2.457 Y23.348 E10.62156
G1 X-2.457 Y18.435 E10.75420
G1 X-2.457 Y19.029 E10.76555
G1 X2.457 Y23.943 E10.89819
G1 X2.457 Y24.537 E10.90953
G1 X-2.457 Y19.624 E11.04217
G1 X-2.457 Y20.218 E11.05352
G1 X2.457 Y25.131 E11.18616
G1 X2.457 Y25.726 E11.19750
G1 X-2.457 Y20.812 E11.33014
G1 X-2.457 Y21.407 E11.34149
G1 X2.457 Y26.320 E11.47413
G1 X2.457 Y26.914 E11.48548
G1 X-2.457 Y22.001 E11.61812
G1 X-2.457 Y22.595 E11.62946
G1 X2.457 Y27.509 E11.76210
G1 X2.457 Y28.103 E11.77345
G1 X-2.457 Y23.190 E11.90609
G1 X-2.457 Y23.784 E11.91743
G1 X2.457 Y28.698 E12.05007
G1 X1.922 Y28.757 E12.06035
G1 X-2.457 Y24.378 E12.17854
G1 X-2.457 Y24.973 E12.18989
G1 X1.327 Y28.757 E12.29203
G1 X0.733 Y28.757 E12.30338
G1 X-2.457 Y25.567 E12.38948
G1 X-2.457 Y26.162 E12.40083
G1 X0.138 Y28.757 E12.47089
G1 X-0.456 Y28.757 E12.48223
G1 X-2.457 Y26.756 E12.53624
G1 X-2.457 Y27.350 E12.54759
G1 X-1.050 Y28.757 E12.58556
G1 X-1.645 Y28.757 E12.59690
G1 X-2.457 Y27.945 E12.61882
G1 X-2.457 Y28.539 E12.63017
G1 X-2.239 Y28.757 E12.63605
G1 E10.63605 F2400.00000
G92 E0
G1 X-2.700 Y29.000 F7800.000
G1 X-2.700 Y-11.000 F7800.000
G1 X-2.239 Y-11.243 F7800.000
G1 E2.00000 F2400.00000
G1 X-2.457 Y-11.461 E2.00588 F1200.000
G1 X-2.457 Y-12.055 E2.01722
G1 X-1.645 Y-11.243 E2.03914
G1 X-1.050 Y-11.243 E2.05049
G1 X-2.457 Y-12.650 E2.08846
G1 X-2.457 Y-13.244 E2.09980
G1 X-0.456 Y-11.243 E2.15382
G1 X0.138 Y-11.243 E2.16516
G1 X-2.457 Y-13.838 E2.23522
G1 X-2.457 Y-14.433 E2.24656
G1 X0.733 Y-11.243 E2.33267
G1 X1.327 Y-11.243 E2.34401
G1 X-2.457 Y-15.027 E2.44616
G1 X-2.457 Y-15.622 E2.45750
G1 X1.922 Y-11.243 E2.57570
G1 X2.457 Y-11.302 E2.58597
G1 X-2.457 Y-16.216 E2.71861
G1 X-2.457 Y-16.810 E2.72996
G1 X2.457 Y-11.897 E2.86260
G1 X2.457 Y-12.491 E2.87395
G1 X-2.457 Y-17.405 E3.00659
G1 X-2.457 Y-17.999 E3.01793
G1 X2.457 Y-13.086 E3.15057
G1 X2.457 Y-13.680 E3.16192
G1 X-2.457 Y-18.593 E3.29456
G1 X-2.457 Y-19.188 E3.30590
G1 X2.457 Y-14.274 E3.43854
G1 X2.457 Y-14.869 E3.44989
G1 X-2.457 Y-19.782 E3.58253
G1 X-2.457 Y-20.376 E3.59387
G1 X2.457 Y-15.463 E3.72651
G1 X2.457 Y-16.057 E3.73786
G1 X-2.457 Y-20.971 E3.87050
G1 X-2.457 Y-21.565 E3.88184
G1 X2.457 Y-16.652 E4.01448
G1 X2.457 Y-17.246 E4.02583
G1 X-2.457 Y-22.160 E4.15847
G1 X-2.457 Y-22.754 E4.16981
G1 X2.457 Y-17.840 E4.30245
G1 X2.457 Y-18.435 E4.31380
G1 X-2.457 Y-23.348 E4.44644
G1 X-2.457 Y-23.943 E4.45778
G1 X2.457 Y-19.029 E4.59042
G1 X2.457 Y-19.624 E4.60177
G1 X-2.457 Y-24.537 E4.73441
G1 X-2.457 Y-25.131 E4.74575
G1 X2.457 Y-20.218 E4.87839
G1 X2.457 Y-20.812 E4.88974
G1 X-2.457 Y-25.726 E5.02238
G1 X-2.457 Y-26.320 E5.03373
G1 X2.457 Y-21.407 E5.16636
G1 X2.457 Y-22.001 E5.17771
G1 X-2.457 Y-26.914 E5.31035
G1 X-2.457 Y-27.509 E5.32170
G1 X2.457 Y-22.595 E5.45434
G1 X2.457 Y-23.190 E5.46568
G1 X-2.457 Y-28.103 E5.59832
G1 X-2.457 Y-28.698 E5.60967
G1 X2.457 Y-23.784 E5.74231
G1 X2.457 Y-24.378 E5.75365
G1 X-1.922 Y-28.757 E5.87184
G1 X-1.327 Y-28.757 E5.88319
G1 X2.457 Y-24.973 E5.98534
G1 X2.457 Y-25.567 E5.99668
G1 X-0.733 Y-28.757 E6.08278
G1 X-0.138 Y-28.757 E6.09413
G1 X2.457 Y-26.162 E6.16419
G1 X2.457 Y-26.756 E6.17553
G1 X0.456 Y-28.757 E6.22955
