; generated by Slic3r 1.2.9 on 2017-08-01 at 13:57:14

; external perimeters extrusion width = 0.40mm
; perimeters extrusion width = 0.48mm
; infill extrusion width = 0.48mm
; solid infill extrusion width = 0.48mm
; top infill extrusion width = 0.48mm
; support material extrusion width = 0.40mm

M107
M190 S70 ; set bed temperature
M104 S210 ; set temperature
G28 ; home all axes
G1 Z5 F5000 ; lift nozzle

M109 S210 ; wait for temperature to be reached
G21 ; set units to millimeters
G90 ; use absolute coordinates
M82 ; use absolute distances for extrusion
G92 E0
G1 Z0.350 F7800.000
G1 E-2.00000 F2400.00000
G92 E0
G1 X0.000 Y13.375 F7800.000
G1 E2.00000 F2400.00000
G1 X-22.839 Y13.375 E2.75626 F2340.000
G1 X-25.098 Y12.978 E2.83220
G1 X-27.135 Y11.793 E2.91023
G1 X-34.296 Y5.693 E3.22171
G1 X-35.758 Y3.926 E3.29765
G1 X-36.625 Y0.650 E3.40986
G1 X-36.625 Y-6.750 E3.65489
G1 X-36.228 Y-9.009 E3.73083
G1 X-35.085 Y-10.997 E3.80677
G1 X-33.332 Y-12.476 E3.88271
G1 X-31.180 Y-13.269 E3.95865
G1 X-30.000 Y-13.375 E3.99787
G1 X10.383 Y-13.375 E5.33504
G1 X30.002 Y-13.369 E5.98466 F2340.000
G1 X32.261 Y-12.971 E6.06060
G1 X34.249 Y-11.827 E6.13654
G1 X35.727 Y-10.074 E6.21248
G1 X36.519 Y-7.921 E6.28842
G1 X36.625 Y-6.744 E6.32758
G1 X36.625 Y0.650 E6.57240
G1 X36.228 Y2.909 E6.64834
G1 X34.296 Y5.693 E6.76055
G1 X27.135 Y11.793 E7.07202
G1 X25.159 Y12.956 E7.14796
G1 X22.839 Y13.375 E7.22600
G1 X0.060 Y13.375 E7.98027
G1 E5.98027 F2400.00000
G92 E0
G1 X-23.277 Y4.050 F7800.000
G1 E2.00000 F2400.00000
G1 X-21.600 Y4.050 E2.05554 F585.000
G1 X-21.600 Y5.150 E2.09198
G1 X-22.177 Y5.150 E2.11108
G1 X-23.235 Y4.092 E2.16063
G1 X-21.443 Y3.450 F7800.000
G1 X-21.887 Y-3.050 F7800.000
G1 X-26.300 Y-3.050 F7800.000
G1 X-29.000 Y-0.350 F7800.000
G1 X-28.400 Y-0.950 F7800.000
G1 X-28.400 Y-5.150 E2.29971 F2340.000
G1 X-11.600 Y-5.148 E2.85600
G1 X-11.600 Y-0.950 E2.99502
G1 X-28.340 Y-0.950 E3.54933
G1 X-21.912 Y-0.325 F7800.000
G1 X-29.025 Y-0.325 E3.78487 F2340.000
G1 X-29.025 Y-5.775 E3.96533
G1 X-10.975 Y-5.773 E4.56301
G1 X-10.975 Y-0.325 E4.74342
G1 X-20.975 Y-0.325 E5.07454
G1 X-20.975 Y5.775 E5.27652
G1 X-22.436 Y5.775 E5.32488
G1 X-24.786 Y3.425 E5.43494
G1 X-21.912 Y3.425 E5.53010
G1 X-21.912 Y-0.265 E5.65228
G1 X-22.537 Y0.300 F7800.000
G1 X-29.650 Y0.300 E5.88782 F1170.000
G1 X-29.650 Y-6.400 E6.10967
G1 X-10.350 Y-6.398 E6.74873
G1 X-10.350 Y0.300 E6.97051
G1 X-20.350 Y0.300 E7.30163
G1 X-20.350 Y6.400 E7.50361
G1 X-22.694 Y6.400 E7.58124
G1 X-25.150 Y3.944 E7.69623
G1 X-25.150 Y2.800 E7.73412
G1 X-22.537 Y2.800 E7.82066
G1 X-22.537 Y0.360 E7.90145
G1 X-22.537 Y-0.100 F7800.000
G1 X-10.000 Y-6.249 F7800.000
G1 X-5.276 Y-6.249 E8.05787 F1170.000
G1 X-3.469 Y-5.772 E8.11975
G1 E6.11975 F2400.00000
G92 E0
G1 X-11.000 Y-5.750 F7800.000
G1 X-11.000 Y-5.750 F7800.000
G1 X-4.750 Y-3.750 F7800.000
G1 E2.00000 F2400.00000
G1 X-4.750 Y-6.110 E2.07814 F1170.000
G1 X-4.224 Y-6.249 E2.09616
G1 X4.224 Y-6.248 E2.37589
G1 X6.031 Y-5.771 E2.43777
G1 E0.43777 F2400.00000
G92 E0
G1 X11.000 Y-5.750 F7800.000
G1 X11.000 Y-5.750 F7800.000
G1 X4.750 Y-3.750 F7800.000
G1 E2.00000 F2400.00000
G1 X4.750 Y-6.109 E2.07812 F1170.000
G1 X5.276 Y-6.248 E2.09614
G1 X10.000 Y-6.248 E2.25256
G1 X11.000 Y-0.350 F7800.000
G1 X21.443 Y-3.030 F7800.000
G1 X21.443 Y-0.350 F7800.000
G1 X21.443 Y3.450 F7800.000
G1 X21.887 Y4.337 F7800.000
G1 X21.600 Y4.050 F7800.000
G1 X23.277 Y4.050 E2.30810 F585.000
G1 X22.177 Y5.150 E2.35963
G1 X21.600 Y5.150 E2.37873
G1 X21.600 Y4.110 E2.41318
G1 X21.443 Y-0.350 F7800.000
G1 X21.887 Y-3.048 F7800.000
G1 X26.303 Y-3.047 F7800.000
G1 X29.000 Y-0.350 F7800.000
G1 X28.400 Y-0.950 F7800.000
G1 X11.600 Y-0.950 E2.96948 F2340.000
G1 X11.600 Y-5.146 E3.10842
G1 X28.400 Y-5.144 E3.66472
G1 X28.400 Y-1.010 E3.80161
G1 X21.912 Y-0.325 F7800.000
G1 X21.912 Y3.425 E3.92578 F2340.000
G1 X24.786 Y3.425 E4.02094
G1 X22.436 Y5.775 E4.13099
G1 X20.975 Y5.775 E4.17936
G1 X20.975 Y-0.325 E4.38134
G1 X10.975 Y-0.325 E4.71246
G1 X10.975 Y-5.771 E4.89279
G1 X29.025 Y-5.769 E5.49047
G1 X29.025 Y-0.325 E5.67073
G1 X21.972 Y-0.325 E5.90428
G1 X22.537 Y0.300 F7800.000
G1 X22.537 Y2.800 E5.98706 F1170.000
G1 X25.150 Y2.800 E6.07360
G1 X25.150 Y3.944 E6.11149
G1 X22.694 Y6.400 E6.22648
G1 X20.350 Y6.400 E6.30411
G1 X20.350 Y0.300 E6.50609
G1 X10.350 Y0.300 E6.83721
G1 X10.350 Y-6.396 E7.05892
G1 X29.650 Y-6.394 E7.69798
G1 X29.650 Y0.300 E7.91963
G1 X22.597 Y0.300 E8.15318
G1 X22.137 Y0.300 F7800.000
G1 X21.443 Y-0.637 F7800.000
G1 X21.443 Y3.737 E8.29803 F780.000
G1 X21.443 Y-0.350 F7800.000
G1 X21.000 Y-3.048 F7800.000
G1 X13.699 Y-3.049 F7800.000
G1 X11.000 Y-0.350 F7800.000
G1 X12.283 Y-1.328 F7800.000
G1 X11.978 Y-1.633 E8.31256 F780.000
G1 X11.978 Y-2.532 E8.34281
G1 X13.182 Y-1.328 E8.40013
G1 X14.081 Y-1.328 E8.43038
G1 X11.978 Y-3.431 E8.53048
G1 X11.978 Y-4.329 E8.56073
G1 X14.979 Y-1.328 E8.70362
G1 X15.878 Y-1.328 E8.73387
G1 X12.439 Y-4.767 E8.89761
G1 X13.338 Y-4.767 E8.92787
G1 X16.776 Y-1.328 E9.09161
G1 X17.675 Y-1.328 E9.12186
G1 X14.236 Y-4.767 E9.28559
G1 X15.135 Y-4.767 E9.31585
G1 X18.574 Y-1.328 E9.47958
G1 X19.472 Y-1.328 E9.50983
G1 X16.034 Y-4.767 E9.67355
G1 X16.932 Y-4.767 E9.70381
G1 X20.371 Y-1.328 E9.86753
G1 X21.269 Y-1.328 E9.89778
G1 X17.831 Y-4.767 E10.06150
G1 X18.730 Y-4.767 E10.09176
G1 X22.168 Y-1.328 E10.25546
G1 X23.066 Y-1.328 E10.28572
G1 X19.628 Y-4.766 E10.44942
G1 X20.527 Y-4.766 E10.47968
G1 X23.965 Y-1.328 E10.64338
G1 X24.864 Y-1.328 E10.67364
G1 X21.426 Y-4.766 E10.83733
G1 X22.324 Y-4.766 E10.86759
G1 X25.762 Y-1.328 E11.03128
G1 X26.661 Y-1.328 E11.06153
G1 X23.223 Y-4.766 E11.22522
G1 X24.122 Y-4.766 E11.25548
G1 X27.559 Y-1.328 E11.41916
G1 X28.022 Y-1.765 E11.44056
G1 X25.020 Y-4.766 E11.58346
G1 X25.919 Y-4.766 E11.61372
G1 X28.022 Y-2.663 E11.71383
G1 X28.022 Y-3.562 E11.74408
G1 X26.818 Y-4.766 E11.80140
G1 X27.717 Y-4.766 E11.83166
G1 X28.022 Y-4.460 E11.84619
G1 E9.84619 F2400.00000
G92 E0
G1 X29.000 Y-5.744 F7800.000
G1 X-11.000 Y-5.750 F7800.000
G1 X-11.978 Y-4.465 F7800.000
G1 E2.00000 F2400.00000
G1 X-12.283 Y-4.770 E2.01453 F780.000
G1 X-13.182 Y-4.770 E2.04480
G1 X-11.978 Y-3.566 E2.10214
G1 X-11.978 Y-2.667 E2.13241
G1 X-14.081 Y-4.770 E2.23256
G1 X-14.980 Y-4.770 E2.26283
G1 X-11.978 Y-1.768 E2.40579
G1 X-12.437 Y-1.328 E2.42720
G1 X-15.879 Y-4.770 E2.59112
G1 X-16.778 Y-4.770 E2.62139
G1 X-13.336 Y-1.328 E2.78531
G1 X-14.235 Y-1.328 E2.81558
G1 X-17.677 Y-4.770 E2.97950
G1 X-18.576 Y-4.770 E3.00977
G1 X-15.134 Y-1.328 E3.17370
G1 X-16.032 Y-1.328 E3.20397
G1 X-19.475 Y-4.771 E3.36791
G1 X-20.373 Y-4.771 E3.39818
G1 X-16.931 Y-1.328 E3.56212
G1 X-17.830 Y-1.328 E3.59238
G1 X-21.272 Y-4.771 E3.75633
G1 X-22.171 Y-4.771 E3.78660
G1 X-18.729 Y-1.328 E3.95055
G1 X-19.627 Y-1.328 E3.98082
G1 X-23.070 Y-4.771 E4.14477
G1 X-23.969 Y-4.771 E4.17504
G1 X-20.526 Y-1.328 E4.33900
G1 X-21.425 Y-1.328 E4.36926
G1 X-24.868 Y-4.771 E4.53323
G1 X-25.767 Y-4.771 E4.56350
G1 X-22.324 Y-1.328 E4.72746
G1 X-23.223 Y-1.328 E4.75773
G1 X-26.666 Y-4.771 E4.92170
G1 X-27.564 Y-4.771 E4.95197
G1 X-24.121 Y-1.328 E5.11595
G1 X-25.020 Y-1.328 E5.14622
G1 X-28.022 Y-4.330 E5.28916
G1 X-28.022 Y-3.431 E5.31943
G1 X-25.919 Y-1.328 E5.41957
G1 X-26.818 Y-1.328 E5.44984
G1 X-28.022 Y-2.532 E5.50717
G1 X-28.022 Y-1.633 E5.53744
G1 X-27.717 Y-1.328 E5.55197
G1 X-21.443 Y-0.637 F7800.000
G1 X-21.443 Y3.737 E5.69682 F780.000
G1 Z0.350 F7800.000
M106 S160.65
M140 S50 ; wait for bed temperature to be reached
G1 Z0.650 F7800.000
G1 X-20.996 Y-0.346 F7800.000
G1 X-20.996 Y5.754 E5.81288 F3600.000
G1 X-22.427 Y5.754 E5.84009
G1 X-24.504 Y3.677 E5.89598
G1 X-24.504 Y3.446 E5.90037
G1 X-21.890 Y3.446 E5.95009
G1 X-21.890 Y-0.346 E6.02223
G1 X-29.004 Y-0.346 E6.15757
G1 X-29.004 Y-5.754 E6.26045
G1 X-10.996 Y-5.752 E6.60304
G1 X-10.996 Y-0.346 E6.70589
G1 X-20.936 Y-0.346 E6.89500
G1 X-20.577 Y0.073 F7800.000
G1 X-20.577 Y6.173 E7.01105 F3600.000
G1 X-22.600 Y6.173 E7.04954
G1 X-24.923 Y3.850 E7.11202
G1 X-24.923 Y3.027 E7.12768
G1 X-22.309 Y3.027 E7.17740
G1 X-22.309 Y0.073 E7.23361
G1 X-29.423 Y0.073 E7.36894
G1 X-29.423 Y-6.173 E7.48776
G1 X-10.577 Y-6.171 E7.84630
G1 X-10.577 Y0.073 E7.96508
G1 X-20.517 Y0.073 E8.15419
G1 E6.15419 F2400.00000
G92 E0
G1 X-11.000 Y-0.350 F7800.000
G1 X-11.000 Y-0.350 F7800.000
G1 X-4.886 Y-4.327 F7800.000
G1 E2.00000 F2400.00000
G1 X-4.886 Y-6.170 E2.03506 F900.000
G1 X-4.614 Y-6.170 E2.04025
G1 X-4.614 Y-4.327 E2.07531
G1 X-4.826 Y-4.327 E2.07936
G1 E0.07936 F2400.00000
G92 E0
G1 X-11.000 Y-5.750 F7800.000
G1 X-11.000 Y-5.750 F7800.000
G1 X4.614 Y-4.327 F7800.000
G1 E2.00000 F2400.00000
G1 X4.614 Y-6.169 E2.03504 F900.000
G1 X4.886 Y-6.169 E2.04023
G1 X4.886 Y-4.327 E2.07528
G1 X4.674 Y-4.327 E2.07932
G1 E0.07932 F2400.00000
G92 E0
G1 X11.000 Y-0.350 F7800.000
G1 X11.000 Y-0.350 F7800.000
G1 X20.996 Y-0.346 F7800.000
G1 E2.00000 F2400.00000
G1 X10.996 Y-0.346 E2.19025 F3600.000
G1 X10.996 Y-5.750 E2.29305
G1 X29.004 Y-5.748 E2.63565
G1 X29.004 Y-0.346 E2.73842
G1 X21.890 Y-0.346 E2.87375
G1 X21.890 Y3.446 E2.94590
G1 X24.504 Y3.446 E2.99562
G1 X24.504 Y3.677 E3.00001
G1 X22.427 Y5.754 E3.05589
G1 X20.996 Y5.754 E3.08311
G1 X20.996 Y-0.286 E3.19802
G1 X20.577 Y0.073 F7800.000
G1 X10.577 Y0.073 E3.38827 F3600.000
G1 X10.577 Y-6.169 E3.50701
G1 X29.423 Y-6.167 E3.86555
G1 X29.423 Y0.073 E3.98426
G1 X22.309 Y0.073 E4.11959
G1 X22.309 Y3.027 E4.17580
G1 X24.923 Y3.027 E4.22552
G1 X24.923 Y3.850 E4.24117
G1 X22.600 Y6.173 E4.30366
G1 X20.577 Y6.173 E4.34215
G1 X20.577 Y0.133 E4.45706
G1 X20.200 Y0.450 F7800.000
G1 X10.200 Y0.450 E4.60949 F1800.000
G1 X10.200 Y-5.950 E4.70705
G1 X5.264 Y-5.950 E4.78230
G1 X5.264 Y-3.950 E4.81279
G1 X4.236 Y-3.950 E4.82844
G1 X4.236 Y-5.950 E4.85893
G1 X-4.236 Y-5.950 E4.98809
G1 X-4.236 Y-3.950 E5.01857
G1 X-5.264 Y-3.950 E5.03423
G1 X-5.264 Y-5.950 E5.06472
G1 X-10.200 Y-5.950 E5.13996
G1 X-10.200 Y0.450 E5.23752
G1 X-20.200 Y0.450 E5.38996
G1 X-20.200 Y6.550 E5.48294
G1 X-22.756 Y6.550 E5.52191
G1 X-25.300 Y4.006 E5.57674
G1 X-25.300 Y2.650 E5.59742
G1 X-22.687 Y2.650 E5.63726
G1 X-22.687 Y0.450 E5.67079
G1 X-29.800 Y0.450 E5.77923
G1 X-29.800 Y-6.550 E5.88593
G1 X29.800 Y-6.544 E6.79444
G1 X29.800 Y0.450 E6.90105
G1 X22.687 Y0.450 E7.00948
G1 X22.687 Y2.650 E7.04302
G1 X25.300 Y2.650 E7.08285
G1 X25.300 Y4.006 E7.10353
G1 X22.756 Y6.550 E7.15836
G1 X20.200 Y6.550 E7.19733
G1 X20.200 Y0.510 E7.28940
G1 X20.200 Y0.050 F7800.000
G1 X21.443 Y-0.556 F7800.000
G1 X21.443 Y3.656 E7.46195 F1200.000
G1 X21.461 Y3.903 F7800.000
G1 X21.243 Y4.120 E7.46957 F1200.000
G1 X22.442 Y3.693 F7800.000
G1 X21.243 Y4.892 E7.51154 F1200.000
G1 X21.399 Y5.507 E7.52726
G1 X23.213 Y3.693 E7.59077
G1 X23.964 Y3.713 E7.60938
G1 X22.170 Y5.507 E7.67219
G1 X21.443 Y3.450 F7800.000
G1 X21.443 Y-3.030 F7800.000
G1 X26.302 Y-3.048 F7800.000
G1 X29.000 Y-0.350 F7800.000
G1 X28.539 Y-0.593 F7800.000
G1 X28.757 Y-0.811 E7.67807 F1200.000
G1 X28.757 Y-1.405 E7.68941
G1 X27.945 Y-0.593 E7.71132
G1 X27.350 Y-0.593 E7.72266
G1 X28.757 Y-2.000 E7.76062
G1 X28.757 Y-2.594 E7.77196
G1 X26.756 Y-0.593 E7.82595
G1 X26.162 Y-0.593 E7.83729
G1 X28.757 Y-3.188 E7.90732
G1 X28.757 Y-3.782 E7.91866
G1 X25.568 Y-0.593 E8.00473
G1 X24.973 Y-0.593 E8.01608
G1 X28.757 Y-4.377 E8.11819
G1 X28.757 Y-4.971 E8.12953
G1 X24.379 Y-0.593 E8.24767
G1 X23.785 Y-0.593 E8.25902
G1 X28.693 Y-5.501 E8.39147
G1 X28.098 Y-5.501 E8.40281
G1 X23.191 Y-0.593 E8.53527
G1 X22.596 Y-0.593 E8.54661
G1 X27.504 Y-5.501 E8.67907
G1 X26.910 Y-5.501 E8.69041
G1 X22.174 Y-0.765 E8.81824
G1 X21.617 Y-0.803 E8.82888
G1 X26.316 Y-5.501 E8.95569
G1 X25.722 Y-5.501 E8.96703
G1 X21.023 Y-0.803 E9.09384
G1 X20.219 Y-0.593 E9.10969
G1 X25.127 Y-5.501 E9.24215
G1 X24.533 Y-5.501 E9.25349
G1 X19.625 Y-0.593 E9.38596
G1 X19.031 Y-0.593 E9.39730
G1 X23.939 Y-5.501 E9.52977
G1 X23.345 Y-5.501 E9.54111
G1 X18.437 Y-0.593 E9.67358
G1 X17.842 Y-0.593 E9.68492
G1 X22.751 Y-5.501 E9.81739
G1 X22.156 Y-5.501 E9.82873
G1 X17.248 Y-0.593 E9.96120
G1 X16.654 Y-0.593 E9.97254
G1 X21.562 Y-5.502 E10.10502
G1 X20.968 Y-5.502 E10.11636
G1 X16.060 Y-0.593 E10.24883
G1 X15.465 Y-0.593 E10.26017
G1 X20.374 Y-5.502 E10.39265
G1 X19.780 Y-5.502 E10.40399
G1 X14.871 Y-0.593 E10.53647
G1 X14.277 Y-0.593 E10.54781
G1 X19.185 Y-5.502 E10.68029
G1 X18.591 Y-5.502 E10.69163
G1 X13.683 Y-0.593 E10.82412
G1 X13.088 Y-0.593 E10.83546
G1 X17.997 Y-5.502 E10.96794
G1 X17.403 Y-5.502 E10.97928
G1 X12.494 Y-0.593 E11.11177
G1 X11.900 Y-0.593 E11.12311
G1 X16.809 Y-5.502 E11.25559
G1 X16.215 Y-5.502 E11.26693
G1 X11.306 Y-0.593 E11.39942
G1 X11.243 Y-1.125 E11.40964
G1 X15.620 Y-5.502 E11.52778
G1 X15.026 Y-5.502 E11.53912
G1 X11.243 Y-1.719 E11.64122
G1 X11.243 Y-2.314 E11.65256
G1 X14.432 Y-5.502 E11.73862
G1 X13.838 Y-5.502 E11.74996
G1 X11.243 Y-2.908 E11.81999
G1 X11.243 Y-3.502 E11.83133
G1 X13.244 Y-5.502 E11.88532
G1 X12.649 Y-5.502 E11.89666
G1 X11.243 Y-4.096 E11.93461
G1 X11.243 Y-4.691 E11.94595
G1 X12.055 Y-5.503 E11.96786
G1 X11.461 Y-5.503 E11.97920
G1 X11.243 Y-5.285 E11.98508
G1 X10.389 Y-6.248 F7800.000
G1 X5.075 Y-6.248 E12.08617 F1200.000
G1 X4.425 Y-6.248 F7800.000
G1 X-4.425 Y-6.249 E12.25454 F1200.000
G1 X-5.075 Y-6.249 F7800.000
G1 X-10.389 Y-6.249 E12.35563 F1200.000
G1 X-11.461 Y-0.593 F7800.000
G1 X-11.243 Y-0.811 E12.36151 F1200.000
G1 X-11.243 Y-1.405 E12.37285
G1 X-12.055 Y-0.593 E12.39478
G1 X-12.650 Y-0.593 E12.40612
G1 X-11.243 Y-2.000 E12.44409
G1 X-11.243 Y-2.594 E12.45543
G1 X-13.244 Y-0.593 E12.50944
G1 X-13.838 Y-0.593 E12.52079
G1 X-11.243 Y-3.188 E12.59085
G1 X-11.243 Y-3.783 E12.60219
G1 X-14.433 Y-0.593 E12.68829
G1 X-15.027 Y-0.593 E12.69964
G1 X-11.243 Y-4.377 E12.80178
G1 X-11.243 Y-4.972 E12.81313
G1 X-15.622 Y-0.593 E12.93132
G1 X-16.216 Y-0.593 E12.94266
G1 X-11.304 Y-5.505 E13.07525
G1 X-11.899 Y-5.505 E13.08659
G1 X-16.810 Y-0.593 E13.21918
G1 X-17.405 Y-0.593 E13.23053
G1 X-12.493 Y-5.505 E13.36312
G1 X-13.087 Y-5.505 E13.37446
G1 X-17.999 Y-0.593 E13.50705
G1 X-18.593 Y-0.593 E13.51840
G1 X-13.682 Y-5.505 E13.65099
G1 X-14.276 Y-5.505 E13.66234
G1 X-19.188 Y-0.593 E13.79493
G1 X-19.782 Y-0.593 E13.80628
G1 X-14.870 Y-5.505 E13.93887
G1 X-15.464 Y-5.505 E13.95022
G1 X-20.376 Y-0.593 E14.08282
G1 X-20.761 Y-0.803 E14.09118
G1 X-16.059 Y-5.505 E14.21813
G1 X-16.653 Y-5.505 E14.22947
G1 X-21.356 Y-0.803 E14.35642
G1 X-21.950 Y-0.803 E14.36777
G1 X-17.247 Y-5.505 E14.49472
G1 X-17.842 Y-5.505 E14.50606
G1 X-22.754 Y-0.593 E14.63866
G1 X-23.348 Y-0.593 E14.65001
G1 X-18.436 Y-5.506 E14.78262
G1 X-19.030 Y-5.506 E14.79396
G1 X-23.943 Y-0.593 E14.92657
G1 X-24.537 Y-0.593 E14.93791
G1 X-19.625 Y-5.506 E15.07052
G1 X-20.219 Y-5.506 E15.08187
G1 X-25.131 Y-0.593 E15.21448
G1 X-25.726 Y-0.593 E15.22582
G1 X-20.813 Y-5.506 E15.35844
G1 X-21.407 Y-5.506 E15.36978
G1 X-26.320 Y-0.593 E15.50239
G1 X-26.914 Y-0.593 E15.51374
G1 X-22.002 Y-5.506 E15.64636
G1 X-22.596 Y-5.506 E15.65770
G1 X-27.509 Y-0.593 E15.79032
G1 X-28.103 Y-0.593 E15.80166
G1 X-23.190 Y-5.506 E15.93428
G1 X-23.785 Y-5.506 E15.94563
G1 X-28.697 Y-0.593 E16.07825
G1 X-28.757 Y-1.128 E16.08852
G1 X-24.379 Y-5.506 E16.20670
G1 X-24.973 Y-5.506 E16.21805
G1 X-28.757 Y-1.723 E16.32018
G1 X-28.757 Y-2.317 E16.33153
G1 X-25.567 Y-5.506 E16.41762
G1 X-26.162 Y-5.506 E16.42896
G1 X-28.757 Y-2.911 E16.49901
G1 X-28.757 Y-3.506 E16.51036
G1 X-26.756 Y-5.506 E16.56436
G1 X-27.350 Y-5.506 E16.57571
G1 X-28.757 Y-4.100 E16.61367
G1 X-28.757 Y-4.695 E16.62502
G1 X-27.945 Y-5.507 E16.64694
G1 X-28.539 Y-5.507 E16.65828
G1 X-28.757 Y-5.289 E16.66416
G1 X-21.443 Y-0.556 F7800.000
G1 X-21.443 Y3.656 E16.83671 F1200.000
G1 X-21.461 Y5.507 F7800.000
G1 X-21.243 Y5.289 E16.84349 F1200.000
G1 X-21.243 Y4.603 E16.85862
G1 X-22.147 Y5.507 E16.88681
G1 X-22.591 Y5.264 E16.89796
G1 X-21.257 Y3.929 E16.93956
G1 X-21.916 Y3.903 E16.95412
G1 X-22.934 Y4.921 E16.98585
G1 X-23.277 Y4.577 E16.99655
G1 X-22.393 Y3.693 E17.02411
G1 X-23.080 Y3.693 E17.03925
G1 X-23.621 Y4.234 E17.05611
G1 X-23.964 Y3.891 E17.06681
G1 X-23.766 Y3.693 E17.07297
G1 Z0.950 F7800.000
G1 E15.07297 F2400.00000
G92 E0
