; generated by Slic3r 1.2.9 on 2015-12-30 at 09:32:23

; external perimeters extrusion width = 0.40mm
; perimeters extrusion width = 0.67mm
; infill extrusion width = 0.67mm
; solid infill extrusion width = 0.67mm
; top infill extrusion width = 0.67mm
; support material extrusion width = 0.40mm

M107
M190 S70 ; set bed temperature
M104 S205 ; set temperature
G28 ; home all axes
G1 Z5 F5000 ; lift nozzle

M109 S205 ; wait for temperature to be reached
G21 ; set units to millimeters
G90 ; use absolute coordinates
M82 ; use absolute distances for extrusion
G92 E0
G1 Z0.350 F7800.000
G1 E-2.00000 F2400.00000
G92 E0
G1 X50.737 Y-0.810 F7800.000
G1 E2.00000 F2400.00000
G1 X50.843 Y5.882 E2.22946 F1800.000
G1 X50.843 Y43.882 E3.53225
G1 X50.339 Y46.417 E3.62086
G1 X50.046 Y47.124 E3.64711
G1 X48.814 Y49.059 E3.72574
G1 X46.460 Y50.710 E3.82431
G1 X45.753 Y51.003 E3.85055
G1 X43.218 Y51.507 E3.93917
G1 X5.154 Y51.507 E5.24414
G1 X-42.509 Y51.049 E6.87830
G1 X-44.980 Y50.545 E6.96478
G1 X-45.688 Y50.252 E6.99102
G1 X-47.623 Y49.021 E7.06965
G1 X-49.273 Y46.667 E7.16822
G1 X-49.566 Y45.959 E7.19446
G1 X-50.069 Y43.529 E7.27955
G1 X-50.842 Y-5.327 E8.95475
G1 X-50.843 Y-43.432 E10.26113
G1 X-50.339 Y-45.967 E10.34975
G1 X-50.046 Y-46.674 E10.37599
G1 X-48.814 Y-48.609 E10.45462
G1 X-46.460 Y-50.260 E10.55319
G1 X-45.753 Y-50.553 E10.57944
G1 X-43.280 Y-51.057 E10.66595
G1 X4.361 Y-51.507 E12.29936
G1 X42.423 Y-51.507 E13.60430
G1 X44.959 Y-51.003 E13.69292
G1 X45.666 Y-50.710 E13.71916 F1800.000
G1 X47.601 Y-49.479 E13.79778
G1 X49.251 Y-47.124 E13.89635
G1 X49.544 Y-46.417 E13.92259
G1 X50.048 Y-43.988 E14.00766
G1 X50.736 Y-0.870 E15.48609
G1 E13.48609 F2400.00000
G92 E0
G1 X0.093 Y-4.941 F7800.000
G1 E2.00000 F2400.00000
G1 X-0.829 Y-4.850 E2.03178 F1800.000
G1 X-0.913 Y-4.430 E2.04649
G1 X-1.597 Y-2.778 E2.10778
G1 X-2.564 Y-1.811 E2.15465
G1 X-4.215 Y-1.127 E2.21594
G1 X-4.879 Y-0.995 E2.23915
G1 X-43.556 Y-0.995 E3.56515
G1 X-44.220 Y-1.127 E3.58836
G1 X-45.872 Y-1.811 E3.64964
G1 X-46.839 Y-2.778 E3.69652
G1 X-47.523 Y-4.429 E3.75780
G1 X-47.655 Y-5.093 E3.78101
G1 X-47.655 Y-43.770 E5.10701
G1 X-47.523 Y-44.434 E5.13022
G1 X-46.839 Y-46.086 E5.19151
G1 X-45.872 Y-47.053 E5.23838
G1 X-44.220 Y-47.737 E5.29967
G1 X-43.556 Y-47.869 E5.32288
G1 X-4.879 Y-47.869 E6.64888
G1 X-4.215 Y-47.737 E6.67209
G1 X-2.564 Y-47.053 E6.73338
G1 X-1.597 Y-46.086 E6.78025
G1 X-0.887 Y-44.373 E6.84383
G1 X0.035 Y-44.464 E6.87560
G1 X0.119 Y-44.884 E6.89032
G1 X0.803 Y-46.536 E6.95160
G1 X1.770 Y-47.503 E6.99848
G1 X3.421 Y-48.187 E7.05976
G1 X4.085 Y-48.319 E7.08297
G1 X42.762 Y-48.319 E8.40898
G1 X43.426 Y-48.187 E8.43219
G1 X45.077 Y-47.503 E8.49347
G1 X46.044 Y-46.536 E8.54035
G1 X46.728 Y-44.885 E8.60163
G1 X46.860 Y-44.221 E8.62484
G1 X46.860 Y-5.544 E9.95084
G1 X46.728 Y-4.880 E9.97405
G1 X46.044 Y-3.228 E10.03533
G1 X45.077 Y-2.261 E10.08221
G1 X43.426 Y-1.577 E10.14350
G1 X42.762 Y-1.445 E10.16670
G1 X4.085 Y-1.445 E11.49271
G1 X3.421 Y-1.577 E11.51592
G1 X1.770 Y-2.261 E11.57720
G1 X0.803 Y-3.228 E11.62408
G1 X0.116 Y-4.886 E11.68560
G1 X0.719 Y-5.066 F7800.000
G1 X0.611 Y-5.605 E11.70445 F1800.000
G1 X0.611 Y-44.159 E13.02623
G1 X0.720 Y-44.702 E13.04522
G1 X1.332 Y-46.182 E13.10013
G1 X2.124 Y-46.973 E13.13848
G1 X3.603 Y-47.586 E13.19340
G1 X4.147 Y-47.694 E13.21239
G1 X42.700 Y-47.694 E14.53417
G1 X43.244 Y-47.586 E14.55316 F1800.000
G1 X44.724 Y-46.973 E14.60807
G1 X45.515 Y-46.182 E14.64643
G1 X46.127 Y-44.702 E14.70134
G1 X46.235 Y-44.159 E14.72033
G1 X46.235 Y-5.605 E16.04211
G1 X46.127 Y-5.062 E16.06110
G1 X45.514 Y-3.582 E16.11601
G1 X44.723 Y-2.791 E16.15436
G1 X43.244 Y-2.178 E16.20928
G1 X42.700 Y-2.070 E16.22827
G1 X4.147 Y-2.070 E17.55005
G1 X3.603 Y-2.178 E17.56904
G1 X2.124 Y-2.791 E17.62395
G1 X1.332 Y-3.582 E17.66230
G1 X0.741 Y-5.010 E17.71530
G1 X1.320 Y-5.244 F7800.000
G1 X1.236 Y-5.667 E17.73007 F1800.000
G1 X1.236 Y-44.097 E19.04763
G1 X1.320 Y-44.520 E19.06240
G1 X1.862 Y-45.828 E19.11094
G1 X2.477 Y-46.443 E19.14077
G1 X3.786 Y-46.985 E19.18931
G1 X4.208 Y-47.069 E19.20408
G1 X42.639 Y-47.069 E20.52164
G1 X43.061 Y-46.985 E20.53641
G1 X44.370 Y-46.443 E20.58496 F1800.000
G1 X44.985 Y-45.828 E20.61479
G1 X45.527 Y-44.520 E20.66332
G1 X45.611 Y-44.097 E20.67810
G1 X45.611 Y-5.667 E21.99566
G1 X45.527 Y-5.244 E22.01043
G1 X44.985 Y-3.936 E22.05897
G1 X44.369 Y-3.321 E22.08880
G1 X43.061 Y-2.779 E22.13734
G1 X42.639 Y-2.695 E22.15211
G1 X4.208 Y-2.695 E23.46967
G1 X3.786 Y-2.779 E23.48444
G1 X2.478 Y-3.321 E23.53298
G1 X1.862 Y-3.936 E23.56281
G1 X1.343 Y-5.189 E23.60929
G1 X1.921 Y-5.426 F7800.000
G1 X1.861 Y-5.728 E23.61985 F1800.000
G1 X1.861 Y-44.036 E24.93319
G1 X1.921 Y-44.338 E24.94374
G1 X2.392 Y-45.474 E24.98591
G1 X2.831 Y-45.914 E25.00721
G1 X3.968 Y-46.384 E25.04938
G1 X4.270 Y-46.444 E25.05993
G1 X42.577 Y-46.444 E26.37327
G1 X42.879 Y-46.384 E26.38382 F1800.000
G1 X44.016 Y-45.913 E26.42599
G1 X44.455 Y-45.474 E26.44730
G1 X44.926 Y-44.338 E26.48947
G1 X44.986 Y-44.036 E26.50002
G1 X44.986 Y-5.728 E27.81336
G1 X44.926 Y-5.426 E27.82391
G1 X44.455 Y-4.290 E27.86608
G1 X44.016 Y-3.851 E27.88739
G1 X42.879 Y-3.380 E27.92956
G1 X42.577 Y-3.320 E27.94011
G1 X4.270 Y-3.320 E29.25345
G1 X3.968 Y-3.380 E29.26400
G1 X2.831 Y-3.850 E29.30617
G1 X2.392 Y-4.290 E29.32747
G1 X1.944 Y-5.371 E29.36759
G1 X2.522 Y-5.609 F7800.000
G1 X2.486 Y-5.790 E29.37392 F1800.000
G1 X2.486 Y-43.974 E30.68304
G1 X2.522 Y-44.155 E30.68937
G1 X2.922 Y-45.120 E30.72517
G1 X3.185 Y-45.384 E30.73795
G1 X4.150 Y-45.783 E30.77375
G1 X4.331 Y-45.819 E30.78008
G1 X42.516 Y-45.819 E32.08920
G1 X42.697 Y-45.783 E32.09553
G1 X43.662 Y-45.384 E32.13133 F1800.000
G1 X43.925 Y-45.120 E32.14411
G1 X44.325 Y-44.155 E32.17991
G1 X44.361 Y-43.974 E32.18624
G1 X44.361 Y-5.790 E33.49536
G1 X44.325 Y-5.609 E33.50169
G1 X43.925 Y-4.644 E33.53749
G1 X43.662 Y-4.380 E33.55027
G1 X42.697 Y-3.981 E33.58607
G1 X42.516 Y-3.945 E33.59240
G1 X4.331 Y-3.945 E34.90152
G1 X4.150 Y-3.981 E34.90785
G1 X3.185 Y-4.380 E34.94365
G1 X2.922 Y-4.644 E34.95643
G1 X2.545 Y-5.553 E34.99017
G1 X3.123 Y-5.791 F7800.000
G1 X3.111 Y-43.913 E36.29715 F1800.000
G1 X3.452 Y-44.766 E36.32864
G1 X3.539 Y-44.854 E36.33291
G1 X4.393 Y-45.194 E36.36440
G1 X42.454 Y-45.194 E37.66931
G1 X43.308 Y-44.854 E37.70080 F1800.000
G1 X43.395 Y-44.766 E37.70507
G1 X43.736 Y-43.913 E37.73656
G1 X43.736 Y-5.851 E39.04147
G1 X43.395 Y-4.998 E39.07296
G1 X43.308 Y-4.910 E39.07722
G1 X42.454 Y-4.570 E39.10872
G1 X4.393 Y-4.570 E40.41362
G1 X3.539 Y-4.910 E40.44512
G1 X3.452 Y-4.998 E40.44938
G1 X3.146 Y-5.735 E40.47675
G1 E38.47675 F2400.00000
G92 E0
G1 X-1.406 Y-5.791 F7800.000
G1 E2.00000 F2400.00000
G1 X-1.406 Y-5.155 E2.02180 F1800.000
G1 X-1.514 Y-4.612 E2.04079
G1 X-2.127 Y-3.132 E2.09570
G1 X-2.918 Y-2.341 E2.13405
G1 X-4.398 Y-1.728 E2.18897
G1 X-4.941 Y-1.620 E2.20796
G1 X-43.495 Y-1.620 E3.52974
G1 X-44.038 Y-1.728 E3.54873
G1 X-45.518 Y-2.341 E3.60364
G1 X-46.309 Y-3.132 E3.64199
G1 X-46.922 Y-4.612 E3.69691
G1 X-47.030 Y-5.155 E3.71590
G1 X-47.030 Y-43.709 E5.03768
G1 X-46.922 Y-44.252 E5.05667
G1 X-46.309 Y-45.732 E5.11158
G1 X-45.518 Y-46.523 E5.14993
G1 X-44.038 Y-47.136 E5.20485
G1 X-43.495 Y-47.244 E5.22384
G1 X-4.941 Y-47.244 E6.54562
G1 X-4.398 Y-47.136 E6.56461 F1800.000
G1 X-2.918 Y-46.523 E6.61952
G1 X-2.127 Y-45.732 E6.65788
G1 X-1.514 Y-44.252 E6.71278
G1 X-1.406 Y-43.709 E6.73178
G1 X-1.406 Y-5.851 E8.02970
G1 X-2.031 Y-5.791 F7800.000
G1 X-2.031 Y-5.217 E8.04939 F1800.000
G1 X-2.115 Y-4.794 E8.06416
G1 X-2.657 Y-3.486 E8.11270
G1 X-3.272 Y-2.871 E8.14253
G1 X-4.580 Y-2.329 E8.19107
G1 X-5.003 Y-2.245 E8.20584
G1 X-43.433 Y-2.245 E9.52340
G1 X-43.856 Y-2.329 E9.53817
G1 X-45.164 Y-2.871 E9.58671
G1 X-45.779 Y-3.486 E9.61654
G1 X-46.321 Y-4.794 E9.66509
G1 X-46.405 Y-5.217 E9.67986
G1 X-46.405 Y-43.647 E10.99742
G1 X-46.321 Y-44.070 E11.01219
G1 X-45.779 Y-45.378 E11.06073
G1 X-45.164 Y-45.993 E11.09056
G1 X-43.856 Y-46.535 E11.13910
G1 X-43.433 Y-46.619 E11.15387
G1 X-5.003 Y-46.619 E12.47143
G1 X-4.580 Y-46.535 E12.48620
G1 X-3.272 Y-45.993 E12.53474 F1800.000
G1 X-2.657 Y-45.378 E12.56457
G1 X-2.115 Y-44.070 E12.61311
G1 X-2.031 Y-43.647 E12.62788
G1 X-2.031 Y-5.851 E13.92370
G1 X-2.656 Y-5.791 F7800.000
G1 X-2.656 Y-5.278 E13.94128 F1800.000
G1 X-2.716 Y-4.976 E13.95183
G1 X-3.186 Y-3.840 E13.99400
G1 X-3.626 Y-3.400 E14.01530
G1 X-4.762 Y-2.930 E14.05747
G1 X-5.064 Y-2.870 E14.06802
G1 X-43.372 Y-2.870 E15.38137
G1 X-43.674 Y-2.930 E15.39192
G1 X-44.810 Y-3.400 E15.43408
G1 X-45.249 Y-3.840 E15.45539
G1 X-45.720 Y-4.976 E15.49756
G1 X-45.780 Y-5.278 E15.50811
G1 X-45.780 Y-43.586 E16.82145
G1 X-45.720 Y-43.888 E16.83200
G1 X-45.249 Y-45.024 E16.87417
G1 X-44.810 Y-45.463 E16.89548
G1 X-43.674 Y-45.934 E16.93765
G1 X-43.372 Y-45.994 E16.94820
G1 X-5.064 Y-45.994 E18.26154
G1 X-4.762 Y-45.934 E18.27209 F1800.000
G1 X-3.626 Y-45.463 E18.31426
G1 X-3.186 Y-45.024 E18.33557
G1 X-2.716 Y-43.888 E18.37773
G1 X-2.656 Y-43.586 E18.38828
G1 X-2.656 Y-5.851 E19.68199
G1 X-3.281 Y-5.791 F7800.000
G1 X-3.281 Y-5.340 E19.69746 F1800.000
G1 X-3.317 Y-5.159 E19.70379
G1 X-3.716 Y-4.194 E19.73959
G1 X-3.980 Y-3.930 E19.75237
G1 X-4.945 Y-3.531 E19.78817
G1 X-5.126 Y-3.495 E19.79450
G1 X-43.310 Y-3.495 E21.10362
G1 X-43.491 Y-3.531 E21.10995
G1 X-44.456 Y-3.930 E21.14575
G1 X-44.720 Y-4.194 E21.15853
G1 X-45.119 Y-5.159 E21.19433
G1 X-45.155 Y-5.340 E21.20066
G1 X-45.155 Y-43.524 E22.50978
G1 X-45.119 Y-43.705 E22.51611
G1 X-44.720 Y-44.670 E22.55191
G1 X-44.456 Y-44.934 E22.56469
G1 X-43.491 Y-45.333 E22.60049
G1 X-43.310 Y-45.369 E22.60682
G1 X-5.126 Y-45.369 E23.91594
G1 X-4.945 Y-45.333 E23.92227
G1 X-3.980 Y-44.934 E23.95807 F1800.000
G1 X-3.716 Y-44.670 E23.97086
G1 X-3.317 Y-43.705 E24.00665
G1 X-3.281 Y-43.524 E24.01298
G1 X-3.281 Y-5.851 E25.30458
G1 X-3.905 Y-5.791 F7800.000
G1 X-3.917 Y-5.341 E25.32001 F1800.000
G1 X-4.246 Y-4.548 E25.34944
G1 X-4.334 Y-4.460 E25.35370
G1 X-5.187 Y-4.120 E25.38520
G1 X-43.249 Y-4.120 E26.69010
G1 X-44.102 Y-4.460 E26.72160
G1 X-44.190 Y-4.548 E26.72586
G1 X-44.530 Y-5.401 E26.75736
G1 X-44.530 Y-43.463 E28.06226
G1 X-44.190 Y-44.316 E28.09376
G1 X-44.102 Y-44.404 E28.09802
G1 X-43.249 Y-44.744 E28.12952
G1 X-5.187 Y-44.744 E29.43442
G1 X-4.334 Y-44.404 E29.46592 F1800.000
G1 X-4.246 Y-44.316 E29.47018
G1 X-3.905 Y-43.463 E29.50168
G1 X-3.905 Y-5.851 E30.79116
G1 E28.79116 F2400.00000
G92 E0
G1 X-0.049 Y4.883 F7800.000
G1 E2.00000 F2400.00000
G1 X0.874 Y4.974 E2.03178 F1800.000
G1 X1.597 Y3.228 E2.09658
G1 X2.564 Y2.261 E2.14345
G1 X4.215 Y1.577 E2.20474
G1 X4.879 Y1.445 E2.22795
G1 X43.556 Y1.445 E3.55395
G1 X44.220 Y1.577 E3.57716
G1 X45.872 Y2.261 E3.63845
G1 X46.839 Y3.228 E3.68532
G1 X47.523 Y4.880 E3.74660
G1 X47.655 Y5.544 E3.76981
G1 X47.655 Y44.220 E5.09582
G1 X47.523 Y44.884 E5.11903
G1 X46.839 Y46.536 E5.18031
G1 X45.872 Y47.503 E5.22719
G1 X44.220 Y48.187 E5.28847
G1 X43.556 Y48.319 E5.31168
G1 X4.879 Y48.319 E6.63768
G1 X4.215 Y48.187 E6.66089
G1 X2.564 Y47.503 E6.72217
G1 X1.597 Y46.536 E6.76905
G1 X0.913 Y44.885 E6.83034
G1 X0.821 Y44.423 E6.84648
G1 X-0.101 Y44.332 E6.87825
G1 X-0.825 Y46.078 E6.94306
G1 X-1.791 Y47.045 E6.98993
G1 X-3.443 Y47.729 E7.05122
G1 X-4.107 Y47.861 E7.07443
G1 X-42.784 Y47.861 E8.40043
G1 X-43.448 Y47.729 E8.42364
G1 X-45.099 Y47.045 E8.48492
G1 X-46.066 Y46.078 E8.53180
G1 X-46.750 Y44.427 E8.59308
G1 X-46.882 Y43.763 E8.61629
G1 X-46.882 Y5.086 E9.94229
G1 X-46.750 Y4.422 E9.96550
G1 X-46.066 Y2.770 E10.02679
G1 X-45.099 Y1.803 E10.07366
G1 X-43.448 Y1.119 E10.13495
G1 X-42.784 Y0.987 E10.15816
G1 X-4.107 Y0.987 E11.48416
G1 X-3.443 Y1.119 E11.50737
G1 X-1.791 Y1.803 E11.56865
G1 X-0.824 Y2.770 E11.61553
G1 X-0.140 Y4.422 E11.67681
G1 X-0.060 Y4.825 E11.69090
G1 X-0.661 Y5.005 F7800.000
G1 X-0.633 Y5.147 E11.69586 F1800.000
G1 X-0.633 Y43.701 E13.01764
G1 X-0.741 Y44.244 E13.03663
G1 X-1.354 Y45.724 E13.09154
G1 X-2.145 Y46.515 E13.12989
G1 X-3.625 Y47.128 E13.18481
G1 X-4.168 Y47.236 E13.20380
G1 X-42.722 Y47.236 E14.52558
G1 X-43.265 Y47.128 E14.54457
G1 X-44.745 Y46.515 E14.59948
G1 X-45.536 Y45.724 E14.63783
G1 X-46.149 Y44.244 E14.69274
G1 X-46.257 Y43.701 E14.71173
G1 X-46.257 Y5.147 E16.03352
G1 X-46.149 Y4.604 E16.05251
G1 X-45.536 Y3.124 E16.10742
G1 X-44.745 Y2.333 E16.14577
G1 X-43.265 Y1.720 E16.20069
G1 X-42.722 Y1.612 E16.21967
G1 X-4.168 Y1.612 E17.54146
G1 X-3.625 Y1.720 E17.56045 F1800.000
G1 X-2.145 Y2.333 E17.61536
G1 X-1.354 Y3.124 E17.65372
G1 X-0.741 Y4.604 E17.70862
G1 X-0.673 Y4.947 E17.72060
G1 X-1.274 Y5.127 F7800.000
G1 X-1.258 Y5.209 E17.72345 F1800.000
G1 X-1.258 Y43.640 E19.04101
G1 X-1.342 Y44.062 E19.05578
G1 X-1.884 Y45.370 E19.10432
G1 X-2.499 Y45.985 E19.13415
G1 X-3.807 Y46.527 E19.18269
G1 X-4.230 Y46.611 E19.19746
G1 X-42.661 Y46.611 E20.51502
G1 X-43.083 Y46.527 E20.52979
G1 X-44.391 Y45.986 E20.57833
G1 X-45.007 Y45.370 E20.60816
G1 X-45.548 Y44.062 E20.65670
G1 X-45.632 Y43.640 E20.67147
G1 X-45.632 Y5.209 E21.98904
G1 X-45.548 Y4.786 E22.00381
G1 X-45.007 Y3.478 E22.05235
G1 X-44.391 Y2.863 E22.08218
G1 X-43.083 Y2.321 E22.13072
G1 X-42.661 Y2.237 E22.14549
G1 X-4.230 Y2.237 E23.46305
G1 X-3.807 Y2.321 E23.47782
G1 X-2.499 Y2.863 E23.52636 F1800.000
G1 X-1.884 Y3.478 E23.55619
G1 X-1.342 Y4.786 E23.60473
G1 X-1.286 Y5.068 E23.61459
G1 X-1.887 Y5.249 F7800.000
G1 X-1.883 Y43.578 E24.92866 F1800.000
G1 X-1.943 Y43.880 E24.93921
G1 X-2.414 Y45.016 E24.98138
G1 X-2.853 Y45.456 E25.00269
G1 X-3.990 Y45.926 E25.04486
G1 X-4.291 Y45.986 E25.05541
G1 X-42.599 Y45.986 E26.36875
G1 X-42.901 Y45.926 E26.37930
G1 X-44.037 Y45.456 E26.42147
G1 X-44.477 Y45.016 E26.44278
G1 X-44.947 Y43.880 E26.48494
G1 X-45.007 Y43.578 E26.49549
G1 X-45.007 Y5.270 E27.80884
G1 X-44.947 Y4.969 E27.81939
G1 X-44.477 Y3.832 E27.86156
G1 X-44.037 Y3.393 E27.88286
G1 X-42.901 Y2.922 E27.92503
G1 X-42.599 Y2.862 E27.93558
G1 X-4.291 Y2.862 E29.24892
G1 X-3.990 Y2.922 E29.25947 F1800.000
G1 X-2.853 Y3.393 E29.30164
G1 X-2.414 Y3.832 E29.32295
G1 X-1.943 Y4.969 E29.36512
G1 X-1.899 Y5.190 E29.37287
G1 X-2.508 Y5.332 F7800.000
G1 X-2.508 Y43.517 E30.68199 F1800.000
G1 X-2.544 Y43.698 E30.68832
G1 X-2.944 Y44.662 E30.72412
G1 X-3.207 Y44.926 E30.73691
G1 X-4.172 Y45.326 E30.77270
G1 X-4.353 Y45.362 E30.77903
G1 X-42.538 Y45.362 E32.08816
G1 X-42.719 Y45.326 E32.09449
G1 X-43.683 Y44.926 E32.13028
G1 X-43.947 Y44.662 E32.14307
G1 X-44.347 Y43.698 E32.17886
G1 X-44.383 Y43.517 E32.18520
G1 X-44.383 Y5.332 E33.49432
G1 X-44.347 Y5.151 E33.50065
G1 X-43.947 Y4.186 E33.53644
G1 X-43.683 Y3.922 E33.54923
G1 X-42.719 Y3.523 E33.58503
G1 X-42.538 Y3.487 E33.59136
G1 X-4.353 Y3.487 E34.90048
G1 X-4.172 Y3.523 E34.90681
G1 X-3.207 Y3.922 E34.94261 F1800.000
G1 X-2.944 Y4.186 E34.95539
G1 X-2.544 Y5.151 E34.99119
G1 X-2.520 Y5.273 E34.99546
G1 X-3.133 Y5.393 F7800.000
G1 X-3.133 Y43.455 E36.30036 F1800.000
G1 X-3.473 Y44.308 E36.33186
G1 X-3.561 Y44.396 E36.33612
G1 X-4.414 Y44.737 E36.36762
G1 X-42.476 Y44.737 E37.67252
G1 X-43.329 Y44.396 E37.70402
G1 X-43.417 Y44.308 E37.70828
G1 X-43.758 Y43.455 E37.73978
G1 X-43.758 Y5.393 E39.04468
G1 X-43.417 Y4.540 E39.07618
G1 X-43.329 Y4.452 E39.08044
G1 X-42.476 Y4.112 E39.11194
G1 X-4.414 Y4.112 E40.41684
G1 X-3.561 Y4.452 E40.44834 F1800.000
G1 X-3.473 Y4.540 E40.45260
G1 X-3.145 Y5.335 E40.48208
G1 E38.48208 F2400.00000
G92 E0
G1 X1.406 Y5.605 F7800.000
G1 E2.00000 F2400.00000
G1 X1.514 Y5.062 E2.01899 F1800.000
G1 X2.127 Y3.582 E2.07390
G1 X2.918 Y2.791 E2.11226
G1 X4.398 Y2.178 E2.16717
G1 X4.941 Y2.070 E2.18616
G1 X43.495 Y2.070 E3.50794
G1 X44.038 Y2.178 E3.52693 F1800.000
G1 X45.518 Y2.791 E3.58184
G1 X46.309 Y3.582 E3.62020
G1 X46.922 Y5.062 E3.67511
G1 X47.030 Y5.605 E3.69410
G1 X47.030 Y44.159 E5.01588
G1 X46.922 Y44.702 E5.03487
G1 X46.309 Y46.182 E5.08978
G1 X45.518 Y46.973 E5.12813
G1 X44.038 Y47.586 E5.18305
G1 X43.495 Y47.694 E5.20204
G1 X4.941 Y47.694 E6.52382
G1 X4.398 Y47.586 E6.54281
G1 X2.918 Y46.973 E6.59772
G1 X2.127 Y46.182 E6.63607
G1 X1.514 Y44.702 E6.69099
G1 X1.406 Y44.159 E6.70998
G1 X1.406 Y5.665 E8.02970
