; generated by Slic3r 1.2.9 on 2016-01-06 at 14:04:35

; external perimeters extrusion width = 0.40mm
; perimeters extrusion width = 0.48mm
; infill extrusion width = 0.48mm
; solid infill extrusion width = 0.48mm
; top infill extrusion width = 0.48mm
; support material extrusion width = 0.40mm

M107
M190 S70 ; set bed temperature
M104 S205 ; set temperature
G28 ; home all axes
G1 Z5 F5000 ; lift nozzle

M109 S205 ; wait for temperature to be reached
G21 ; set units to millimeters
G90 ; use absolute coordinates
M82 ; use absolute distances for extrusion
G92 E0
G1 Z0.350 F7800.000
G1 X0.253 Y66.700 F7800.000
G1 X-42.807 Y66.711 E1.47629 F600.000
G1 X-45.066 Y66.314 E1.55492
G1 X-47.492 Y64.771 E1.65348
G1 X-87.492 Y24.771 E3.59288
G1 X-88.809 Y22.893 E3.67151
G1 X-89.432 Y20.087 E3.77008
G1 X-89.432 Y-19.913 E5.14144
G1 X-89.035 Y-22.172 E5.22007
G1 X-87.492 Y-24.598 E5.31863
G1 X-47.492 Y-64.598 E7.25803
G1 X-45.614 Y-65.915 E7.33666
G1 X-42.833 Y-66.538 E7.43439
G1 X2.782 Y-66.711 E8.99826
G1 X42.807 Y-66.711 E10.37048
G1 X45.066 Y-66.314 E10.44911
G1 X47.492 Y-64.771 E10.54768 F600.000
G1 X87.492 Y-24.771 E12.48708
G1 X88.809 Y-22.893 E12.56571
G1 X89.432 Y-20.087 E12.66427
G1 X89.432 Y19.913 E14.03564
G1 X89.035 Y22.172 E14.11426
G1 X87.492 Y24.598 E14.21283
G1 X47.492 Y64.598 E16.15223
G1 X45.614 Y65.915 E16.23086
G1 X42.833 Y66.538 E16.32858
G1 X0.313 Y66.700 E17.78634
G1 X1.384 Y63.350 F7800.000
G1 X0.345 Y62.312 E17.83669 F600.000
G1 X-0.172 Y62.312 E17.85444
G1 X-1.384 Y63.523 E17.91318
G1 X-44.070 Y63.523 E19.37664
G1 X-45.995 Y61.888 E19.46323
G1 X-46.996 Y55.789 E19.67511
G1 X-48.267 Y51.296 E19.83521
G1 X-50.049 Y46.942 E19.99651
G1 X-52.331 Y42.787 E20.15903
G1 X-55.027 Y38.974 E20.31912
G1 X-58.159 Y35.463 E20.48043
G1 X-61.695 Y32.306 E20.64295
G1 X-65.538 Y29.591 E20.80425
G1 X-69.631 Y27.344 E20.96434
G1 X-73.984 Y25.558 E21.12565
G1 X-78.511 Y24.275 E21.28696
G1 X-84.609 Y23.274 E21.49884
G1 X-86.244 Y21.349 E21.58543
G1 X-86.244 Y-21.176 E23.04338
G1 X-84.609 Y-23.101 E23.12996
G1 X-78.510 Y-24.102 E23.34185
G1 X-73.984 Y-25.385 E23.50315
G1 X-69.631 Y-27.170 E23.66446
G1 X-65.508 Y-29.437 E23.82576
G1 X-61.695 Y-32.133 E23.98586
G1 X-58.184 Y-35.265 E24.14716
G1 X-55.027 Y-38.801 E24.30968
G1 X-52.331 Y-42.614 E24.46977
G1 X-50.064 Y-46.737 E24.63108
G1 X-48.279 Y-51.090 E24.79238
G1 X-46.996 Y-55.617 E24.95369
G1 X-45.995 Y-61.715 E25.16558
G1 X-44.070 Y-63.350 E25.25216
G1 X-1.384 Y-63.350 E26.71562
G1 X-0.345 Y-62.312 E26.76598
G1 X0.172 Y-62.312 E26.78372
G1 X1.384 Y-63.523 E26.84247
G1 X44.070 Y-63.523 E28.30593
G1 X45.995 Y-61.888 E28.39251
G1 X46.996 Y-55.790 E28.60440 F600.000
G1 X48.267 Y-51.296 E28.76449
G1 X50.049 Y-46.942 E28.92580
G1 X52.331 Y-42.787 E29.08832
G1 X55.027 Y-38.974 E29.24841
G1 X58.159 Y-35.463 E29.40971
G1 X61.695 Y-32.306 E29.57223
G1 X65.508 Y-29.610 E29.73232
G1 X69.631 Y-27.344 E29.89363
G1 X73.984 Y-25.558 E30.05494
G1 X78.510 Y-24.275 E30.21624
G1 X84.609 Y-23.274 E30.42813
G1 X86.244 Y-21.349 E30.51471
G1 X86.244 Y21.176 E31.97266
G1 X84.609 Y23.101 E32.05925
G1 X78.510 Y24.102 E32.27113
G1 X73.984 Y25.385 E32.43244
G1 X69.631 Y27.170 E32.59375
G1 X65.508 Y29.437 E32.75505
G1 X61.695 Y32.133 E32.91514
G1 X58.184 Y35.265 E33.07645
G1 X55.027 Y38.801 E33.23897
G1 X52.331 Y42.614 E33.39906
G1 X50.064 Y46.737 E33.56036
G1 X48.279 Y51.090 E33.72167
G1 X46.996 Y55.616 E33.88297
G1 X45.995 Y61.715 E34.09486
G1 X44.070 Y63.350 E34.18145
G1 X1.444 Y63.350 E35.64285
G1 X1.643 Y62.725 F7800.000
G1 X0.345 Y61.428 E35.70575 F600.000
G1 X-0.172 Y61.428 E35.72350
G1 X-1.643 Y62.899 E35.79479
G1 X-43.841 Y62.899 E37.24151
G1 X-45.415 Y61.561 E37.31235
G1 X-46.385 Y55.654 E37.51758
G1 X-47.687 Y51.059 E37.68132
G1 X-49.484 Y46.672 E37.84384
G1 X-51.800 Y42.455 E38.00879
G1 X-54.537 Y38.584 E38.17131
G1 X-57.716 Y35.020 E38.33504
G1 X-61.305 Y31.816 E38.49999
G1 X-65.176 Y29.079 E38.66251
G1 X-69.361 Y26.779 E38.82625
G1 X-73.779 Y24.966 E38.98998
G1 X-78.375 Y23.664 E39.15372
G1 X-84.282 Y22.695 E39.35895
G1 X-85.619 Y21.120 E39.42979
G1 X-85.619 Y-20.947 E40.87200
G1 X-84.282 Y-22.521 E40.94284
G1 X-78.375 Y-23.491 E41.14807
G1 X-73.780 Y-24.793 E41.31180
G1 X-69.361 Y-26.606 E41.47554
G1 X-65.176 Y-28.906 E41.63927
G1 X-61.305 Y-31.643 E41.80180
G1 X-57.741 Y-34.822 E41.96553
G1 X-54.537 Y-38.411 E42.13048
G1 X-51.782 Y-42.312 E42.29421
G1 X-49.500 Y-46.467 E42.45673
G1 X-47.687 Y-50.886 E42.62047
G1 X-46.385 Y-55.481 E42.78420
G1 X-45.415 Y-61.388 E42.98943
G1 X-43.841 Y-62.725 E43.06028
G1 X-1.643 Y-62.725 E44.50699
G1 X-0.345 Y-61.428 E44.56990
G1 X0.172 Y-61.428 E44.58764
G1 X1.643 Y-62.899 E44.65894
G1 X43.841 Y-62.899 E46.10565
G1 X45.415 Y-61.561 E46.17649 F600.000
G1 X46.385 Y-55.654 E46.38172
G1 X47.687 Y-51.059 E46.54546
G1 X49.500 Y-46.640 E46.70919
G1 X51.782 Y-42.485 E46.87172
G1 X54.537 Y-38.584 E47.03545
G1 X57.741 Y-34.995 E47.20040
G1 X61.305 Y-31.816 E47.36413
G1 X65.176 Y-29.079 E47.52665
G1 X69.361 Y-26.779 E47.69039
G1 X73.780 Y-24.966 E47.85412
G1 X78.374 Y-23.664 E48.01786
G1 X84.282 Y-22.695 E48.22309
G1 X85.619 Y-21.120 E48.29393
G1 X85.619 Y20.947 E49.73614
G1 X84.282 Y22.521 E49.80698
G1 X78.374 Y23.491 E50.01221
G1 X73.779 Y24.793 E50.17595
G1 X69.361 Y26.606 E50.33968
G1 X65.176 Y28.906 E50.50342
G1 X61.305 Y31.643 E50.66594
G1 X57.741 Y34.822 E50.82967
G1 X54.537 Y38.411 E50.99462
G1 X51.800 Y42.282 E51.15714
G1 X49.500 Y46.467 E51.32088
G1 X47.687 Y50.885 E51.48461
G1 X46.385 Y55.480 E51.64835
G1 X45.416 Y61.388 E51.85357
G1 X43.841 Y62.725 E51.92442
G1 X1.703 Y62.725 E53.36908
G1 X0.151 Y60.350 F7800.000
G1 X-0.620 Y60.670 E53.39771 F600.000
G1 X-0.620 Y60.992 E53.40877
G1 X-1.902 Y62.274 E53.47089
G1 X-43.611 Y62.274 E54.90086
G1 X-44.836 Y61.233 E54.95596
G1 X-45.774 Y55.518 E55.15453
G1 X-47.084 Y50.888 E55.31948
G1 X-48.920 Y46.402 E55.48565
G1 X-51.270 Y42.123 E55.65302
G1 X-54.047 Y38.195 E55.81798
G1 X-57.274 Y34.578 E55.98414
G1 X-60.916 Y31.327 E56.15152
G1 X-64.844 Y28.549 E56.31647
G1 X-69.091 Y26.214 E56.48263
G1 X-73.575 Y24.374 E56.64880
G1 X-78.239 Y23.053 E56.81496
G1 X-83.954 Y22.115 E57.01354
G1 X-84.995 Y20.890 E57.06864
G1 X-84.995 Y-20.717 E58.49510
G1 X-83.954 Y-21.942 E58.55020
G1 X-78.239 Y-22.880 E58.74877
G1 X-73.575 Y-24.201 E58.91493
G1 X-69.091 Y-26.041 E59.08110
G1 X-64.844 Y-28.376 E59.24726
G1 X-60.888 Y-31.176 E59.41343
G1 X-57.299 Y-34.380 E59.57838
G1 X-54.047 Y-38.022 E59.74576
G1 X-51.251 Y-41.980 E59.91192
G1 X-48.935 Y-46.197 E60.07687
G1 X-47.095 Y-50.681 E60.24304
G1 X-45.774 Y-55.345 E60.40920
G1 X-44.836 Y-61.060 E60.60777
G1 X-43.611 Y-62.101 E60.66287
G1 X-1.902 Y-62.101 E62.09284
G1 X-0.151 Y-60.350 E62.17771
G1 X0.620 Y-60.670 E62.20634
G1 X0.620 Y-60.992 E62.21741
G1 X1.902 Y-62.274 E62.27952
G1 X43.611 Y-62.274 E63.70949
G1 X44.836 Y-61.233 E63.76459
G1 X45.774 Y-55.518 E63.96317
G1 X47.095 Y-50.854 E64.12933
G1 X48.935 Y-46.370 E64.29550
G1 X51.270 Y-42.123 E64.46166
G1 X54.047 Y-38.195 E64.62661
G1 X57.299 Y-34.553 E64.79399
G1 X60.916 Y-31.327 E64.96015
G1 X64.844 Y-28.549 E65.12510
G1 X69.091 Y-26.214 E65.29127
G1 X73.575 Y-24.374 E65.45743
G1 X78.239 Y-23.053 E65.62360
G1 X83.954 Y-22.115 E65.82217
G1 X84.995 Y-20.890 E65.87727
G1 X84.995 Y20.717 E67.30373
G1 X83.954 Y21.942 E67.35883
G1 X78.238 Y22.880 E67.55741
G1 X73.575 Y24.201 E67.72357
G1 X69.091 Y26.041 E67.88974
G1 X64.844 Y28.376 E68.05590
G1 X60.916 Y31.153 E68.22085
G1 X57.299 Y34.380 E68.38702
G1 X54.047 Y38.022 E68.55439
G1 X51.270 Y41.950 E68.71934
G1 X48.935 Y46.197 E68.88551
G1 X47.095 Y50.681 E69.05167
G1 X45.774 Y55.345 E69.21784
G1 X44.836 Y61.060 E69.41641
G1 X43.611 Y62.101 E69.47151
G1 X1.902 Y62.101 E70.90148
G1 X0.194 Y60.393 E70.98429
G1 X1.245 Y60.350 F7800.000
G1 X1.245 Y-60.734 E75.13553 F600.000
G1 X2.160 Y-61.649 E75.17990
G1 X43.381 Y-61.649 E76.59312
G1 X44.256 Y-60.905 E76.63248 F600.000
G1 X45.163 Y-55.382 E76.82440
G1 X46.504 Y-50.650 E76.99299
G1 X48.370 Y-46.101 E77.16158
G1 X50.720 Y-41.821 E77.32897
G1 X53.533 Y-37.839 E77.49611
G1 X56.831 Y-34.135 E77.66614
G1 X60.526 Y-30.837 E77.83595
G1 X64.512 Y-28.018 E78.00333
G1 X68.822 Y-25.649 E78.17192
G1 X73.371 Y-23.783 E78.34052
G1 X78.103 Y-22.442 E78.50911
G1 X83.626 Y-21.535 E78.70103
G1 X84.370 Y-20.661 E78.74039
G1 X84.370 Y20.487 E80.15110
G1 X83.626 Y21.362 E80.19046
G1 X78.103 Y22.269 E80.38238
G1 X73.371 Y23.610 E80.55097
G1 X68.822 Y25.476 E80.71957
G1 X64.478 Y27.869 E80.88960
G1 X60.498 Y30.686 E81.05674
G1 X56.856 Y33.937 E81.22413
G1 X53.558 Y37.632 E81.39393
G1 X50.739 Y41.618 E81.56131
G1 X48.370 Y45.928 E81.72991
G1 X46.504 Y50.477 E81.89850
G1 X45.163 Y55.209 E82.06709
G1 X44.256 Y60.732 E82.25901
G1 X43.381 Y61.476 E82.29837
G1 X2.160 Y61.476 E83.71159
G1 X1.245 Y60.561 E83.75596
G1 X1.245 Y60.410 E83.76112
G1 X1.870 Y60.302 F7800.000
G1 X1.870 Y-60.475 E87.90182 F600.000
G1 X2.419 Y-61.024 E87.92844
G1 X43.152 Y-61.024 E89.32492
G1 X43.677 Y-60.578 E89.34854
G1 X44.552 Y-55.246 E89.53380 F600.000
G1 X45.900 Y-50.480 E89.70361
G1 X47.790 Y-45.863 E89.87463
G1 X50.208 Y-41.459 E90.04686
G1 X53.068 Y-37.415 E90.21668
G1 X56.388 Y-33.693 E90.38770
G1 X60.136 Y-30.347 E90.55993
G1 X64.180 Y-27.487 E90.72975
G1 X68.552 Y-25.084 E90.90077
G1 X73.200 Y-23.179 E91.07300
G1 X78.001 Y-21.824 E91.24403
G1 X83.299 Y-20.956 E91.42807
G1 X83.745 Y-20.431 E91.45169
G1 X83.745 Y20.258 E92.84666
G1 X83.299 Y20.783 E92.87028
G1 X78.001 Y21.651 E93.05433
G1 X73.200 Y23.006 E93.22535
G1 X68.552 Y24.911 E93.39758
G1 X64.117 Y27.359 E93.57126
G1 X60.109 Y30.196 E93.73961
G1 X56.414 Y33.494 E93.90943
G1 X53.068 Y37.242 E94.08166
G1 X50.208 Y41.286 E94.25147
G1 X47.805 Y45.658 E94.42249
G1 X45.900 Y50.306 E94.59473
G1 X44.545 Y55.107 E94.76575
G1 X43.677 Y60.405 E94.94980
G1 X43.152 Y60.851 E94.97342
G1 X2.419 Y60.851 E96.36989
G1 X1.913 Y60.344 E96.39446
G1 X2.678 Y60.226 F7800.000
G1 X2.495 Y60.043 E96.40333 F600.000
G1 X2.495 Y-60.216 E100.52629
G1 X2.678 Y-60.399 E100.53516
G1 X42.922 Y-60.399 E101.91489
G1 X43.097 Y-60.250 E101.92277
G1 X43.941 Y-55.110 E102.10137
G1 X45.309 Y-50.275 E102.27361
G1 X47.241 Y-45.561 E102.44827
G1 X49.659 Y-41.158 E102.62051
G1 X52.578 Y-37.026 E102.79397
G1 X55.946 Y-33.250 E102.96742
G1 X59.746 Y-29.857 E103.14208
G1 X63.849 Y-26.957 E103.31432
G1 X68.282 Y-24.520 E103.48778
G1 X72.996 Y-22.588 E103.66244
G1 X77.831 Y-21.220 E103.83468
G1 X82.971 Y-20.376 E104.01329
G1 X83.120 Y-20.201 E104.02116
G1 X83.120 Y20.028 E105.40039
G1 X82.971 Y20.203 E105.40826
G1 X77.831 Y21.047 E105.58686
G1 X72.996 Y22.415 E105.75911
G1 X68.282 Y24.347 E105.93377
G1 X63.879 Y26.765 E106.10601
G1 X63.756 Y26.849 E106.11110
G1 X59.719 Y29.706 E106.28067
G1 X55.971 Y33.052 E106.45292
G1 X52.578 Y36.852 E106.62758
G1 X49.678 Y40.955 E106.79982
G1 X47.241 Y45.388 E106.97327
G1 X45.309 Y50.102 E107.14794
G1 X43.941 Y54.937 E107.32018
G1 X43.097 Y60.077 E107.49878
G1 X42.922 Y60.226 E107.50665
G1 X2.738 Y60.226 E108.88433
G1 E106.88433 F2400.00000
G92 E0
G1 X-1.245 Y60.226 F7800.000
G1 E2.00000 F2400.00000
G1 X-1.245 Y60.734 E2.01741 F600.000
G1 X-2.160 Y61.649 E2.06178
G1 X-43.381 Y61.649 E3.47500
G1 X-44.256 Y60.905 E3.51436
G1 X-45.163 Y55.382 E3.70627
G1 X-46.504 Y50.650 E3.87487
G1 X-48.370 Y46.101 E4.04346
G1 X-50.720 Y41.821 E4.21084
G1 X-53.533 Y37.839 E4.37799
G1 X-56.831 Y34.135 E4.54802
G1 X-60.526 Y30.837 E4.71783
G1 X-64.512 Y28.018 E4.88521
G1 X-68.822 Y25.649 E5.05380
G1 X-73.371 Y23.783 E5.22239
G1 X-78.103 Y22.442 E5.39099
G1 X-83.626 Y21.535 E5.58291
G1 X-84.370 Y20.661 E5.62226
G1 X-84.370 Y-20.487 E7.03298
G1 X-83.626 Y-21.362 E7.07234
G1 X-78.103 Y-22.269 E7.26426
G1 X-73.371 Y-23.610 E7.43285
G1 X-68.822 Y-25.476 E7.60144
G1 X-64.542 Y-27.826 E7.76882
G1 X-60.526 Y-30.664 E7.93742
G1 X-56.831 Y-33.962 E8.10722
G1 X-53.580 Y-37.604 E8.27461
G1 X-50.739 Y-41.618 E8.44320
G1 X-48.355 Y-45.960 E8.61300
G1 X-46.504 Y-50.477 E8.78039
G1 X-45.163 Y-55.209 E8.94898
G1 X-44.256 Y-60.732 E9.14090
G1 X-43.381 Y-61.476 E9.18025
G1 X-2.160 Y-61.476 E10.59348
G1 X-1.245 Y-60.561 E10.63785 F600.000
G1 X-1.245 Y60.166 E14.77684
G1 X-1.870 Y60.226 F7800.000
G1 X-1.870 Y60.475 E14.78537 F600.000
G1 X-2.419 Y61.024 E14.81199
G1 X-43.152 Y61.024 E16.20847
G1 X-43.677 Y60.578 E16.23208
G1 X-44.545 Y55.280 E16.41613
G1 X-45.900 Y50.479 E16.58715
G1 X-47.805 Y45.831 E16.75939
G1 X-50.190 Y41.489 E16.92920
G1 X-53.068 Y37.415 E17.10022
G1 X-56.414 Y33.668 E17.27246
G1 X-60.136 Y30.347 E17.44348
G1 X-64.180 Y27.487 E17.61329
G1 X-68.552 Y25.084 E17.78431
G1 X-73.200 Y23.179 E17.95655
G1 X-78.001 Y21.824 E18.12757
G1 X-83.299 Y20.956 E18.31162
G1 X-83.745 Y20.431 E18.33524
G1 X-83.745 Y-20.258 E19.73021
G1 X-83.299 Y-20.783 E19.75383
G1 X-78.001 Y-21.651 E19.93787
G1 X-73.200 Y-23.006 E20.10890
G1 X-68.552 Y-24.911 E20.28113
G1 X-64.180 Y-27.314 E20.45215
G1 X-60.136 Y-30.174 E20.62197
G1 X-56.388 Y-33.519 E20.79420
G1 X-53.090 Y-37.215 E20.96401
G1 X-50.208 Y-41.286 E21.13504
G1 X-47.790 Y-45.690 E21.30727
G1 X-45.912 Y-50.273 E21.47708
G1 X-44.552 Y-55.073 E21.64810
G1 X-43.677 Y-60.405 E21.83336
G1 X-43.152 Y-60.851 E21.85698
G1 X-2.419 Y-60.851 E23.25346
G1 X-1.870 Y-60.302 E23.28008
G1 X-1.870 Y60.166 E27.41019 F600.000
G1 X-2.495 Y60.216 F7800.000
G1 X-2.678 Y60.399 E27.41907 F600.000
G1 X-42.922 Y60.399 E28.79880
G1 X-43.097 Y60.250 E28.80667
G1 X-43.941 Y55.110 E28.98528
G1 X-45.309 Y50.275 E29.15752
G1 X-47.241 Y45.561 E29.33218
G1 X-49.659 Y41.158 E29.50442
G1 X-52.578 Y37.026 E29.67787
G1 X-55.971 Y33.225 E29.85254
G1 X-59.746 Y29.857 E30.02599
G1 X-63.849 Y26.957 E30.19823
G1 X-68.282 Y24.520 E30.37168
G1 X-72.996 Y22.588 E30.54635
G1 X-77.831 Y21.220 E30.71859
G1 X-82.971 Y20.376 E30.89719
G1 X-83.120 Y20.201 E30.90506
G1 X-83.120 Y-20.028 E32.28430
G1 X-82.971 Y-20.203 E32.29217
G1 X-77.831 Y-21.047 E32.47077
G1 X-72.996 Y-22.415 E32.64301
G1 X-68.282 Y-24.347 E32.81768
G1 X-63.849 Y-26.784 E32.99113
G1 X-59.746 Y-29.684 E33.16337
G1 X-55.971 Y-33.052 E33.33682
G1 X-52.578 Y-36.852 E33.51149
G1 X-49.678 Y-40.955 E33.68373
G1 X-47.241 Y-45.388 E33.85718
G1 X-45.309 Y-50.102 E34.03184
G1 X-43.941 Y-54.937 E34.20408
G1 X-43.097 Y-60.077 E34.38269
G1 X-42.922 Y-60.226 E34.39056
G1 X-2.678 Y-60.226 E35.77029
G1 X-2.495 Y-60.043 E35.77917
G1 X-2.495 Y60.156 E39.90006
G1 E37.90006 F2400.00000
G92 E0
G1 X3.157 Y59.563 F7800.000
G1 E2.00000 F2400.00000
G1 X3.157 Y-59.737 E6.09008 F600.000
G1 X42.510 Y-59.737 E7.43925
G1 X43.289 Y-54.983 E7.60441
G1 X44.686 Y-50.042 E7.78044
G1 X46.633 Y-45.291 E7.95647
G1 X49.105 Y-40.790 E8.13250
G1 X52.069 Y-36.598 E8.30853
G1 X55.489 Y-32.768 E8.48457
G1 X59.319 Y-29.348 E8.66060
G1 X63.511 Y-26.384 E8.83663
G1 X68.012 Y-23.912 E9.01266
G1 X72.763 Y-21.965 E9.18869
G1 X77.703 Y-20.568 E9.36473
G1 X82.457 Y-19.789 E9.52988
G1 X82.457 Y19.616 E10.88086
G1 X77.704 Y20.395 E11.04601
G1 X72.763 Y21.792 E11.22205
G1 X68.012 Y23.739 E11.39808
G1 X63.511 Y26.211 E11.57411
G1 X63.374 Y26.308 E11.57988
G1 X59.319 Y29.175 E11.75014
G1 X55.489 Y32.595 E11.92617
G1 X52.069 Y36.425 E12.10220
G1 X49.105 Y40.617 E12.27824
G1 X46.633 Y45.118 E12.45427
G1 X44.686 Y49.869 E12.63030
G1 X43.289 Y54.810 E12.80633
G1 X42.510 Y59.563 E12.97149
G1 X3.217 Y59.563 E14.31860
G1 X3.357 Y59.217 F7800.000
G1 X3.782 Y58.939 F7800.000
G1 X3.782 Y-59.112 E18.36583 F600.000
G1 X41.979 Y-59.112 E19.67538
G1 X42.678 Y-54.847 E19.82355
G1 X44.095 Y-49.838 E20.00201
G1 X46.068 Y-45.021 E20.18047
G1 X48.574 Y-40.458 E20.35893
G1 X51.579 Y-36.208 E20.53740
G1 X55.046 Y-32.325 E20.71586
G1 X58.929 Y-28.859 E20.89432
G1 X63.179 Y-25.853 E21.07278
G1 X67.742 Y-23.348 E21.25124
G1 X72.559 Y-21.374 E21.42970
G1 X77.568 Y-19.957 E21.60816
G1 X81.833 Y-19.258 E21.75634
G1 X81.833 Y19.085 E23.07091
G1 X77.568 Y19.784 E23.21908
G1 X72.559 Y21.201 E23.39754
G1 X67.742 Y23.174 E23.57600
G1 X63.179 Y25.680 E23.75447
G1 X63.013 Y25.798 E23.76146
G1 X58.929 Y28.685 E23.93293
G1 X55.046 Y32.152 E24.11139
G1 X51.579 Y36.035 E24.28985
G1 X48.574 Y40.285 E24.46831
G1 X46.068 Y44.848 E24.64677
G1 X44.095 Y49.665 E24.82523
