; generated by Slic3r 1.2.9 on 2016-01-06 at 16:12:33

; external perimeters extrusion width = 0.40mm
; perimeters extrusion width = 0.48mm
; infill extrusion width = 0.48mm
; solid infill extrusion width = 0.48mm
; top infill extrusion width = 0.48mm
; support material extrusion width = 0.40mm

M107
M190 S70 ; set bed temperature
M104 S205 ; set temperature
G28 ; home all axes
G1 Z5 F5000 ; lift nozzle

M109 S205 ; wait for temperature to be reached
G21 ; set units to millimeters
G90 ; use absolute coordinates
M82 ; use absolute distances for extrusion
G92 E0
G1 Z0.350 F7800.000
G1 E-2.00000 F2400.00000
G92 E0
G1 X-0.695 Y-69.845 F7800.000
G1 E2.00000 F2400.00000
G1 X2.999 Y-69.881 E2.12667 F600.000
G1 X48.548 Y-69.881 E3.68825
G1 X50.807 Y-69.484 E3.76688
G1 X53.232 Y-67.941 E3.86545 F600.000
G1 X93.684 Y-27.490 E5.82673
G1 X95.000 Y-25.612 E5.90536
G1 X95.624 Y-22.805 E6.00393
G1 X95.624 Y22.292 E7.55004
G1 X95.227 Y24.551 E7.62867
G1 X93.684 Y26.976 E7.72724
G1 X53.232 Y67.428 E9.68852
G1 X51.354 Y68.744 E9.76715
G1 X48.614 Y69.368 E9.86351
G1 X-2.933 Y69.881 E11.63083
G1 X-48.548 Y69.881 E13.19468
G1 X-50.806 Y69.484 E13.27331
G1 X-53.232 Y67.941 E13.37187
G1 X-93.684 Y27.490 E15.33316
G1 X-95.000 Y25.612 E15.41179
G1 X-95.624 Y22.805 E15.51036
G1 X-95.624 Y-22.292 E17.05647
G1 X-95.227 Y-24.551 E17.13509
G1 X-93.684 Y-26.976 E17.23366
G1 X-53.232 Y-67.428 E19.19495
G1 X-51.354 Y-68.744 E19.27358
G1 X-48.614 Y-69.368 E19.36994
G1 X-0.755 Y-69.844 E21.01079
G1 E19.01079 F2400.00000
G92 E0
G1 X-1.575 Y-66.180 F7800.000
G1 E2.00000 F2400.00000
G1 X-0.516 Y-65.121 E2.05135 F600.000
G1 X0.001 Y-65.121 E2.06908
G1 X1.584 Y-66.699 E2.14573
G1 X49.800 Y-66.699 E3.79874
G1 X51.735 Y-65.062 E3.88562
G1 X53.121 Y-56.612 E4.17919 F600.000
G1 X54.299 Y-52.446 E4.32762
G1 X55.952 Y-48.407 E4.47727
G1 X58.070 Y-44.550 E4.62812
G1 X60.570 Y-41.015 E4.77655
G1 X63.475 Y-37.758 E4.92619
G1 X66.730 Y-34.849 E5.07583
G1 X70.293 Y-32.328 E5.22547
G1 X74.149 Y-30.210 E5.37633
G1 X78.155 Y-28.568 E5.52476
G1 X82.355 Y-27.378 E5.67440
G1 X90.801 Y-25.993 E5.96783
G1 X92.436 Y-24.068 E6.05442
G1 X92.436 Y23.555 E7.68711
G1 X90.801 Y25.480 E7.77370
G1 X82.355 Y26.865 E8.06713
G1 X78.189 Y28.043 E8.21556
G1 X74.149 Y29.697 E8.36520
G1 X70.293 Y31.815 E8.51606
G1 X66.730 Y34.336 E8.66570
G1 X63.500 Y37.219 E8.81413
G1 X60.592 Y40.474 E8.96377
G1 X58.070 Y44.037 E9.11341
G1 X55.952 Y47.894 E9.26426
G1 X54.311 Y51.900 E9.41269
G1 X53.121 Y56.099 E9.56234
G1 X51.735 Y64.545 E9.85577
G1 X49.810 Y66.180 E9.94235
G1 X1.575 Y66.180 E11.59604
G1 X0.516 Y65.121 E11.64739
G1 X-0.001 Y65.121 E11.66512
G1 X-1.585 Y66.699 E11.74177
G1 X-49.800 Y66.699 E13.39478
G1 X-51.735 Y65.063 E13.48166
G1 X-53.121 Y56.612 E13.77523
G1 X-54.299 Y52.446 E13.92366
G1 X-55.952 Y48.407 E14.07331
G1 X-58.052 Y44.580 E14.22295
G1 X-60.570 Y41.015 E14.37259
G1 X-63.500 Y37.733 E14.52344
G1 X-66.758 Y34.827 E14.67308
G1 X-70.293 Y32.328 E14.82151
G1 X-74.149 Y30.210 E14.97237
G1 X-78.155 Y28.568 E15.12080
G1 X-82.355 Y27.378 E15.27044
G1 X-90.801 Y25.993 E15.56387
G1 X-92.436 Y24.068 E15.65046
G1 X-92.436 Y-23.555 E17.28315
G1 X-90.801 Y-25.480 E17.36974
G1 X-82.355 Y-26.865 E17.66317
G1 X-78.189 Y-28.043 E17.81160
G1 X-74.149 Y-29.697 E17.96124
G1 X-70.293 Y-31.815 E18.11210
G1 X-66.758 Y-34.314 E18.26053
G1 X-63.500 Y-37.219 E18.41017
G1 X-60.592 Y-40.474 E18.55981
G1 X-58.070 Y-44.037 E18.70945
G1 X-55.952 Y-47.894 E18.86031
G1 X-54.311 Y-51.900 E19.00874
G1 X-53.121 Y-56.099 E19.15838
G1 X-51.735 Y-64.545 E19.45181
G1 X-49.810 Y-66.180 E19.53839
G1 X-1.635 Y-66.180 E21.19002
G1 X-1.834 Y-65.555 F7800.000
G1 X-0.517 Y-64.238 E21.25389 F600.000
G1 X-0.000 Y-64.238 E21.27161
G1 X1.842 Y-66.073 E21.36075
G1 X49.572 Y-66.073 E22.99714
G1 X51.155 Y-64.734 E23.06822 F600.000
G1 X52.510 Y-56.476 E23.35511
G1 X53.707 Y-52.242 E23.50597
G1 X55.388 Y-48.137 E23.65804
G1 X57.540 Y-44.218 E23.81133
G1 X60.102 Y-40.598 E23.96340
G1 X63.058 Y-37.290 E24.11547
G1 X66.340 Y-34.360 E24.26633
G1 X69.961 Y-31.797 E24.41840
G1 X73.880 Y-29.645 E24.57168
G1 X77.985 Y-27.965 E24.72375
G1 X82.219 Y-26.767 E24.87461
G1 X90.473 Y-25.413 E25.16139
G1 X91.811 Y-23.838 E25.23223
G1 X91.811 Y23.325 E26.84918
G1 X90.473 Y24.900 E26.92003
G1 X82.219 Y26.254 E27.20680
G1 X77.985 Y27.452 E27.35766
G1 X73.880 Y29.132 E27.50973
G1 X69.961 Y31.284 E27.66301
G1 X66.340 Y33.847 E27.81509
G1 X63.033 Y36.802 E27.96716
G1 X60.102 Y40.084 E28.11802
G1 X57.540 Y43.705 E28.27009
G1 X55.388 Y47.624 E28.42337
G1 X53.719 Y51.696 E28.57423
G1 X52.510 Y55.963 E28.72630
G1 X51.156 Y64.218 E29.01308
G1 X49.581 Y65.555 E29.08392
G1 X1.834 Y65.555 E30.72086
G1 X0.517 Y64.238 E30.78472
G1 X0.000 Y64.238 E30.80245
G1 X-1.842 Y66.073 E30.89159
G1 X-49.572 Y66.073 E32.52797
G1 X-51.155 Y64.734 E32.59906
G1 X-52.510 Y56.476 E32.88595
G1 X-53.707 Y52.242 E33.03681
G1 X-55.388 Y48.137 E33.18888
G1 X-57.521 Y44.248 E33.34095
G1 X-60.080 Y40.625 E33.49302
G1 X-63.058 Y37.290 E33.64631
G1 X-66.340 Y34.360 E33.79717
G1 X-69.961 Y31.797 E33.94924
G1 X-73.880 Y29.645 E34.10252
G1 X-77.951 Y27.976 E34.25338
G1 X-82.219 Y26.767 E34.40545
G1 X-90.473 Y25.413 E34.69222
G1 X-91.811 Y23.838 E34.76307
G1 X-91.811 Y-23.325 E36.38002
G1 X-90.473 Y-24.900 E36.45086
G1 X-82.219 Y-26.254 E36.73764
G1 X-77.985 Y-27.452 E36.88850
G1 X-73.880 Y-29.132 E37.04057
G1 X-69.961 Y-31.284 E37.19385
G1 X-66.340 Y-33.847 E37.34592
G1 X-63.058 Y-36.777 E37.49678
G1 X-60.102 Y-40.085 E37.64886
G1 X-57.540 Y-43.705 E37.80093
G1 X-55.387 Y-47.624 E37.95421
G1 X-53.707 Y-51.729 E38.10628
G1 X-52.510 Y-55.963 E38.25714
G1 X-51.156 Y-64.218 E38.54391
G1 X-49.581 Y-65.555 E38.61476
G1 X-1.894 Y-65.555 E40.24964
G1 E38.24964 F2400.00000
G92 E0
G1 X0.812 Y-64.165 F7800.000
G1 E2.00000 F2400.00000
G1 X2.099 Y-65.447 E2.06228 F600.000
G1 X49.344 Y-65.447 E3.68205
G1 X50.576 Y-64.406 E3.73733
G1 X51.899 Y-56.340 E4.01754 F600.000
G1 X53.116 Y-52.038 E4.17083
G1 X54.823 Y-47.867 E4.32533
G1 X57.009 Y-43.886 E4.48104
G1 X59.590 Y-40.236 E4.63433
G1 X62.590 Y-36.872 E4.78883
G1 X65.978 Y-33.848 E4.94455
G1 X69.659 Y-31.248 E5.09905
G1 X73.610 Y-29.080 E5.25355
G1 X77.747 Y-27.385 E5.40684
G1 X82.083 Y-26.156 E5.56134
G1 X90.146 Y-24.834 E5.84145
G1 X91.186 Y-23.609 E5.89655
G1 X91.186 Y23.096 E7.49777
G1 X90.146 Y24.320 E7.55287
G1 X82.083 Y25.643 E7.83298
G1 X77.747 Y26.872 E7.98748
G1 X73.610 Y28.567 E8.14077
G1 X69.629 Y30.753 E8.29648
G1 X65.950 Y33.357 E8.45099
G1 X62.590 Y36.359 E8.60549
G1 X59.612 Y39.695 E8.75877
G1 X57.009 Y43.373 E8.91328
G1 X54.823 Y47.354 E9.06899
G1 X53.127 Y51.491 E9.22228
G1 X51.899 Y55.827 E9.37678
G1 X50.576 Y63.890 E9.65690
G1 X49.351 Y64.931 E9.71200
G1 X2.093 Y64.931 E11.33219
G1 X0.812 Y63.649 E11.39431
G1 X0.812 Y-64.105 E15.77424
G1 X1.437 Y-63.905 F7800.000
G1 X2.356 Y-64.821 E15.81872 F600.000
G1 X49.117 Y-64.821 E17.42187
G1 X49.996 Y-64.077 E17.46136 F600.000
G1 X51.288 Y-56.204 E17.73488
G1 X52.524 Y-51.834 E17.89060
G1 X54.258 Y-47.598 E18.04753
G1 X56.478 Y-43.554 E18.20567
G1 X59.101 Y-39.846 E18.36139
G1 X62.147 Y-36.430 E18.51832
G1 X65.588 Y-33.358 E18.67646
G1 X69.327 Y-30.717 E18.83339
G1 X73.340 Y-28.515 E18.99032
G1 X77.543 Y-26.793 E19.14604
G1 X81.947 Y-25.545 E19.30297
G1 X89.818 Y-24.254 E19.57643
G1 X90.561 Y-23.379 E19.61579
G1 X90.561 Y22.866 E21.20126
G1 X89.818 Y23.741 E21.24062
G1 X81.947 Y25.032 E21.51408
G1 X77.576 Y26.268 E21.66979
G1 X73.340 Y28.002 E21.82672
G1 X69.271 Y30.241 E21.98597
G1 X65.561 Y32.867 E22.14179
G1 X62.147 Y35.917 E22.29872
G1 X59.123 Y39.305 E22.45444
G1 X56.478 Y43.041 E22.61137
G1 X54.258 Y47.084 E22.76951
G1 X52.536 Y51.287 E22.92523
G1 X51.288 Y55.691 E23.08216
G1 X49.997 Y63.562 E23.35562
G1 X49.122 Y64.306 E23.39498
G1 X2.352 Y64.306 E24.99843
G1 X1.437 Y63.391 E25.04280
G1 X1.437 Y-63.845 E29.40495
G1 X2.062 Y-63.646 F7800.000
G1 X2.613 Y-64.195 E29.43164 F600.000
G1 X48.889 Y-64.195 E31.01817
G1 X49.417 Y-63.749 E31.04186
G1 X50.677 Y-56.068 E31.30870 F600.000
G1 X51.932 Y-51.630 E31.46685
G1 X53.693 Y-47.328 E31.62621
G1 X55.948 Y-43.223 E31.78678
G1 X58.611 Y-39.456 E31.94493
G1 X61.705 Y-35.987 E32.10429
G1 X65.254 Y-32.829 E32.26717
G1 X68.995 Y-30.186 E32.42420
G1 X73.070 Y-27.951 E32.58356
G1 X77.372 Y-26.190 E32.74292
G1 X81.846 Y-24.927 E32.90228
G1 X89.490 Y-23.674 E33.16788
G1 X89.936 Y-23.150 E33.19149
G1 X89.936 Y22.636 E34.76121
G1 X89.490 Y23.161 E34.78483
G1 X81.846 Y24.414 E35.05042
G1 X77.372 Y25.677 E35.20978
G1 X73.070 Y27.437 E35.36914
G1 X68.910 Y29.731 E35.53202
G1 X65.171 Y32.377 E35.68906
G1 X61.705 Y35.474 E35.84842
G1 X58.633 Y38.915 E36.00656
G1 X55.948 Y42.709 E36.16592
G1 X53.693 Y46.815 E36.32649
G1 X51.932 Y51.117 E36.48585
G1 X50.669 Y55.590 E36.64521
G1 X49.417 Y63.235 E36.91081
G1 X48.892 Y63.681 E36.93442
G1 X2.611 Y63.681 E38.52113
G1 X2.062 Y63.132 E38.54775
G1 X2.062 Y-63.586 E42.89213
G1 X2.687 Y-63.386 F7800.000
G1 X2.871 Y-63.569 E42.90103 F600.000
G1 X48.661 Y-63.570 E44.47093
G1 X48.837 Y-63.421 E44.47883
G1 X50.066 Y-55.932 E44.73899
G1 X51.341 Y-51.426 E44.89956
G1 X53.128 Y-47.058 E45.06135
G1 X55.417 Y-42.891 E45.22435
G1 X58.143 Y-39.039 E45.38614
G1 X61.262 Y-35.545 E45.54672
G1 X64.781 Y-32.401 E45.70851
G1 X64.893 Y-32.319 E45.71326
G1 X68.663 Y-29.656 E45.87151
G1 X72.801 Y-27.386 E46.03330
G1 X77.168 Y-25.598 E46.19509
G1 X81.675 Y-24.323 E46.35567
G1 X89.163 Y-23.095 E46.61581
G1 X89.312 Y-22.920 E46.62368
G1 X89.312 Y22.407 E48.17766
G1 X89.163 Y22.582 E48.18554
G1 X81.675 Y23.810 E48.44568
G1 X77.168 Y25.085 E48.60626
G1 X72.801 Y26.873 E48.76805
G1 X68.633 Y29.161 E48.93105
G1 X64.781 Y31.887 E49.09284
G1 X61.262 Y35.032 E49.25463
G1 X58.143 Y38.526 E49.41521
G1 X55.417 Y42.378 E49.57700
G1 X53.128 Y46.545 E49.74000
G1 X51.352 Y50.879 E49.90057
G1 X50.066 Y55.419 E50.06236
G1 X48.837 Y62.907 E50.32251
G1 X48.662 Y63.056 E50.33038
G1 X2.870 Y63.056 E51.90034
G1 X2.687 Y62.873 E51.90921
G1 X2.687 Y-63.326 E56.23583
G1 E54.23583 F2400.00000
G92 E0
G1 X-0.812 Y-63.386 F7800.000
G1 E2.00000 F2400.00000
G1 X-0.812 Y64.165 E6.37297 F600.000
G1 X-2.099 Y65.447 E6.43525
G1 X-49.344 Y65.447 E8.05501
G1 X-50.576 Y64.406 E8.11030
G1 X-51.899 Y56.340 E8.39051
G1 X-53.116 Y52.038 E8.54380
G1 X-54.823 Y47.867 E8.69830
G1 X-56.990 Y43.916 E8.85280
G1 X-59.590 Y40.236 E9.00730
G1 X-62.615 Y36.847 E9.16301
G1 X-65.950 Y33.870 E9.31630
G1 X-69.629 Y31.266 E9.47080
G1 X-73.610 Y29.080 E9.62651
G1 X-77.781 Y27.373 E9.78101
G1 X-82.083 Y26.156 E9.93430
G1 X-90.146 Y24.834 E10.21442
G1 X-91.186 Y23.609 E10.26952
G1 X-91.186 Y-23.096 E11.87073
G1 X-90.146 Y-24.320 E11.92583
G1 X-82.083 Y-25.643 E12.20595
G1 X-77.747 Y-26.872 E12.36045
G1 X-73.610 Y-28.567 E12.51374
G1 X-69.629 Y-30.753 E12.66945
G1 X-65.978 Y-33.335 E12.82274
G1 X-62.615 Y-36.334 E12.97724
G1 X-59.590 Y-39.723 E13.13295
G1 X-56.990 Y-43.403 E13.28745
G1 X-54.823 Y-47.354 E13.44196
G1 X-53.116 Y-51.525 E13.59646
G1 X-51.899 Y-55.827 E13.74974
G1 X-50.576 Y-63.890 E14.02986
G1 X-49.351 Y-64.931 E14.08496
G1 X-2.093 Y-64.931 E15.70516
G1 X-0.812 Y-63.649 E15.76728
G1 X-0.812 Y-63.446 E15.77424 F600.000
G1 X-1.437 Y-63.386 F7800.000
G1 X-1.437 Y63.905 E20.13831 F600.000
G1 X-2.356 Y64.821 E20.18279
G1 X-49.117 Y64.821 E21.78593
G1 X-49.996 Y64.077 E21.82542
G1 X-51.288 Y56.204 E22.09895
G1 X-52.524 Y51.834 E22.25467
G1 X-54.258 Y47.598 E22.41160
G1 X-56.460 Y43.584 E22.56853
G1 X-59.101 Y39.846 E22.72546
G1 X-62.172 Y36.405 E22.88360
G1 X-65.561 Y33.380 E23.03932
G1 X-69.297 Y30.736 E23.19625
G1 X-73.340 Y28.515 E23.35439
G1 X-77.543 Y26.793 E23.51011
G1 X-81.947 Y25.545 E23.66704
G1 X-89.818 Y24.254 E23.94050
G1 X-90.561 Y23.379 E23.97986
G1 X-90.561 Y-22.866 E25.56533
G1 X-89.818 Y-23.741 E25.60468
G1 X-81.947 Y-25.032 E25.87815
G1 X-77.543 Y-26.280 E26.03507
G1 X-73.340 Y-28.002 E26.19079
G1 X-69.297 Y-30.223 E26.34893
G1 X-65.588 Y-32.845 E26.50465
G1 X-62.172 Y-35.892 E26.66158
G1 X-59.123 Y-39.305 E26.81851
G1 X-56.497 Y-43.015 E26.97433
G1 X-54.258 Y-47.084 E27.13358
G1 X-52.536 Y-51.287 E27.28930
G1 X-51.288 Y-55.691 E27.44623
G1 X-49.997 Y-63.562 E27.71969
G1 X-49.122 Y-64.306 E27.75904
G1 X-2.352 Y-64.306 E29.36250
G1 X-1.476 Y-63.430 E29.40495 F600.000
G1 X-2.062 Y-63.132 F7800.000
G1 X-2.062 Y63.646 E33.75139 F600.000
G1 X-2.613 Y64.195 E33.77808
G1 X-48.889 Y64.195 E35.36461
G1 X-49.417 Y63.749 E35.38830
G1 X-50.669 Y56.103 E35.65393
G1 X-51.932 Y51.630 E35.81329
G1 X-53.693 Y47.328 E35.97265
G1 X-55.929 Y43.253 E36.13201
G1 X-58.611 Y39.456 E36.29137
G1 X-61.730 Y35.962 E36.45194
G1 X-65.171 Y32.890 E36.61009
G1 X-68.965 Y30.205 E36.76945
G1 X-73.070 Y27.951 E36.93002
G1 X-77.372 Y26.190 E37.08938
G1 X-81.846 Y24.927 E37.24874
G1 X-89.490 Y23.674 E37.51433
G1 X-89.936 Y23.150 E37.53795
G1 X-89.936 Y-22.636 E39.10767
G1 X-89.490 Y-23.161 E39.13128
G1 X-81.846 Y-24.414 E39.39688
G1 X-77.372 Y-25.677 E39.55624
G1 X-73.070 Y-27.437 E39.71560
G1 X-68.965 Y-29.692 E39.87617
G1 X-65.199 Y-32.355 E40.03431
G1 X-61.730 Y-35.449 E40.19367
G1 X-58.611 Y-38.943 E40.35425
G1 X-55.929 Y-42.739 E40.51361
G1 X-53.693 Y-46.815 E40.67297
G1 X-51.932 Y-51.117 E40.83233
G1 X-50.669 Y-55.590 E40.99168
G1 X-49.417 Y-63.235 E41.25728
G1 X-48.892 Y-63.681 E41.28089
G1 X-2.611 Y-63.681 E42.86760
G1 X-2.104 Y-63.174 E42.89216
G1 X-2.870 Y-63.056 F7800.000
G1 X-2.687 Y-62.873 E42.90103 F600.000
G1 X-2.687 Y63.386 E47.22970
G1 X-2.871 Y63.569 E47.23860
G1 X-48.661 Y63.570 E48.80850
G1 X-48.837 Y63.421 E48.81640
G1 X-50.066 Y55.932 E49.07656
G1 X-51.352 Y51.392 E49.23835
G1 X-53.128 Y47.058 E49.39892
G1 X-55.417 Y42.891 E49.56192
G1 X-58.143 Y39.039 E49.72371
G1 X-61.262 Y35.545 E49.88429
G1 X-64.835 Y32.360 E50.04839
G1 X-68.663 Y29.656 E50.20907
G1 X-72.801 Y27.386 E50.37086
G1 X-77.168 Y25.598 E50.53265
G1 X-81.675 Y24.324 E50.69323
G1 X-89.163 Y23.095 E50.95338
G1 X-89.312 Y22.920 E50.96125
G1 X-89.312 Y-22.407 E52.51523
G1 X-89.163 Y-22.582 E52.52310
G1 X-81.675 Y-23.810 E52.78325
G1 X-77.168 Y-25.085 E52.94383
G1 X-72.801 Y-26.873 E53.10561
G1 X-68.633 Y-29.161 E53.26862
G1 X-64.809 Y-31.865 E53.42919
G1 X-61.287 Y-35.007 E53.59098
G1 X-58.143 Y-38.526 E53.75277
G1 X-55.437 Y-42.349 E53.91335
G1 X-53.128 Y-46.545 E54.07755
G1 X-51.341 Y-50.912 E54.23934
G1 X-50.066 Y-55.419 E54.39992
G1 X-48.837 Y-62.907 E54.66007
G1 X-48.662 Y-63.056 E54.66794
G1 X-2.930 Y-63.056 E56.23584
G1 E54.23584 F2400.00000
G92 E0
G1 X3.349 Y-62.907 F7800.000
G1 E2.00000 F2400.00000
G1 X48.250 Y-62.907 E3.53939 F600.000
G1 X49.414 Y-55.805 E3.78610
G1 X50.718 Y-51.192 E3.95046
G1 X52.536 Y-46.756 E4.11483
G1 X54.844 Y-42.553 E4.27920
G1 X57.612 Y-38.639 E4.44357
G1 X60.805 Y-35.062 E4.60794
G1 X64.381 Y-31.870 E4.77231
G1 X68.296 Y-29.102 E4.93667
G1 X72.498 Y-26.794 E5.10104
G1 X76.935 Y-24.976 E5.26541
G1 X81.548 Y-23.671 E5.42978
G1 X88.649 Y-22.508 E5.67648
G1 X88.649 Y21.995 E7.20220
G1 X81.548 Y23.158 E7.44890
G1 X76.935 Y24.463 E7.61327
G1 X72.498 Y26.281 E7.77764
G1 X68.296 Y28.588 E7.94201
G1 X64.381 Y31.356 E8.10638
G1 X60.805 Y34.549 E8.27075
G1 X57.612 Y38.126 E8.43511
G1 X54.936 Y41.911 E8.59405
G1 X54.844 Y42.040 E8.59948
G1 X52.536 Y46.243 E8.76385
G1 X50.718 Y50.679 E8.92822
G1 X49.414 Y55.292 E9.09259
G1 X48.250 Y62.393 E9.33929
G1 X3.349 Y62.393 E10.87868
G1 X3.349 Y-62.847 E15.17241
G1 X3.696 Y-62.707 F7800.000
G1 X3.974 Y-62.282 F7800.000
G1 X47.719 Y-62.282 E16.67218 F600.000
G1 X48.803 Y-55.669 E16.90190
G1 X50.127 Y-50.988 E17.06870
G1 X51.972 Y-46.486 E17.23549
G1 X54.313 Y-42.222 E17.40229
G1 X57.122 Y-38.249 E17.56909
G1 X60.362 Y-34.620 E17.73589
G1 X63.992 Y-31.380 E17.90269
G1 X67.964 Y-28.571 E18.06948
G1 X72.229 Y-26.229 E18.23628
G1 X76.730 Y-24.384 E18.40308
G1 X81.412 Y-23.060 E18.56988
G1 X88.024 Y-21.977 E18.79959
G1 X88.024 Y21.464 E20.28892
G1 X81.412 Y22.547 E20.51863
G1 X76.730 Y23.871 E20.68543
G1 X72.229 Y25.716 E20.85223
G1 X67.964 Y28.058 E21.01903
G1 X63.992 Y30.867 E21.18582
G1 X60.362 Y34.107 E21.35262
G1 X57.122 Y37.736 E21.51942
G1 X54.425 Y41.550 E21.67957
G1 X54.313 Y41.708 E21.68622
G1 X51.972 Y45.973 E21.85302
