; generated by Slic3r 1.2.9 on 2016-01-06 at 12:12:37

; external perimeters extrusion width = 0.40mm
; perimeters extrusion width = 0.48mm
; infill extrusion width = 0.48mm
; solid infill extrusion width = 0.48mm
; top infill extrusion width = 0.48mm
; support material extrusion width = 0.40mm

M107
M190 S70 ; set bed temperature
M104 S205 ; set temperature
G28 ; home all axes
G1 Z5 F5000 ; lift nozzle

M109 S205 ; wait for temperature to be reached
G21 ; set units to millimeters
G90 ; use absolute coordinates
M82 ; use absolute distances for extrusion
G92 E0
G1 Z0.350 F7800.000
G1 E-2.00000 F2400.00000
G92 E0
G1 X46.625 Y0.000 F7800.000
G1 E2.00000 F2400.00000
G1 X46.625 Y20.000 E2.68568 F600.000
G1 X46.228 Y22.259 E2.76431
G1 X44.685 Y24.685 E2.86288
G1 X4.685 Y64.685 E4.80227
G1 X2.807 Y66.001 E4.88090
G1 X0.000 Y66.625 E4.97947
G1 X-40.000 Y66.625 E6.35083
G1 X-42.259 Y66.228 E6.42946
G1 X-44.247 Y65.085 E6.50809
G1 X-45.726 Y63.332 E6.58672
G1 X-46.519 Y61.180 E6.66535
G1 X-46.625 Y60.000 E6.70596
G1 X-46.625 Y-60.000 E10.82004
G1 X-46.228 Y-62.259 E10.89867
G1 X-45.085 Y-64.247 E10.97729
G1 X-43.332 Y-65.726 E11.05592
G1 X-41.180 Y-66.519 E11.13455
G1 X-40.000 Y-66.625 E11.17516
G1 X0.000 Y-66.625 E12.54652
G1 X2.259 Y-66.228 E12.62515
G1 X4.685 Y-64.685 E12.72372 F600.000
G1 X44.685 Y-24.685 E14.66312
G1 X46.001 Y-22.807 E14.74174
G1 X46.625 Y-20.000 E14.84031
G1 X46.625 Y-0.060 E15.52394
G1 E13.52394 F2400.00000
G92 E0
G1 X43.437 Y0.000 F7800.000
G1 E2.00000 F2400.00000
G1 X43.437 Y21.263 E2.72897 F600.000
G1 X41.802 Y23.188 E2.81556
G1 X35.703 Y24.189 E3.02745
G1 X31.176 Y25.471 E3.18875
G1 X26.823 Y27.257 E3.35006
G1 X22.730 Y29.505 E3.51015
G1 X18.888 Y32.220 E3.67146
G1 X15.351 Y35.376 E3.83397
G1 X12.220 Y38.888 E3.99528
G1 X9.524 Y42.700 E4.15537
G1 X7.257 Y46.823 E4.31668
G1 X5.471 Y51.176 E4.47798
G1 X4.189 Y55.703 E4.63929
G1 X3.188 Y61.802 E4.85117
G1 X1.263 Y63.437 E4.93776
G1 X-41.424 Y63.437 E6.40122
G1 X-43.437 Y61.424 E6.49884
G1 X-43.437 Y-61.424 E10.71053
G1 X-41.424 Y-63.437 E10.80814
G1 X1.263 Y-63.437 E12.27160
G1 X3.188 Y-61.802 E12.35819
G1 X4.189 Y-55.703 E12.57008 F600.000
G1 X5.471 Y-51.176 E12.73138
G1 X7.242 Y-46.855 E12.89148
G1 X9.524 Y-42.700 E13.05399
G1 X12.220 Y-38.888 E13.21409
G1 X15.351 Y-35.376 E13.37539
G1 X18.888 Y-32.220 E13.53791
G1 X22.700 Y-29.524 E13.69800
G1 X26.823 Y-27.257 E13.85931
G1 X31.176 Y-25.471 E14.02061
G1 X35.703 Y-24.189 E14.18192
G1 X41.802 Y-23.188 E14.39381
G1 X43.437 Y-21.263 E14.48039
G1 X43.437 Y-0.060 E15.20731
G1 X42.812 Y0.000 F7800.000
G1 X42.812 Y21.033 E15.92841 F600.000
G1 X41.474 Y22.608 E15.99925
G1 X35.567 Y23.578 E16.20448
G1 X30.972 Y24.879 E16.36822
G1 X26.554 Y26.692 E16.53195
G1 X22.368 Y28.993 E16.69569
G1 X18.498 Y31.730 E16.85821
G1 X14.934 Y34.909 E17.02195
G1 X11.730 Y38.498 E17.18689
G1 X8.993 Y42.368 E17.34941
G1 X6.692 Y46.554 E17.51315
G1 X4.879 Y50.972 E17.67688
G1 X3.578 Y55.567 E17.84062
G1 X2.608 Y61.474 E18.04585
G1 X1.033 Y62.812 E18.11669
G1 X-41.165 Y62.812 E19.56341
G1 X-42.812 Y61.165 E19.64327
G1 X-42.812 Y-61.165 E23.83722
G1 X-41.165 Y-62.812 E23.91709
G1 X1.033 Y-62.812 E25.36380
G1 X2.608 Y-61.474 E25.43464 F600.000
G1 X3.578 Y-55.567 E25.63987
G1 X4.879 Y-50.972 E25.80361
G1 X6.692 Y-46.554 E25.96734
G1 X8.993 Y-42.368 E26.13108
G1 X11.752 Y-38.470 E26.29481
G1 X14.909 Y-34.934 E26.45734
G1 X18.498 Y-31.730 E26.62228
G1 X22.398 Y-28.974 E26.78602
G1 X26.554 Y-26.692 E26.94854
G1 X30.972 Y-24.879 E27.11227
G1 X35.567 Y-23.578 E27.27601
G1 X41.474 Y-22.608 E27.48124
G1 X42.812 Y-21.033 E27.55208
G1 X42.812 Y-0.060 E28.27113
G1 X42.187 Y0.000 F7800.000
G1 X42.187 Y20.804 E28.98436 F600.000
G1 X41.147 Y22.028 E29.03946
G1 X35.431 Y22.967 E29.23803
G1 X30.768 Y24.288 E29.40420
G1 X26.284 Y26.127 E29.57036
G1 X22.037 Y28.462 E29.73653
G1 X18.080 Y31.262 E29.90269
G1 X14.491 Y34.466 E30.06764
G1 X11.240 Y38.108 E30.23502
G1 X8.462 Y42.037 E30.39997
G1 X6.127 Y46.284 E30.56613
G1 X4.288 Y50.768 E30.73230
G1 X2.967 Y55.431 E30.89846
G1 X2.028 Y61.147 E31.09703
G1 X0.804 Y62.187 E31.15214
G1 X-40.906 Y62.187 E32.58211
G1 X-42.187 Y60.906 E32.64422
G1 X-42.187 Y-60.906 E36.82042
G1 X-40.906 Y-62.187 E36.88254
G1 X0.804 Y-62.187 E38.31251
G1 X2.028 Y-61.147 E38.36761
G1 X2.967 Y-55.431 E38.56618 F600.000
G1 X4.288 Y-50.768 E38.73235
G1 X6.112 Y-46.316 E38.89730
G1 X8.462 Y-42.037 E39.06468
G1 X11.240 Y-38.108 E39.22963
G1 X14.466 Y-34.491 E39.39579
G1 X18.108 Y-31.240 E39.56317
G1 X22.037 Y-28.462 E39.72812
G1 X26.284 Y-26.127 E39.89428
G1 X30.768 Y-24.288 E40.06045
G1 X35.431 Y-22.967 E40.22661
G1 X41.147 Y-22.028 E40.42519
G1 X42.187 Y-20.804 E40.48029
G1 X42.187 Y-0.060 E41.19146
G1 X41.562 Y0.000 F7800.000
G1 X41.562 Y20.574 E41.89682 F600.000
G1 X40.819 Y21.449 E41.93618
G1 X35.295 Y22.356 E42.12809
G1 X30.564 Y23.696 E42.29669
G1 X26.014 Y25.563 E42.46528
G1 X21.670 Y27.956 E42.63532
G1 X17.691 Y30.772 E42.80246
G1 X14.049 Y34.024 E42.96984
G1 X10.750 Y37.718 E43.13965
G1 X7.931 Y41.705 E43.30703
G1 X5.563 Y46.014 E43.47562
G1 X3.696 Y50.564 E43.64421
G1 X2.356 Y55.295 E43.81281
G1 X1.449 Y60.819 E44.00473
G1 X0.574 Y61.562 E44.04408
G1 X-40.647 Y61.562 E45.45731
G1 X-41.562 Y60.647 E45.50168
G1 X-41.562 Y-60.647 E49.66013
G1 X-40.647 Y-61.562 E49.70450
G1 X0.574 Y-61.562 E51.11772
G1 X1.449 Y-60.819 E51.15708 F600.000
G1 X2.356 Y-55.295 E51.34900
G1 X3.696 Y-50.564 E51.51759
G1 X5.563 Y-46.014 E51.68618
G1 X7.913 Y-41.735 E51.85356
G1 X10.726 Y-37.753 E52.02071
G1 X14.024 Y-34.049 E52.19074
G1 X17.718 Y-30.750 E52.36055
G1 X21.705 Y-27.931 E52.52793
G1 X26.014 Y-25.563 E52.69652
G1 X30.564 Y-23.696 E52.86512
G1 X35.295 Y-22.356 E53.03371
G1 X40.819 Y-21.449 E53.22563
G1 X41.562 Y-20.574 E53.26499
G1 X41.562 Y-0.060 E53.96829
G1 X40.937 Y0.000 F7800.000
G1 X40.937 Y20.344 E54.66577 F600.000
G1 X40.491 Y20.869 E54.68939
G1 X35.194 Y21.737 E54.87344
G1 X30.393 Y23.093 E55.04446
G1 X25.744 Y24.998 E55.21669
G1 X21.309 Y27.446 E55.39037
G1 X17.301 Y30.283 E55.55872
G1 X13.606 Y33.581 E55.72854
G1 X10.260 Y37.329 E55.90077
G1 X7.382 Y41.403 E56.07179
G1 X4.998 Y45.744 E56.24160
G1 X3.093 Y50.393 E56.41384
G1 X1.737 Y55.194 E56.58486
G1 X0.869 Y60.491 E56.76891
G1 X0.344 Y60.937 E56.79253
G1 X-40.388 Y60.937 E58.18900
G1 X-40.937 Y60.388 E58.21563
G1 X-40.937 Y-60.388 E62.35633
G1 X-40.388 Y-60.937 E62.38295
G1 X0.344 Y-60.937 E63.77943
G1 X0.869 Y-60.491 E63.80304
G1 X1.745 Y-55.159 E63.98830 F600.000
G1 X3.093 Y-50.393 E64.15811
G1 X4.983 Y-45.776 E64.32914
G1 X7.401 Y-41.373 E64.50137
G1 X10.260 Y-37.329 E64.67118
G1 X13.581 Y-33.606 E64.84221
G1 X17.329 Y-30.260 E65.01444
G1 X21.373 Y-27.401 E65.18425
G1 X25.744 Y-24.998 E65.35528
G1 X30.393 Y-23.093 E65.52751
G1 X35.194 Y-21.737 E65.69853
G1 X40.491 Y-20.869 E65.88258
G1 X40.937 Y-20.344 E65.90620
G1 X40.937 Y-0.060 E66.60163
G1 E64.60163 F2400.00000
G92 E0
G1 X40.312 Y20.115 F7800.000
G1 E2.00000 F2400.00000
G1 X40.164 Y20.290 E2.00787 F600.000
G1 X35.023 Y21.134 E2.18648
G1 X30.189 Y22.501 E2.35872
G1 X25.475 Y24.433 E2.53338
G1 X21.071 Y26.851 E2.70562
G1 X20.949 Y26.935 E2.71071
G1 X16.911 Y29.793 E2.88029
G1 X13.163 Y33.138 E3.05253
G1 X9.771 Y36.939 E3.22719
G1 X6.870 Y41.041 E3.39943
G1 X4.433 Y45.475 E3.57288
G1 X2.501 Y50.189 E3.74755
G1 X1.134 Y55.023 E3.91979
G1 X0.290 Y60.164 E4.09839
G1 X0.115 Y60.312 E4.10626
G1 X-40.129 Y60.312 E5.48600
G1 X-40.312 Y60.129 E5.49487
G1 X-40.312 Y-60.129 E9.61783
G1 X-40.129 Y-60.312 E9.62670
G1 X0.115 Y-60.312 E11.00643
G1 X0.290 Y-60.164 E11.01430
G1 X1.134 Y-55.023 E11.19291
G1 X2.501 Y-50.189 E11.36515
G1 X4.418 Y-45.507 E11.53860
G1 X6.870 Y-41.041 E11.71326
G1 X9.771 Y-36.939 E11.88551
G1 X13.138 Y-33.163 E12.05896
G1 X16.939 Y-29.771 E12.23362
G1 X21.041 Y-26.870 E12.40586
G1 X25.475 Y-24.433 E12.57932
G1 X30.189 Y-22.501 E12.75398
G1 X35.023 Y-21.134 E12.92622
G1 X40.164 Y-20.290 E13.10482
G1 X40.312 Y-20.115 E13.11270
G1 X40.312 Y20.055 E14.48987
G1 E12.48987 F2400.00000
G92 E0
G1 X-0.297 Y-59.650 F7800.000
G1 E2.00000 F2400.00000
G1 X0.481 Y-54.896 E2.16516 F600.000
G1 X1.879 Y-49.955 E2.34119
G1 X3.826 Y-45.204 E2.51722
G1 X6.297 Y-40.704 E2.69325
G1 X9.262 Y-36.511 E2.86929
G1 X12.681 Y-32.681 E3.04532
G1 X16.511 Y-29.262 E3.22135
G1 X20.704 Y-26.297 E3.39738
G1 X25.204 Y-23.826 E3.57341
G1 X29.955 Y-21.879 E3.74944
G1 X34.896 Y-20.481 E3.92548
G1 X39.650 Y-19.703 E4.09063
G1 X39.650 Y19.703 E5.44161
G1 X34.896 Y20.481 E5.60676
G1 X29.955 Y21.879 E5.78280
G1 X25.204 Y23.826 E5.95883
G1 X20.704 Y26.297 E6.13486
G1 X20.566 Y26.395 E6.14064
G1 X16.511 Y29.262 E6.31089
G1 X12.681 Y32.681 E6.48692
G1 X9.262 Y36.511 E6.66296
G1 X6.297 Y40.704 E6.83899
G1 X3.826 Y45.204 E7.01502
G1 X1.879 Y49.955 E7.19105
G1 X0.504 Y54.816 E7.36424
G1 X-0.297 Y59.650 E7.53222
G1 X-39.650 Y59.650 E8.88141
G1 X-39.650 Y-59.650 E12.97149
G1 X-0.357 Y-59.650 E14.31860
G1 X-0.459 Y-59.284 F7800.000
G1 X-0.828 Y-59.025 F7800.000
G1 X-0.130 Y-54.760 E14.46677 F600.000
G1 X1.287 Y-49.751 E14.64523
G1 X3.261 Y-44.935 E14.82369
G1 X5.767 Y-40.372 E15.00215
G1 X8.772 Y-36.122 E15.18062
G1 X12.238 Y-32.238 E15.35908
G1 X16.122 Y-28.772 E15.53754
G1 X20.372 Y-25.767 E15.71600
G1 X24.935 Y-23.261 E15.89446
G1 X29.751 Y-21.287 E16.07292
G1 X34.760 Y-19.870 E16.25138
G1 X39.025 Y-19.172 E16.39956
G1 X39.025 Y19.172 E17.71413
G1 X34.760 Y19.870 E17.86230
G1 X29.751 Y21.287 E18.04076
G1 X24.935 Y23.261 E18.21922
G1 X20.372 Y25.767 E18.39769
G1 X20.205 Y25.884 E18.40467
G1 X16.122 Y28.772 E18.57615
G1 X12.238 Y32.238 E18.75461
G1 X8.772 Y36.122 E18.93307
G1 X5.767 Y40.372 E19.11153
G1 X3.261 Y44.935 E19.28999
G1 X1.287 Y49.751 E19.46845
G1 X-0.107 Y54.680 E19.64405
G1 X-0.827 Y59.025 E19.79506
G1 X-39.025 Y59.025 E21.10466
G1 X-39.025 Y-59.025 E25.15189
G1 X-0.888 Y-59.025 E26.45938
G1 X-1.359 Y-58.400 F7800.000
G1 X-0.740 Y-54.624 E26.59056 F600.000
G1 X0.696 Y-49.547 E26.77146
G1 X2.696 Y-44.665 E26.95235
G1 X5.236 Y-40.040 E27.13324
G1 X8.282 Y-35.732 E27.31413
G1 X11.796 Y-31.796 E27.49502
G1 X15.732 Y-28.282 E27.67591
G1 X20.040 Y-25.236 E27.85680
G1 X24.665 Y-22.696 E28.03769
G1 X29.547 Y-20.696 E28.21858
G1 X34.624 Y-19.260 E28.39947
G1 X38.400 Y-18.641 E28.53066
G1 X38.400 Y18.641 E29.80883
G1 X34.624 Y19.260 E29.94002
G1 X29.547 Y20.696 E30.12091
G1 X24.665 Y22.696 E30.30180
G1 X20.040 Y25.236 E30.48269
G1 X19.845 Y25.374 E30.49090
G1 X15.732 Y28.282 E30.66358
G1 X11.796 Y31.796 E30.84447
G1 X8.282 Y35.732 E31.02536
G1 X5.236 Y40.040 E31.20626
G1 X2.696 Y44.665 E31.38715
G1 X0.696 Y49.547 E31.56804
G1 X-0.718 Y54.543 E31.74605
G1 X-1.357 Y58.400 E31.88008
G1 X-38.400 Y58.400 E33.15009
G1 X-38.400 Y-58.400 E37.15448
G1 X-1.419 Y-58.400 E38.42234
G1 E36.42234 F2400.00000
G92 E0
G1 X-28.968 Y46.825 F7800.000
G1 E2.00000 F2400.00000
G1 X-27.299 Y48.038 E2.07073 F600.000
G1 X-26.662 Y50.000 E2.14146
G1 X-27.299 Y51.962 E2.21218
G1 X-28.968 Y53.175 E2.28291
G1 X-31.032 Y53.175 E2.35364
G1 X-32.701 Y51.962 E2.42437
G1 X-33.338 Y50.000 E2.49510
G1 X-32.701 Y48.038 E2.56582
G1 X-31.032 Y46.825 E2.63655
G1 X-29.028 Y46.825 E2.70522 F600.000
G1 X-28.645 Y46.590 F7800.000
G1 X-28.968 Y46.200 F7800.000
G1 X-28.765 Y46.200 E2.71218 F600.000
G1 X-26.768 Y47.652 E2.79683
G1 X-26.005 Y50.000 E2.88148
G1 X-26.768 Y52.348 E2.96613
G1 X-28.765 Y53.800 E3.05078
G1 X-31.235 Y53.800 E3.13543
G1 X-33.232 Y52.348 E3.22008
G1 X-33.995 Y50.000 E3.30473
G1 X-33.232 Y47.652 E3.38938
G1 X-31.235 Y46.200 E3.47403
G1 X-29.028 Y46.200 E3.54967 F600.000
G1 X-28.968 Y45.576 F7800.000
G1 X-28.562 Y45.576 E3.56359 F600.000
G1 X-26.236 Y47.266 E3.66216
G1 X-25.348 Y50.000 E3.76073
G1 X-26.236 Y52.734 E3.85930
G1 X-28.562 Y54.424 E3.95788
G1 X-31.438 Y54.424 E4.05645
G1 X-33.764 Y52.734 E4.15502
G1 X-34.652 Y50.000 E4.25359
G1 X-33.764 Y47.266 E4.35216
G1 X-31.438 Y45.576 E4.45074
G1 X-29.028 Y45.576 E4.53333 F600.000
G1 X-28.968 Y33.175 F7800.000
G1 X-31.032 Y33.175 E4.60406 F600.000
G1 X-32.701 Y31.962 E4.67479
G1 X-33.338 Y30.000 E4.74551
G1 X-32.701 Y28.038 E4.81624
G1 X-31.032 Y26.825 E4.88697
G1 X-28.968 Y26.825 E4.95770 F600.000
G1 X-27.299 Y28.038 E5.02843
G1 X-26.662 Y30.000 E5.09915
G1 X-27.299 Y31.962 E5.16988
G1 X-28.920 Y33.139 E5.23855
G1 X-29.092 Y33.555 F7800.000
G1 X-28.601 Y33.680 F7800.000
G1 X-28.765 Y33.800 E5.24551 F600.000
G1 X-31.235 Y33.800 E5.33016
G1 X-33.232 Y32.348 E5.41481
G1 X-33.995 Y30.000 E5.49946
G1 X-33.232 Y27.652 E5.58411
G1 X-31.235 Y26.200 E5.66876
G1 X-28.765 Y26.200 E5.75342 F600.000
G1 X-26.768 Y27.652 E5.83807
G1 X-26.005 Y30.000 E5.92272
G1 X-26.768 Y32.348 E6.00737
G1 X-28.553 Y33.645 E6.08300
G1 X-28.234 Y34.186 F7800.000
G1 X-28.562 Y34.424 E6.09692 F600.000
G1 X-31.438 Y34.424 E6.19549
G1 X-33.764 Y32.734 E6.29406
G1 X-34.652 Y30.000 E6.39264
G1 X-33.764 Y27.266 E6.49121
G1 X-31.438 Y25.576 E6.58978
G1 X-28.562 Y25.576 E6.68835 F600.000
G1 X-26.236 Y27.266 E6.78692
G1 X-25.348 Y30.000 E6.88550
G1 X-26.236 Y32.734 E6.98407
G1 X-28.185 Y34.150 E7.06666
G1 E5.06666 F2400.00000
G92 E0
G1 X-28.968 Y-26.825 F7800.000
G1 E2.00000 F2400.00000
G1 X-31.032 Y-26.825 E2.07073 F600.000
G1 X-32.701 Y-28.038 E2.14146
G1 X-33.338 Y-30.000 E2.21218
G1 X-32.701 Y-31.962 E2.28291
G1 X-31.032 Y-33.175 E2.35364
G1 X-28.968 Y-33.175 E2.42437 F600.000
G1 X-27.299 Y-31.962 E2.49510
G1 X-26.662 Y-30.000 E2.56582
G1 X-27.299 Y-28.038 E2.63655
G1 X-28.920 Y-26.861 E2.70522
G1 X-29.092 Y-26.445 F7800.000
G1 X-28.601 Y-26.320 F7800.000
G1 X-28.765 Y-26.200 E2.71218 F600.000
G1 X-31.235 Y-26.200 E2.79683
G1 X-33.232 Y-27.652 E2.88148
G1 X-33.995 Y-30.000 E2.96613
G1 X-33.232 Y-32.348 E3.05078
G1 X-31.235 Y-33.800 E3.13543
G1 X-28.765 Y-33.800 E3.22008 F600.000
G1 X-26.768 Y-32.348 E3.30473
G1 X-26.005 Y-30.000 E3.38938
G1 X-26.768 Y-27.652 E3.47403
G1 X-28.553 Y-26.355 E3.54967
G1 X-28.234 Y-25.814 F7800.000
G1 X-28.562 Y-25.576 E3.56359 F600.000
G1 X-31.438 Y-25.576 E3.66216
G1 X-33.764 Y-27.266 E3.76073
G1 X-34.652 Y-30.000 E3.85930
G1 X-33.764 Y-32.734 E3.95788
G1 X-31.438 Y-34.424 E4.05645
G1 X-28.562 Y-34.424 E4.15502 F600.000
G1 X-26.236 Y-32.734 E4.25359
G1 X-25.348 Y-30.000 E4.35216
G1 X-26.236 Y-27.266 E4.45074
G1 X-28.185 Y-25.850 E4.53333
G1 E2.53333 F2400.00000
G92 E0
G1 X-28.968 Y-46.825 F7800.000
G1 E2.00000 F2400.00000
G1 X-31.032 Y-46.825 E2.07073 F600.000
G1 X-32.701 Y-48.038 E2.14146
G1 X-33.338 Y-50.000 E2.21218
G1 X-32.701 Y-51.962 E2.28291
G1 X-31.032 Y-53.175 E2.35364
G1 X-28.968 Y-53.175 E2.42437 F600.000
G1 X-27.299 Y-51.962 E2.49510
G1 X-26.662 Y-50.000 E2.56582
G1 X-27.299 Y-48.038 E2.63655
G1 X-28.920 Y-46.861 E2.70522
G1 X-29.092 Y-46.445 F7800.000
G1 X-28.601 Y-46.320 F7800.000
G1 X-28.765 Y-46.200 E2.71218 F600.000
G1 X-31.235 Y-46.200 E2.79683
G1 X-33.232 Y-47.652 E2.88148
G1 X-33.995 Y-50.000 E2.96613
G1 X-33.232 Y-52.348 E3.05078
G1 X-31.235 Y-53.800 E3.13543
G1 X-28.765 Y-53.800 E3.22008 F600.000
G1 X-26.768 Y-52.348 E3.30473
G1 X-26.005 Y-50.000 E3.38938
G1 X-26.768 Y-47.652 E3.47403
G1 X-28.553 Y-46.355 E3.54967
G1 X-28.234 Y-45.814 F7800.000
G1 X-28.562 Y-45.576 E3.56359 F600.000
G1 X-31.438 Y-45.576 E3.66216
G1 X-33.764 Y-47.266 E3.76073
G1 X-34.652 Y-50.000 E3.85930
G1 X-33.764 Y-52.734 E3.95788
G1 X-31.438 Y-54.424 E4.05645
G1 X-28.562 Y-54.424 E4.15502 F600.000
G1 X-26.236 Y-52.734 E4.25359
G1 X-25.348 Y-50.000 E4.35216
G1 X-26.236 Y-47.266 E4.45074
G1 X-28.185 Y-45.850 E4.53333
G1 X-13.338 Y-50.000 F7800.000
G1 X-12.701 Y-51.962 E4.60406 F600.000
G1 X-11.032 Y-53.175 E4.67479
G1 X-8.968 Y-53.175 E4.74551 F600.000
G1 X-7.299 Y-51.962 E4.81624
G1 X-6.662 Y-50.000 E4.88697
G1 X-7.299 Y-48.038 E4.95770
G1 X-8.969 Y-46.825 E5.02843
G1 X-11.032 Y-46.825 E5.09915
G1 X-12.701 Y-48.038 E5.16988
G1 X-13.319 Y-49.943 E5.23855
G1 X-13.662 Y-50.235 F7800.000
G1 X-13.932 Y-49.807 F7800.000
G1 X-13.995 Y-50.000 E5.24551 F600.000
G1 X-13.232 Y-52.348 E5.33016
G1 X-11.235 Y-53.800 E5.41481
G1 X-8.765 Y-53.800 E5.49946 F600.000
G1 X-6.768 Y-52.348 E5.58411
G1 X-6.005 Y-50.000 E5.66876
G1 X-6.768 Y-47.652 E5.75341
G1 X-8.765 Y-46.200 E5.83806
G1 X-11.235 Y-46.200 E5.92271
G1 X-13.232 Y-47.652 E6.00736
