; generated by Slic3r 1.2.9 on 2016-07-30 at 11:13:37

; external perimeters extrusion width = 0.40mm
; perimeters extrusion width = 0.48mm
; infill extrusion width = 0.48mm
; solid infill extrusion width = 0.48mm
; top infill extrusion width = 0.48mm
; support material extrusion width = 0.40mm

M107
M190 S70 ; set bed temperature
M104 S210 ; set temperature
G28 ; home all axes
G1 Z5 F5000 ; lift nozzle

M109 S210 ; wait for temperature to be reached
G21 ; set units to millimeters
G90 ; use absolute coordinates
M82 ; use absolute distances for extrusion
G92 E0
G1 Z0.350 F7800.000
G1 E-2.00000 F2400.00000
G92 E0
G1 X0.000 Y16.058 F7800.000
G1 E2.00000 F2400.00000
G1 X-13.639 Y16.058 E2.46761 F2340.000
G1 X-15.898 Y15.661 E2.54624
G1 X-17.886 Y14.518 E2.62487
G1 X-19.365 Y12.765 E2.70350
G1 X-20.158 Y10.613 E2.78213
G1 X-20.264 Y9.433 E2.82274
G1 X-20.262 Y1.264 E3.10283
G1 X-19.984 Y-9.603 E3.47551
G1 X-19.529 Y-11.851 E3.55414
G1 X-18.335 Y-13.809 E3.63277
G1 X-16.545 Y-15.243 E3.71140
G1 X-13.361 Y-16.058 E3.82408
G1 X13.639 Y-16.058 E4.74976
G1 X15.898 Y-15.661 E4.82839
G1 X17.886 Y-14.518 E4.90701 F2340.000
G1 X19.365 Y-12.765 E4.98564
G1 X20.158 Y-10.613 E5.06427
G1 X20.264 Y-9.433 E5.10488
G1 X20.264 Y-1.433 E5.37915
G1 X19.984 Y9.603 E5.75766
G1 X19.529 Y11.851 E5.83628
G1 X18.335 Y13.809 E5.91491
G1 X16.545 Y15.243 E5.99354
G1 X13.361 Y16.058 E6.10623
G1 X0.060 Y16.058 E6.56223
G1 E4.56223 F2400.00000
G92 E0
G1 X0.000 Y12.870 F7800.000
G1 E2.00000 F2400.00000
G1 X-15.063 Y12.870 E2.51642 F2340.000
G1 X-17.076 Y10.857 E2.61403
G1 X-17.076 Y0.010 E2.98592
G1 X-16.893 Y-0.173 E2.99481
G1 X-16.798 Y-0.403 E3.00333
G1 X-16.798 Y-10.857 E3.36173
G1 X-14.784 Y-12.870 E3.45935
G1 X15.063 Y-12.870 E4.48264
G1 X17.076 Y-10.857 E4.58025
G1 X17.076 Y-0.010 E4.95214 F2340.000
G1 X16.893 Y0.173 E4.96102
G1 X16.798 Y0.403 E4.96955
G1 X16.798 Y10.857 E5.32795
G1 X14.784 Y12.870 E5.42556
G1 X0.060 Y12.870 E5.93038
G1 X0.000 Y12.245 F7800.000
G1 X-14.804 Y12.245 E6.43792 F2340.000
G1 X-16.451 Y10.598 E6.51779
G1 X-16.451 Y0.269 E6.87193
G1 X-16.268 Y0.085 E6.88081
G1 X-16.173 Y-0.144 E6.88934
G1 X-16.173 Y-10.598 E7.24774
G1 X-14.526 Y-12.245 E7.32761
G1 X14.804 Y-12.245 E8.33315
G1 X16.451 Y-10.598 E8.41301 F2340.000
G1 X16.451 Y-0.269 E8.76715
G1 X16.268 Y-0.085 E8.77604
G1 X16.173 Y0.144 E8.78456
G1 X16.173 Y10.598 E9.14297
G1 X14.526 Y12.245 E9.22283
G1 X0.060 Y12.245 E9.71877
G1 X0.000 Y11.621 F7800.000
G1 X-14.545 Y11.621 E10.21744 F2340.000
G1 X-15.826 Y10.339 E10.27956
G1 X-15.826 Y0.528 E10.61595
G1 X-15.419 Y0.120 E10.63573
G1 X-15.419 Y-0.398 E10.65348
G1 X-15.548 Y-0.528 E10.65975
G1 X-15.548 Y-10.339 E10.99614
G1 X-14.267 Y-11.621 E11.05826
G1 X14.545 Y-11.621 E12.04605
G1 X15.826 Y-10.339 E12.10817
G1 X15.826 Y-0.528 E12.44456 F2340.000
G1 X15.419 Y-0.120 E12.46434
G1 X15.419 Y0.398 E12.48209
G1 X15.548 Y0.528 E12.48837
G1 X15.548 Y10.339 E12.82476
G1 X14.267 Y11.621 E12.88687
G1 X0.060 Y11.621 E13.37394
G1 X0.000 Y10.996 F7800.000
G1 X-14.286 Y10.996 E13.86374 F2340.000
G1 X-15.202 Y10.081 E13.90811
G1 X-15.202 Y0.786 E14.22675
G1 X-14.535 Y0.120 E14.25908
G1 X-14.535 Y-0.398 E14.27682
G1 X-14.923 Y-0.786 E14.29565
G1 X-14.923 Y-10.081 E14.61429
G1 X-14.008 Y-10.996 E14.65866
G1 X14.286 Y-10.996 E15.62871
G1 X15.202 Y-10.081 E15.67308 F2340.000
G1 X15.202 Y-0.786 E15.99172
G1 X14.535 Y-0.120 E16.02405
G1 X14.535 Y0.398 E16.04180
G1 X14.923 Y0.786 E16.06062
G1 X14.923 Y10.081 E16.37927
G1 X14.008 Y10.996 E16.42364
G1 X0.060 Y10.996 E16.90183
G1 E14.90183 F2400.00000
G92 E0
G1 X14.604 Y11.262 F7800.000
G1 X15.331 Y0.140 F7800.000
G1 X14.626 Y0.139 F7800.000
G1 X14.137 Y0.072 F7800.000
G1 X13.775 Y0.433 F7800.000
G1 X13.528 Y0.275 F7800.000
G1 E2.00000 F2400.00000
G1 X14.298 Y1.045 E2.03733 F2340.000
G1 X14.298 Y9.822 E2.33822
G1 X13.749 Y10.371 E2.36484
G1 X-14.028 Y10.371 E3.31714
G1 X-14.577 Y9.822 E3.34376
G1 X-14.577 Y1.045 E3.64466
G1 X-14.028 Y0.496 E3.67128
G1 X-13.848 Y0.496 E3.67744
G1 X-13.528 Y-0.275 E3.70607
G1 X-14.298 Y-1.045 E3.74339
G1 X-14.298 Y-9.822 E4.04428
G1 X-13.749 Y-10.371 E4.07091
G1 X14.028 Y-10.371 E5.02320
G1 X14.577 Y-9.822 E5.04983
G1 X14.577 Y-1.045 E5.35072
G1 X14.028 Y-0.496 E5.37734
G1 X13.848 Y-0.496 E5.38350
G1 X13.551 Y0.220 E5.41007
G1 X13.769 Y-1.121 F7800.000
G1 X-13.490 Y-1.121 E6.34462 F2340.000
G1 X-13.673 Y-1.304 E6.35350
G1 X-13.673 Y-9.563 E6.63664
G1 X-13.490 Y-9.746 E6.64552
G1 X13.769 Y-9.746 E7.58007
G1 X13.952 Y-9.563 E7.58894
G1 X13.952 Y-1.304 E7.87209
G1 X13.811 Y-1.163 E7.87890
G1 E5.87890 F2400.00000
G92 E0
G1 X14.054 Y-0.433 F7800.000
G1 X14.054 Y0.045 F7800.000
G1 X14.137 Y0.072 F7800.000
G1 X13.775 Y0.433 F7800.000
G1 X13.490 Y1.121 F7800.000
G1 E2.00000 F2400.00000
G1 X13.673 Y1.304 E2.00887 F2340.000
G1 X13.673 Y9.563 E2.29202
G1 X13.490 Y9.746 E2.30089
G1 X-13.769 Y9.746 E3.23544
G1 X-13.952 Y9.563 E3.24432
G1 X-13.952 Y1.304 E3.52746
G1 X-13.769 Y1.121 E3.53634
G1 X13.430 Y1.121 E4.46883
G1 E2.46883 F2400.00000
G92 E0
G1 X11.110 Y-1.918 F7800.000
G1 E2.00000 F2400.00000
G1 X8.169 Y-1.918 E2.10081 F1170.000
G1 X11.436 Y-1.783 F7800.000
G1 X13.011 Y-4.512 E2.20883 F585.000
G1 X13.289 Y-4.437 E2.21869
G1 X13.289 Y-1.783 E2.30968
G1 X11.496 Y-1.783 E2.37116
G1 X11.743 Y-2.041 F7800.000
G1 E0.37116 F2400.00000
G92 E0
G1 X12.639 Y-2.567 F7800.000
G1 X12.639 Y-2.567 F7800.000
G1 X13.011 Y-6.355 F7800.000
G1 E2.00000 F2400.00000
G1 X11.436 Y-9.083 E2.10801 F585.000
G1 X13.289 Y-9.083 E2.17155
G1 X13.289 Y-6.429 E2.26254
G1 X13.069 Y-6.371 E2.27035
G1 X13.046 Y-6.753 F7800.000
G1 X12.562 Y-8.433 F7800.000
G1 X12.562 Y-8.433 F7800.000
G1 X8.169 Y-8.949 F7800.000
G1 X11.110 Y-8.949 E2.37116 F1170.000
G1 X7.843 Y-9.083 F7800.000
G1 X5.735 Y-5.433 E2.51566 F1170.000
G1 X7.843 Y-1.783 E2.66015
G1 X-7.564 Y-1.783 E3.18835
G1 X-5.457 Y-5.433 E3.33285
G1 X-7.564 Y-9.083 E3.47734
G1 X7.783 Y-9.083 E4.00348
G1 X7.536 Y-8.826 F7800.000
G1 X-4.735 Y-5.433 F7800.000
G1 X-6.482 Y-8.459 E4.12324 F585.000
G1 X6.760 Y-8.459 E4.57723
G1 X5.014 Y-5.433 E4.69699
G1 X6.760 Y-2.408 E4.81674
G1 X-6.482 Y-2.408 E5.27073
G1 X-4.765 Y-5.382 E5.38843
G1 X-5.399 Y-7.834 F7800.000
G1 X5.678 Y-7.834 E5.76820 F585.000
G1 X4.292 Y-5.433 E5.86322
G1 X5.678 Y-3.033 E5.95824
G1 X-5.399 Y-3.033 E6.33801
G1 X-4.014 Y-5.433 E6.43303
G1 X-5.369 Y-7.782 E6.52599
G1 X-6.438 Y-8.433 F7800.000
G1 X-6.438 Y-8.433 F7800.000
G1 X-10.831 Y-8.949 F7800.000
G1 X-7.891 Y-8.949 E6.62681 F1170.000
G1 X-11.158 Y-9.083 F7800.000
G1 X-12.733 Y-6.355 E6.73482 F585.000
G1 X-13.011 Y-6.429 E6.74469
G1 X-13.011 Y-9.083 E6.83568
G1 X-11.218 Y-9.083 E6.89715
G1 X-11.464 Y-8.826 F7800.000
G1 E4.89715 F2400.00000
G92 E0
G1 X-12.361 Y-8.299 F7800.000
G1 X-12.361 Y-2.567 F7800.000
G1 X-10.831 Y-1.918 F7800.000
G1 E2.00000 F2400.00000
G1 X-7.891 Y-1.918 E2.10081 F1170.000
G1 X-12.284 Y-2.433 F7800.000
G1 X-12.284 Y-2.433 F7800.000
G1 X-12.333 Y-2.462 F7800.000
G1 X-12.361 Y-2.567 F7800.000
G1 X-12.733 Y-4.512 F7800.000
G1 X-11.158 Y-1.783 E2.20883 F585.000
G1 X-13.011 Y-1.783 E2.27236
G1 X-13.011 Y-4.437 E2.36335
G1 X-12.791 Y-4.496 E2.37116
G1 X-12.768 Y-4.113 F7800.000
G1 X-12.683 Y-3.769 F7800.000
G1 X-12.439 Y-2.859 E2.40346 F780.000
G1 E0.40346 F2400.00000
G92 E0
G1 X-12.361 Y-2.567 F7800.000
G1 X-12.361 Y-2.567 F7800.000
G1 X-12.683 Y-7.098 F7800.000
G1 E2.00000 F2400.00000
G1 X-12.439 Y-8.008 E2.03230 F780.000
G1 E0.03230 F2400.00000
G92 E0
G1 X-6.438 Y-8.433 F7800.000
G1 X-2.974 Y-6.433 F7800.000
G1 X-1.706 Y-5.433 F7800.000
G1 X-2.974 Y-4.433 F7800.000
G1 X-4.327 Y-3.412 F7800.000
G1 E2.00000 F2400.00000
G1 X-4.627 Y-3.712 E2.01524 F780.000
G1 X-4.287 Y-4.299 E2.03964
G1 X-3.400 Y-3.412 E2.08476
G1 X-2.473 Y-3.412 E2.11808
G1 X-3.948 Y-4.887 E2.19308
G1 X-3.609 Y-5.474 E2.21748
G1 X-1.546 Y-3.412 E2.32235
G1 X-0.620 Y-3.412 E2.35568
G1 X-4.624 Y-7.417 E2.55932
G1 X-3.736 Y-7.455 E2.59129
G1 X0.307 Y-3.412 E2.79689
G1 X1.234 Y-3.412 E2.83022
G1 X-2.809 Y-7.455 E3.03581
G1 X-1.882 Y-7.455 E3.06914
G1 X2.161 Y-3.412 E3.27474
G1 X3.088 Y-3.412 E3.30806
G1 X-0.956 Y-7.455 E3.51366
G1 X-0.029 Y-7.455 E3.54699
G1 X4.015 Y-3.412 E3.75258
G1 X4.903 Y-3.450 E3.78456
G1 X0.898 Y-7.455 E3.98820
G1 X1.825 Y-7.455 E4.02153
G1 X3.887 Y-5.393 E4.12640
G1 X4.227 Y-5.980 E4.15080
G1 X2.752 Y-7.455 E4.22580
G1 X3.679 Y-7.455 E4.25912
G1 X4.566 Y-6.568 E4.30424
G1 X4.605 Y-7.455 E4.33618
G1 X4.905 Y-7.155 E4.35142
G1 E2.35142 F2400.00000
G92 E0
G1 X4.985 Y-5.433 F7800.000
G1 X3.253 Y-6.433 F7800.000
G1 X6.717 Y-8.433 F7800.000
G1 X12.717 Y-8.008 F7800.000
G1 E2.00000 F2400.00000
G1 X12.961 Y-7.098 E2.03230 F780.000
G1 E0.03230 F2400.00000
G92 E0
G1 X12.639 Y-8.299 F7800.000
G1 X12.639 Y-8.299 F7800.000
G1 X12.961 Y-3.769 F7800.000
G1 E2.00000 F2400.00000
G1 X12.717 Y-2.859 E2.03230 F780.000
G1 Z0.350 F7800.000
G1 Z0.350 F7800.000
G1 E0.03230 F2400.00000
G92 E0
G1 X14.054 Y-0.433 F7800.000
G1 X14.054 Y0.045 F7800.000
G1 X14.137 Y0.072 F7800.000
G1 X13.775 Y0.433 F7800.000
G1 X13.011 Y1.783 F7800.000
G1 E2.00000 F2400.00000
G1 X13.011 Y9.083 E2.25027 F1170.000
G1 X-13.289 Y9.083 E3.15195
G1 X-13.289 Y1.783 E3.40222
G1 X12.951 Y1.783 E4.30184
G1 X12.811 Y2.130 F7800.000
G1 X-7.305 Y5.433 F7800.000
G1 X-8.472 Y7.455 E4.38187 F585.000
G1 X-10.806 Y7.455 E4.46189
G1 X-11.973 Y5.433 E4.54192
G1 X-10.806 Y3.412 E4.62194
G1 X-8.472 Y3.412 E4.70196
G1 X-7.335 Y5.381 E4.77993
G1 X-6.999 Y5.691 F7800.000
G1 X-6.584 Y5.433 F7800.000
G1 X-8.111 Y2.787 E4.88469 F2340.000
G1 X-11.167 Y2.787 E4.98945
G1 X-12.387 Y4.899 E5.07306
G1 X-12.664 Y4.825 E5.08293
G1 X-12.664 Y2.408 E5.16577
G1 X12.386 Y2.408 E6.02460
G1 X12.386 Y4.825 E6.10744
G1 X12.108 Y4.899 E6.11730
G1 X10.889 Y2.787 E6.20091
G1 X7.833 Y2.787 E6.30567
G1 X6.305 Y5.433 E6.41044
G1 X7.833 Y8.080 E6.51520
G1 X10.889 Y8.080 E6.61996
G1 X12.108 Y5.968 E6.70357
G1 X12.386 Y6.042 E6.71343
G1 X12.386 Y8.459 E6.79627
G1 X-12.664 Y8.459 E7.65510
G1 X-12.664 Y6.042 E7.73795
G1 X-12.387 Y5.968 E7.74781
G1 X-11.167 Y8.080 E7.83142
G1 X-8.111 Y8.080 E7.93618
G1 X-6.614 Y5.485 E8.03889
G1 X-5.862 Y5.433 F7800.000
G1 X-7.248 Y3.033 E8.13390 F585.000
G1 X6.969 Y3.033 E8.62133
G1 X5.584 Y5.433 E8.71635
G1 X6.969 Y7.834 E8.81137
G1 X-7.248 Y7.834 E9.29879
G1 X-5.892 Y5.485 E9.39175
G1 X7.027 Y5.433 F7800.000
G1 X8.194 Y3.412 E9.47178 F585.000
G1 X10.528 Y3.412 E9.55180
G1 X11.695 Y5.433 E9.63183
G1 X10.528 Y7.455 E9.71185
G1 X8.194 Y7.455 E9.79187
G1 X7.057 Y5.485 E9.86984
G1 X6.720 Y5.176 F7800.000
G1 X6.197 Y3.712 F7800.000
G1 X5.897 Y3.412 E9.88456 F780.000
G1 X5.869 Y4.279 E9.91471
G1 X5.002 Y3.412 E9.95731
G1 X4.106 Y3.412 E9.98841
G1 X5.541 Y4.847 E10.05889
G1 X5.214 Y5.414 E10.08166
G1 X3.211 Y3.412 E10.18002
G1 X2.316 Y3.412 E10.21112
G1 X6.022 Y7.118 E10.39319
G1 X5.464 Y7.455 E10.41584
G1 X1.420 Y3.412 E10.61445
G1 X0.525 Y3.412 E10.64555
G1 X4.568 Y7.455 E10.84416
G1 X3.673 Y7.455 E10.87525
G1 X-0.370 Y3.412 E11.07386
G1 X-1.266 Y3.412 E11.10496
G1 X2.778 Y7.455 E11.30356
G1 X1.882 Y7.455 E11.33466
G1 X-2.161 Y3.412 E11.53327
G1 X-3.056 Y3.412 E11.56436
G1 X0.987 Y7.455 E11.76297
G1 X0.092 Y7.455 E11.79407
G1 X-3.951 Y3.412 E11.99268
G1 X-4.847 Y3.412 E12.02377
G1 X-0.804 Y7.455 E12.22238
G1 X-1.699 Y7.455 E12.25348
G1 X-5.742 Y3.412 E12.45208
G1 X-6.301 Y3.749 E12.47474
G1 X-2.594 Y7.455 E12.65681
G1 X-3.489 Y7.455 E12.68790
G1 X-5.492 Y5.453 E12.78627
G1 X-5.820 Y6.020 E12.80903
G1 X-4.385 Y7.455 E12.87952
G1 X-5.280 Y7.455 E12.91061
G1 X-6.147 Y6.588 E12.95322
G1 X-6.475 Y7.155 E12.97598
G1 X-6.175 Y7.455 E12.99071
G1 X-11.952 Y8.146 F7800.000
G1 X-12.336 Y6.711 E13.04166 F780.000
G1 X-12.336 Y4.156 F7800.000
G1 X-11.952 Y2.721 E13.09261 F780.000
G1 X11.673 Y2.721 F7800.000
G1 X12.058 Y4.156 E13.14356 F780.000
G1 X12.058 Y6.711 F7800.000
G1 X11.673 Y8.146 E13.19451 F780.000
G1 Z0.350 F7800.000
M106 S158.1
M140 S50 ; wait for bed temperature to be reached
G1 Z0.650 F7800.000
G1 E11.19451 F2400.00000
G92 E0
G1 X-14.054 Y0.433 F7800.000
G1 X-14.626 Y-0.139 F7800.000
G1 X-15.241 Y-0.139 F7800.000
G1 X-14.361 Y-1.019 F7800.000
G1 X-12.784 Y-3.773 F7800.000
G1 E2.00000 F2400.00000
G1 X-12.597 Y-3.823 E2.00380 F900.000
G1 X-11.551 Y-2.011 E2.04501
G1 X-12.784 Y-2.011 E2.06928
G1 X-12.784 Y-3.713 E2.10281
G1 E0.10281 F2400.00000
G92 E0
G1 X-12.361 Y-2.567 F7800.000
G1 X-12.361 Y-2.567 F7800.000
G1 X-12.597 Y-7.044 F7800.000
G1 E2.00000 F2400.00000
G1 X-12.784 Y-7.094 E2.00380 F900.000
G1 X-12.784 Y-8.856 E2.03851
G1 X-11.551 Y-8.856 E2.06278
G1 X-12.567 Y-7.096 E2.10281
G1 E0.10281 F2400.00000
G92 E0
G1 X-12.284 Y-8.433 F7800.000
G1 X-12.284 Y-8.433 F7800.000
G1 X-6.445 Y-8.437 F7800.000
G1 E2.00000 F2400.00000
G1 X6.723 Y-8.437 E2.25939 F900.000
G1 X4.989 Y-5.433 E2.32772
G1 X6.723 Y-2.430 E2.39605
G1 X-6.445 Y-2.430 E2.65544
G1 X-4.711 Y-5.433 E2.72377
G1 X-6.415 Y-8.385 E2.79091
G1 X-7.170 Y-8.856 F7800.000
G1 X7.449 Y-8.856 E3.07889 F3600.000
G1 X5.473 Y-5.433 E3.15674
G1 X7.449 Y-2.011 E3.23459
G1 X-7.170 Y-2.011 E3.52257
G1 X-5.194 Y-5.433 E3.60042
G1 X-7.140 Y-8.804 E3.67709
G1 X11.830 Y-8.856 F7800.000
G1 X13.062 Y-8.856 E3.70137 F900.000
G1 X13.062 Y-7.094 E3.73608
G1 X12.876 Y-7.044 E3.73987
G1 X11.860 Y-8.804 E3.77990
G1 E1.77990 F2400.00000
G92 E0
G1 X12.639 Y-8.299 F7800.000
G1 X12.639 Y-8.299 F7800.000
G1 X13.062 Y-3.773 F7800.000
G1 E2.00000 F2400.00000
G1 X13.062 Y-2.011 E2.03471 F900.000
G1 X11.830 Y-2.011 E2.05898
G1 X12.876 Y-3.823 E2.10019
G1 X13.004 Y-3.788 E2.10281
G1 X12.562 Y-2.433 F7800.000
G1 X12.562 Y-2.433 F7800.000
G1 X7.774 Y-2.202 F7800.000
G1 X11.505 Y-2.202 E2.16169 F1800.000
G1 X13.272 Y-5.263 E2.21746
G1 X13.439 Y-5.218 E2.22021
G1 X13.439 Y-1.633 E2.27677
G1 X-13.161 Y-1.633 E2.69660
G1 X-13.161 Y-5.218 E2.75317
G1 X-12.993 Y-5.263 E2.75591
G1 X-11.226 Y-2.202 E2.81168
G1 X-7.495 Y-2.202 E2.87057
G1 X-5.630 Y-5.433 E2.92945
G1 X-7.495 Y-8.665 E2.98834
G1 X-11.226 Y-8.665 E3.04722
G1 X-12.993 Y-5.604 E3.10299
G1 X-13.161 Y-5.649 E3.10573
G1 X-13.161 Y-9.233 E3.16230
G1 X13.439 Y-9.233 E3.58213
G1 X13.439 Y-5.649 E3.63870
G1 X13.272 Y-5.604 E3.64144
G1 X11.505 Y-8.665 E3.69721
G1 X7.774 Y-8.665 E3.75610
G1 X5.908 Y-5.433 E3.81498
G1 X7.744 Y-2.254 E3.87292
G1 X7.843 Y-1.808 F7800.000
G1 X7.720 Y-1.918 F7800.000
G1 X11.558 Y-1.918 E3.94852 F1200.000
G1 X12.546 Y-2.220 F7800.000
G1 X12.842 Y-3.323 E3.97102 F1200.000
G1 E1.97102 F2400.00000
G92 E0
G1 X12.639 Y-8.299 F7800.000
G1 X12.639 Y-8.299 F7800.000
G1 X12.842 Y-7.544 F7800.000
G1 E2.00000 F2400.00000
G1 X12.546 Y-8.647 E2.02250 F1200.000
G1 X11.558 Y-8.949 F7800.000
G1 X7.720 Y-8.949 E2.09810 F1200.000
G1 X6.164 Y-8.190 F7800.000
G1 X0.650 Y-2.677 E2.25215 F1200.000
G1 X0.056 Y-2.677 E2.26389
G1 X5.570 Y-8.190 E2.41795
G1 X4.975 Y-8.190 F7800.000
G1 X-0.538 Y-2.677 E2.57200 F1200.000
G1 X-1.132 Y-2.677 E2.58374
G1 X4.381 Y-8.190 E2.73779
G1 X3.787 Y-8.190 E2.74953
G1 X-1.726 Y-2.677 E2.90358
G1 X-2.320 Y-2.677 E2.91532
G1 X3.193 Y-8.190 E3.06937
G1 X2.599 Y-8.190 E3.08111
G1 X-2.915 Y-2.677 E3.23516
G1 X-3.509 Y-2.677 E3.24690
G1 X2.005 Y-8.190 E3.40095
G1 X1.411 Y-8.190 E3.41269
G1 X-4.103 Y-2.677 E3.56674
G1 X-4.697 Y-2.677 E3.57848
G1 X0.816 Y-8.190 E3.73253
G1 X0.222 Y-8.190 E3.74427
G1 X-5.291 Y-2.677 E3.89833
G1 X-5.885 Y-2.677 E3.91006
G1 X-0.372 Y-8.190 E4.06412
G1 X-0.966 Y-8.190 E4.07586
G1 X-5.231 Y-3.925 E4.19502
G1 X-4.419 Y-5.331 F7800.000
G1 X-1.560 Y-8.190 E4.27490 F1200.000
G1 X-2.154 Y-8.190 E4.28664
G1 X-4.627 Y-5.718 E4.35572
G1 X-4.844 Y-6.094 E4.36432
G1 X-2.749 Y-8.190 E4.42288
G1 X-3.343 Y-8.190 E4.43462
G1 X-5.062 Y-6.471 E4.48265
G1 X-5.279 Y-6.848 E4.49124
G1 X-3.937 Y-8.190 E4.52875
G1 X-4.531 Y-8.190 E4.54049
G1 X-5.497 Y-7.224 E4.56747
G1 X-5.714 Y-7.601 E4.57607
G1 X-5.125 Y-8.190 E4.59253
G1 X-5.719 Y-8.190 E4.60427
G1 X-5.932 Y-7.978 E4.61020
G1 X5.509 Y-6.942 F7800.000
G1 X1.245 Y-2.677 E4.72936 F1200.000
G1 X1.839 Y-2.677 E4.74110
G1 X4.698 Y-5.536 E4.82098
G1 X4.905 Y-5.149 E4.82965
G1 X2.433 Y-2.677 E4.89874
G1 X3.027 Y-2.677 E4.91048
G1 X5.123 Y-4.773 E4.96903
G1 X5.340 Y-4.396 E4.97763
G1 X3.621 Y-2.677 E5.02566
G1 X4.215 Y-2.677 E5.03740
