; generated by Slic3r 1.2.9 on 2016-08-02 at 16:27:51

; external perimeters extrusion width = 0.40mm
; perimeters extrusion width = 0.48mm
; infill extrusion width = 0.48mm
; solid infill extrusion width = 0.48mm
; top infill extrusion width = 0.48mm
; support material extrusion width = 0.40mm

M107
M190 S70 ; set bed temperature
M104 S210 ; set temperature
G28 ; home all axes
G1 Z5 F5000 ; lift nozzle

M109 S210 ; wait for temperature to be reached
G21 ; set units to millimeters
G90 ; use absolute coordinates
M82 ; use absolute distances for extrusion
G92 E0
G1 Z0.350 F7800.000
G1 E-2.00000 F2400.00000
G92 E0
G1 X39.800 Y0.139 F7800.000
G1 E2.00000 F2400.00000
G1 X39.683 Y33.892 E3.15722 F2340.000
G1 X39.278 Y36.150 E3.23585
G1 X38.128 Y38.134 E3.31448
G1 X36.370 Y39.607 E3.39310
G1 X33.171 Y40.493 E3.50688
G1 X21.734 Y40.689 E3.89906
G1 X-25.006 Y41.168 E5.50157
G1 X-33.074 Y41.169 E5.77817
G1 X-35.333 Y40.772 E5.85680
G1 X-37.321 Y39.628 E5.93543
G1 X-38.800 Y37.876 E6.01406
G1 X-39.593 Y35.724 E6.09269
G1 X-39.699 Y34.565 E6.13256
G1 X-39.827 Y-4.850 E7.48388
G1 X-39.827 Y-31.872 E8.41030
G1 X-39.430 Y-34.130 E8.48893
G1 X-38.287 Y-36.119 E8.56756
G1 X-36.534 Y-37.598 E8.64619
G1 X-33.661 Y-38.481 E8.74922
G1 X2.721 Y-41.009 E9.99957
G1 X25.143 Y-41.220 E10.76832
G1 X33.202 Y-41.220 E11.04461
G1 X35.461 Y-40.823 E11.12323
G1 X37.449 Y-39.680 E11.20186 F2340.000
G1 X38.928 Y-37.927 E11.28049
G1 X39.721 Y-35.775 E11.35912
G1 X39.827 Y-34.595 E11.39973
G1 X39.827 Y-7.595 E12.32541
G1 X39.800 Y0.079 E12.58849
G1 E10.58849 F2400.00000
G92 E0
G1 X-22.925 Y37.256 F7800.000
G1 E2.00000 F2400.00000
G1 X-23.650 Y37.981 E2.03513 F2340.000
G1 X-34.497 Y37.981 E2.40702
G1 X-36.511 Y35.967 E2.50463
G1 X-36.511 Y-3.185 E3.84693
G1 X-36.606 Y-3.414 E3.85545
G1 X-36.639 Y-3.448 E3.85707
G1 X-36.639 Y-33.295 E4.88036
G1 X-34.626 Y-35.309 E4.97797
G1 X-23.779 Y-35.309 E5.34986
G1 X-23.661 Y-35.191 E5.35553
G1 X-23.144 Y-35.191 E5.37328
G1 X-22.598 Y-35.737 E5.39974
G1 X-11.751 Y-35.737 E5.77163
G1 X-11.628 Y-35.614 E5.77761
G1 X-11.110 Y-35.614 E5.79535
G1 X-10.226 Y-36.498 E5.83822
G1 X0.284 Y-36.498 E6.19853
G1 X0.513 Y-36.593 E6.20705
G1 X1.757 Y-37.837 E6.26734
G1 X12.604 Y-37.837 E6.63923
G1 X12.842 Y-37.598 E6.65078
G1 X13.072 Y-37.503 E6.65930
G1 X23.115 Y-37.503 E7.00361
G1 X23.345 Y-37.598 E7.01214
G1 X23.779 Y-38.032 E7.03317
G1 X34.626 Y-38.032 E7.40506
G1 X36.639 Y-36.019 E7.50267
G1 X36.639 Y-6.172 E8.52596
G1 X35.689 Y-5.221 E8.57203
G1 X35.689 Y-4.704 E8.58978
G1 X36.495 Y-3.898 E8.62884
G1 X36.495 Y35.293 E9.97246
G1 X34.481 Y37.306 E10.07007
G1 X23.420 Y37.306 E10.44931
G1 X23.190 Y37.401 E10.45783
G1 X23.090 Y37.502 E10.46270
G1 X12.243 Y37.502 E10.83458
G1 X11.844 Y37.103 E10.85389
G1 X11.327 Y37.103 E10.87164
G1 X11.290 Y37.140 E10.87341
G1 X0.132 Y37.140 E11.25594
G1 X-0.013 Y37.200 E11.26135
G1 X-10.737 Y37.200 E11.62902
G1 X-10.967 Y37.295 E11.63754
G1 X-11.244 Y37.572 E11.65098
G1 X-22.091 Y37.572 E12.02286
G1 X-22.408 Y37.256 E12.03820
G1 X-22.865 Y37.256 E12.05389
G1 E10.05389 F2400.00000
G92 E0
G1 X-12.254 Y36.340 F7800.000
G1 X-9.900 Y36.154 F7800.000
G1 X-1.072 Y36.154 F7800.000
G1 X0.080 Y35.915 F7800.000
G1 X-0.038 Y36.292 F7800.000
G1 E2.00000 F2400.00000
G1 X-0.321 Y36.575 E2.01372 F2340.000
G1 X-10.996 Y36.575 E2.37970
G1 X-11.226 Y36.670 E2.38822
G1 X-11.503 Y36.948 E2.40166
G1 X-21.833 Y36.948 E2.75579
G1 X-22.408 Y36.372 E2.78368
G1 X-22.925 Y36.372 E2.80143
G1 X-23.909 Y37.356 E2.84911
G1 X-34.238 Y37.356 E3.20325
G1 X-35.886 Y35.709 E3.28312
G1 X-35.886 Y-2.964 E4.60899
G1 X-35.838 Y-3.012 E4.61132
G1 X-35.838 Y-3.530 E4.62906
G1 X-36.014 Y-3.707 E4.63762
G1 X-36.014 Y-33.036 E5.64316
G1 X-34.367 Y-34.684 E5.72303
G1 X-24.037 Y-34.684 E6.07716
G1 X-23.661 Y-34.308 E6.09539
G1 X-23.144 Y-34.308 E6.11314
G1 X-22.339 Y-35.112 E6.15215
G1 X-12.010 Y-35.112 E6.50628
G1 X-11.628 Y-34.730 E6.52481
G1 X-11.110 Y-34.730 E6.54256
G1 X-9.967 Y-35.873 E6.59798
G1 X0.543 Y-35.873 E6.95829
G1 X0.772 Y-35.968 E6.96681
G1 X2.016 Y-37.212 E7.02710
G1 X12.345 Y-37.212 E7.38124
G1 X12.584 Y-36.973 E7.39279
G1 X12.813 Y-36.878 E7.40131
G1 X23.374 Y-36.878 E7.76337
G1 X23.604 Y-36.973 E7.77189
G1 X24.037 Y-37.407 E7.79293
G1 X34.367 Y-37.407 E8.14707
G1 X36.014 Y-35.760 E8.22693
G1 X36.014 Y-6.430 E9.23248
G1 X34.805 Y-5.221 E9.29109
G1 X34.805 Y-4.704 E9.30884
G1 X35.870 Y-3.639 E9.36045
G1 X35.870 Y35.034 E10.68632
G1 X34.223 Y36.681 E10.76619
G1 X23.893 Y36.681 E11.12033
G1 X23.719 Y36.507 E11.12878
G1 X23.201 Y36.507 E11.14653
G1 X22.831 Y36.877 E11.16447
G1 X12.501 Y36.877 E11.51861
G1 X11.844 Y36.220 E11.55047
G1 X11.327 Y36.220 E11.56821
G1 X11.031 Y36.515 E11.58253
G1 X0.702 Y36.515 E11.93667
G1 X0.479 Y36.292 E11.94746
G1 X0.022 Y36.292 E11.96315
G1 E9.96315 F2400.00000
G92 E0
G1 X-1.072 Y36.154 F7800.000
G1 X-10.885 Y35.979 F7800.000
G1 X-10.891 Y35.754 F7800.000
G1 X-11.150 Y35.710 F7800.000
G1 E2.00000 F2400.00000
G1 X-11.762 Y36.323 E2.02969 F2340.000
G1 X-21.574 Y36.323 E2.36608
G1 X-22.408 Y35.489 E2.40651
G1 X-22.925 Y35.489 E2.42426
G1 X-24.168 Y36.731 E2.48449
G1 X-33.980 Y36.731 E2.82088
G1 X-35.261 Y35.450 E2.88300
G1 X-35.261 Y-2.706 E4.19112
G1 X-34.954 Y-3.012 E4.20600
G1 X-34.954 Y-3.530 E4.22375
G1 X-35.389 Y-3.965 E4.24485
G1 X-35.389 Y-32.778 E5.23265
G1 X-34.108 Y-34.059 E5.29477
G1 X-24.296 Y-34.059 E5.63116
G1 X-23.661 Y-33.424 E5.66193
G1 X-23.144 Y-33.424 E5.67968
G1 X-22.080 Y-34.487 E5.73124
G1 X-12.269 Y-34.487 E6.06763
G1 X-11.628 Y-33.846 E6.09871
G1 X-11.110 Y-33.846 E6.11645
G1 X-9.708 Y-35.248 E6.18442
G1 X0.104 Y-35.248 E6.52081
G1 X0.261 Y-35.091 E6.52844
G1 X0.779 Y-35.091 E6.54618
G1 X2.275 Y-36.587 E6.61871
G1 X12.087 Y-36.587 E6.95510
G1 X12.577 Y-36.096 E6.97890
G1 X13.095 Y-36.096 E6.99664
G1 X13.252 Y-36.253 E7.00428
G1 X23.064 Y-36.253 E7.34067
G1 X23.157 Y-36.161 E7.34516
G1 X23.675 Y-36.161 E7.36291
G1 X24.296 Y-36.782 E7.39305
G1 X34.108 Y-36.782 E7.72944
G1 X35.389 Y-35.501 E7.79156
G1 X35.389 Y-6.689 E8.77935
G1 X33.921 Y-5.221 E8.85052
G1 X33.921 Y-4.704 E8.86826
G1 X35.245 Y-3.380 E8.93243
G1 X35.245 Y34.775 E10.24055
G1 X33.964 Y36.056 E10.30267
G1 X24.152 Y36.056 E10.63906
G1 X23.719 Y35.623 E10.66006
G1 X23.201 Y35.623 E10.67781
G1 X22.572 Y36.252 E10.70830
G1 X12.760 Y36.252 E11.04469
G1 X11.844 Y35.336 E11.08910
G1 X11.327 Y35.336 E11.10685
G1 X10.773 Y35.890 E11.13371
G1 X0.961 Y35.890 E11.47010
G1 X0.479 Y35.409 E11.49344
G1 X-0.038 Y35.409 E11.51119
G1 X-0.580 Y35.950 E11.53746
G1 X-10.392 Y35.950 E11.87385
G1 X-10.632 Y35.710 E11.88548
G1 X-11.090 Y35.710 E11.90117
G1 E9.90117 F2400.00000
G92 E0
G1 X0.080 Y35.915 F7800.000
G1 X0.160 Y-3.761 F7800.000
G1 X1.452 Y-5.036 F7800.000
G1 X2.766 Y-5.020 F7800.000
G1 X10.281 Y-5.020 F7800.000
G1 X11.424 Y-4.783 F7800.000
G1 X11.159 Y-4.441 F7800.000
G1 E2.00000 F2400.00000
G1 X11.479 Y-5.212 E2.02863 F2340.000
G1 X12.416 Y-5.212 E2.06074
G1 X12.735 Y-4.441 E2.08937
G1 X12.206 Y-3.912 E2.11502
G1 X11.688 Y-3.912 E2.13277
G1 X11.202 Y-4.398 E2.15636
G1 E0.15636 F2400.00000
G92 E0
G1 X1.718 Y-5.219 F7800.000
G1 X1.574 Y-5.647 F7800.000
G1 X1.359 Y-6.164 F7800.000
G1 X1.189 Y-6.985 F7800.000
G1 X1.532 Y-6.839 F7800.000
G1 E2.00000 F2400.00000
G1 X0.760 Y-6.520 E2.02863 F2340.000
G1 X0.760 Y-5.414 E2.06654
G1 X0.321 Y-4.974 E2.08784
G1 X0.640 Y-4.203 E2.11647
G1 X10.514 Y-4.203 E2.45497
G1 X11.688 Y-3.028 E2.51193
G1 X12.206 Y-3.028 E2.52968
G1 X13.019 Y-3.841 E2.56910
G1 X22.313 Y-3.841 E2.88774
G1 X23.005 Y-3.149 E2.92129
G1 X23.523 Y-3.149 E2.93904
G1 X24.411 Y-4.037 E2.98208
G1 X33.705 Y-4.037 E3.30072
G1 X34.620 Y-3.121 E3.34509
G1 X34.620 Y34.516 E4.63546
G1 X33.705 Y35.431 E4.67983
G1 X24.411 Y35.431 E4.99848
G1 X23.719 Y34.739 E5.03203
G1 X23.201 Y34.739 E5.04978
G1 X22.313 Y35.627 E5.09282
G1 X13.019 Y35.627 E5.41146
G1 X11.844 Y34.452 E5.46842
G1 X11.327 Y34.452 E5.48617
G1 X10.514 Y35.265 E5.52558
G1 X1.220 Y35.265 E5.84422
G1 X0.479 Y34.525 E5.88011
G1 X-0.038 Y34.525 E5.89786
G1 X-0.839 Y35.326 E5.93668
G1 X-10.133 Y35.326 E6.25532
G1 X-10.632 Y34.827 E6.27950
G1 X-11.150 Y34.827 E6.29725
G1 X-12.021 Y35.698 E6.33949
G1 X-21.315 Y35.698 E6.65813
G1 X-22.230 Y34.783 E6.70250
G1 X-22.230 Y-2.855 E7.99287
G1 X-21.843 Y-3.242 E8.01162
G1 X-21.843 Y-3.760 E8.02937
G1 X-22.868 Y-4.785 E8.07907
G1 X-23.640 Y-4.465 E8.10770
G1 X-23.640 Y-4.224 E8.11596
G1 X-24.206 Y-3.659 E8.14339
G1 X-24.206 Y-3.141 E8.16113
G1 X-23.511 Y-2.447 E8.19479
G1 X-23.511 Y35.191 E9.48516
G1 X-24.427 Y36.106 E9.52953
G1 X-33.721 Y36.106 E9.84818
G1 X-34.636 Y35.191 E9.89255
G1 X-34.636 Y-2.447 E11.18292
G1 X-34.070 Y-3.012 E11.21035
G1 X-34.070 Y-3.530 E11.22809
G1 X-34.764 Y-4.224 E11.26175
G1 X-34.764 Y-32.519 E12.23180
G1 X-33.849 Y-33.434 E12.27617
G1 X-24.555 Y-33.434 E12.59481
G1 X-23.508 Y-32.387 E12.64556
G1 X-22.737 Y-32.707 E12.67419
G1 X-22.737 Y-32.947 E12.68245
G1 X-21.822 Y-33.862 E12.72682
G1 X-12.527 Y-33.862 E13.04546
G1 X-11.136 Y-32.471 E13.11293
G1 X-10.364 Y-32.791 E13.14156
G1 X-10.364 Y-33.708 E13.17302
G1 X-9.449 Y-34.623 E13.21739
G1 X-0.155 Y-34.623 E13.53603
G1 X0.847 Y-33.621 E13.58461
G1 X1.618 Y-33.941 E13.61324
G1 X1.618 Y-35.047 E13.65115
G1 X2.533 Y-35.962 E13.69552
G1 X11.828 Y-35.962 E14.01416
G1 X12.577 Y-35.212 E14.05050
G1 X13.095 Y-35.212 E14.06825
G1 X13.511 Y-35.629 E14.08843
G1 X22.805 Y-35.629 E14.40707
G1 X23.157 Y-35.277 E14.42412
G1 X23.675 Y-35.277 E14.44186
G1 X24.555 Y-36.158 E14.48456
G1 X33.849 Y-36.158 E14.80320
G1 X34.764 Y-35.242 E14.84757
G1 X34.764 Y-6.948 E15.81761
G1 X33.849 Y-6.033 E15.86198
G1 X24.555 Y-6.033 E16.18063
G1 X24.204 Y-6.384 E16.19767
G1 X23.686 Y-6.384 E16.21542
G1 X22.805 Y-5.504 E16.25811
G1 X13.511 Y-5.504 E16.57675
G1 X12.762 Y-6.253 E16.61309
G1 X12.244 Y-6.253 E16.63084
G1 X11.828 Y-5.837 E16.65102
G1 X2.533 Y-5.837 E16.96966
G1 X1.574 Y-6.797 E17.01618
G1 E15.01618 F2400.00000
G92 E0
G1 X1.574 Y-5.647 F7800.000
G1 X11.947 Y-4.586 F7800.000
G1 X12.503 Y-5.996 F7800.000
G1 X12.613 Y-6.652 F7800.000
G1 X12.669 Y-6.985 F7800.000
G1 X12.449 Y-7.343 F7800.000
G1 E2.00000 F2400.00000
G1 X11.569 Y-6.462 E2.04269 F2340.000
G1 X2.792 Y-6.462 E2.34359
G1 X2.243 Y-7.011 E2.37021
G1 X2.243 Y-34.788 E3.32251
G1 X2.792 Y-35.337 E3.34913
G1 X11.569 Y-35.337 E3.65002
G1 X12.118 Y-34.788 E3.67665
G1 X12.118 Y-34.443 E3.68848
G1 X12.889 Y-34.123 E3.71711
G1 X13.770 Y-35.004 E3.75981
G1 X22.546 Y-35.004 E4.06070
G1 X23.493 Y-34.057 E4.10661
G1 X24.265 Y-34.376 E4.13524
G1 X24.265 Y-34.984 E4.15605
G1 X24.814 Y-35.533 E4.18267
G1 X33.590 Y-35.533 E4.48357
G1 X34.139 Y-34.984 E4.51019
G1 X34.139 Y-7.207 E5.46249
G1 X33.590 Y-6.658 E5.48911
G1 X24.814 Y-6.658 E5.79000
G1 X23.867 Y-7.605 E5.83591
G1 X23.096 Y-7.285 E5.86454
G1 X23.096 Y-6.678 E5.88536
G1 X22.546 Y-6.129 E5.91198
G1 X13.770 Y-6.129 E6.21287
G1 X13.221 Y-6.678 E6.23949
G1 X13.221 Y-7.023 E6.25133
G1 X12.505 Y-7.320 E6.27790
G1 E4.27790 F2400.00000
G92 E0
G1 X13.744 Y-4.672 F7800.000
G1 X24.003 Y-5.068 F7800.000
G1 X23.810 Y-6.652 F7800.000
G1 X23.770 Y-6.749 F7800.000
G1 X24.202 Y-7.181 F7800.000
G1 X25.073 Y-7.283 F7800.000
G1 E2.00000 F2400.00000
G1 X24.890 Y-7.466 E2.00887 F2340.000
G1 X24.890 Y-34.725 E2.94342
G1 X25.073 Y-34.908 E2.95230
G1 X33.332 Y-34.908 E3.23544
G1 X33.515 Y-34.725 E3.24432
G1 X33.515 Y-7.466 E4.17887
G1 X33.332 Y-7.283 E4.18774
G1 X25.133 Y-7.283 E4.46883
G1 E2.46883 F2400.00000
G92 E0
G1 X24.202 Y-7.181 F7800.000
G1 X23.264 Y-4.507 F7800.000
G1 X12.523 Y-4.845 F7800.000
G1 X12.503 Y-5.996 F7800.000
G1 X12.587 Y-6.578 F7800.000
G1 X12.181 Y-6.985 F7800.000
G1 X11.493 Y-7.270 F7800.000
G1 E2.00000 F2400.00000
G1 X11.310 Y-7.087 E2.00887 F2340.000
G1 X3.051 Y-7.087 E2.29202
G1 X2.868 Y-7.270 E2.30089
G1 X2.868 Y-34.529 E3.23544
G1 X3.051 Y-34.712 E3.24432
G1 X11.310 Y-34.712 E3.52746
G1 X11.493 Y-34.529 E3.53634
G1 X11.493 Y-7.330 E4.46883
G1 E2.46883 F2400.00000
G92 E0
G1 X12.181 Y-6.985 F7800.000
G1 X12.587 Y-6.578 F7800.000
G1 X12.613 Y-6.652 F7800.000
G1 X13.158 Y-6.652 F7800.000
G1 X14.029 Y-6.754 F7800.000
G1 E2.00000 F2400.00000
G1 X13.846 Y-6.937 E2.00887 F2340.000
G1 X13.846 Y-34.196 E2.94342
G1 X14.029 Y-34.379 E2.95230
G1 X22.288 Y-34.379 E3.23544
G1 X22.471 Y-34.196 E3.24432
G1 X22.471 Y-6.937 E4.17887
G1 X22.288 Y-6.754 E4.18774
G1 X14.089 Y-6.754 E4.46883
G1 E2.46883 F2400.00000
G92 E0
G1 X22.572 Y-6.066 F7800.000
G1 X23.753 Y-4.886 F7800.000
G1 X23.463 Y-4.655 F7800.000
G1 X24.644 Y-3.474 F7800.000
G1 X24.120 Y-2.863 F7800.000
G1 E2.00000 F2400.00000
G1 X24.670 Y-3.412 E2.02662 F2340.000
G1 X33.446 Y-3.412 E2.32752
G1 X33.995 Y-2.863 E2.35414
G1 X33.995 Y34.257 E3.62676 F2340.000
G1 X33.446 Y34.807 E3.65339
G1 X24.670 Y34.807 E3.95428
G1 X24.120 Y34.257 E3.98090
G1 X24.120 Y-2.803 E5.25147
G1 X24.745 Y-2.604 F7800.000
G1 X24.928 Y-2.787 E5.26034 F2340.000
G1 X33.187 Y-2.787 E5.54349
G1 X33.370 Y-2.604 E5.55236
G1 X33.370 Y33.999 E6.80724
G1 X33.187 Y34.182 E6.81612
G1 X24.928 Y34.182 E7.09926
G1 X24.745 Y33.999 E7.10814
G1 X24.745 Y-2.544 E8.36096
G1 E6.36096 F2400.00000
G92 E0
G1 X24.058 Y-2.889 F7800.000
G1 X23.348 Y-2.889 F7800.000
G1 X23.362 Y-2.693 F7800.000
G1 X22.666 Y-2.693 F7800.000
G1 X22.604 Y-2.604 F7800.000
G1 E2.00000 F2400.00000
G1 X22.604 Y34.453 E3.27046 F2340.000
G1 X22.054 Y35.002 E3.29708
G1 X13.278 Y35.002 E3.59797
G1 X12.729 Y34.453 E3.62459
G1 X12.729 Y-2.667 E4.89722
G1 X13.278 Y-3.216 E4.92384
G1 X22.054 Y-3.216 E5.22474
G1 X22.604 Y-2.667 E5.25136
G1 X22.604 Y-2.664 E5.25147 F2340.000
G1 X21.796 Y-2.591 F7800.000
G1 X21.979 Y-2.408 E5.26034 F2340.000
G1 X21.979 Y34.194 E6.51522
G1 X21.796 Y34.377 E6.52410
G1 X13.537 Y34.377 E6.80724
G1 X13.354 Y34.194 E6.81612
G1 X13.354 Y-2.408 E8.07099
G1 X13.537 Y-2.591 E8.07987
G1 X21.736 Y-2.591 E8.36096
G1 E6.36096 F2400.00000
G92 E0
G1 X13.252 Y-3.279 F7800.000
G1 X11.947 Y-4.584 F7800.000
G1 X11.947 Y-4.136 F7800.000
G1 X10.867 Y-3.055 F7800.000
G1 X10.804 Y-2.591 F7800.000
G1 E2.00000 F2400.00000
G1 X10.804 Y34.091 E3.25762 F2340.000
G1 X10.255 Y34.640 E3.28424
G1 X1.478 Y34.640 E3.58514
G1 X0.929 Y34.091 E3.61176
G1 X0.929 Y-3.029 E4.88439
G1 X1.478 Y-3.578 E4.91101
G1 X10.255 Y-3.578 E5.21190
G1 X10.804 Y-3.029 E5.23852
G1 X10.804 Y-2.651 E5.25147 F2340.000
G1 X9.996 Y-2.953 F7800.000
G1 X10.179 Y-2.770 E5.26034 F2340.000
G1 X10.179 Y33.832 E6.51522
G1 X9.996 Y34.015 E6.52410
G1 X1.737 Y34.015 E6.80724
G1 X1.554 Y33.832 E6.81612
G1 X1.554 Y-2.770 E8.07099
G1 X1.737 Y-2.953 E8.07987
G1 X9.936 Y-2.953 E8.36096
G1 E6.36096 F2400.00000
G92 E0
G1 X1.452 Y-3.641 F7800.000
G1 X0.427 Y-4.246 F7800.000
G1 X0.160 Y-3.761 F7800.000
G1 X0.163 Y-3.643 F7800.000
G1 X-0.486 Y-2.995 F7800.000
G1 X-0.549 Y-2.953 F7800.000
G1 E2.00000 F2400.00000
G1 X-0.549 Y34.152 E3.27209 F2340.000
G1 X-1.098 Y34.701 E3.29872
G1 X-9.874 Y34.701 E3.59961
G1 X-10.423 Y34.152 E3.62623
G1 X-10.423 Y-2.969 E4.89886
G1 X-9.874 Y-3.518 E4.92548
G1 X-1.098 Y-3.518 E5.22637
G1 X-0.580 Y-3.000 E5.25147
G1 X-1.357 Y-2.893 F7800.000
G1 X-1.174 Y-2.710 E5.26034 F2340.000
G1 X-1.174 Y33.893 E6.51522
G1 X-1.357 Y34.076 E6.52410
G1 X-9.615 Y34.076 E6.80724
G1 X-9.799 Y33.893 E6.81612
G1 X-9.799 Y-2.710 E8.07099
G1 X-9.615 Y-2.893 E8.07987
G1 X-1.417 Y-2.893 E8.36096
G1 E6.36096 F2400.00000
G92 E0
G1 X-9.900 Y-3.580 F7800.000
G1 X-10.793 Y-4.658 F7800.000
G1 X-10.866 Y-4.886 F7800.000
G1 X-10.988 Y-5.647 F7800.000
G1 X-10.841 Y-5.890 F7800.000
G1 E2.00000 F2400.00000
G1 X-9.872 Y-4.921 E2.04697 F2340.000
G1 X-9.872 Y-4.404 E2.06472
G1 X-11.004 Y-3.271 E2.11962
G1 X-11.522 Y-3.271 E2.13737
G1 X-11.999 Y-3.749 E2.16050
G1 X-11.999 Y-4.266 E2.17825
G1 X-11.612 Y-4.653 E2.19700
G1 X-11.612 Y-5.571 E2.22846
G1 X-10.896 Y-5.867 E2.25503
G1 X-9.739 Y-5.890 F7800.000
G1 X-9.739 Y-33.449 E3.19987 F2340.000
G1 X-9.190 Y-33.998 E3.22649
G1 X-0.414 Y-33.998 E3.52739
G1 X0.135 Y-33.449 E3.55401
G1 X0.135 Y-5.673 E4.50631 F2340.000
G1 X-0.414 Y-5.124 E4.53293
G1 X-9.190 Y-5.124 E4.83382
G1 X-9.739 Y-5.673 E4.86044
G1 X-9.739 Y-5.830 E4.86585
G1 X-8.932 Y-5.748 F7800.000
G1 X-9.115 Y-5.931 E4.87472 F2340.000
G1 X-9.115 Y-33.190 E5.80927
